build/lib/silbersalz_look/luts/silbersalz-250d_v0.1-statistical_33.cube
TITLE "silbersalz-250d_v0.1-statistical_33"
# Generated by saltgate on 2026-08-23
# Input:  Silbersalz flat-scan code values [0,1] (Display P3 tagged)
# Output: graded display code values (Display P3)
# track: v0-statistical
LUT_3D_SIZE 9
DOMAIN_MIN 0.0 0.0 0.0
DOMAIN_MAX 1.0 1.0 1.0
0.030104 0.043889 0.052810
0.047531 0.041693 0.051598
0.055026 0.040749 0.051077
0.058965 0.040252 0.050803
0.160251 0.027515 0.043760
0.362474 0.011740 0.029797
0.859245 0.004063 0.009476
0.997064 0.003042 0.006532
0.998007 0.002889 0.006145
0.027932 0.061244 0.051589
0.045359 0.059048 0.050377
0.052855 0.058104 0.049856
0.056793 0.057608 0.049582
0.158079 0.044847 0.042538
0.360302 0.020746 0.028599
0.857276 0.004916 0.009204
0.997019 0.003492 0.006403
0.997985 0.003292 0.006031
0.027765 0.062575 0.051495
0.045192 0.060379 0.050283
0.052688 0.059434 0.049762
0.056627 0.058938 0.049488
0.157912 0.046177 0.042445
0.360136 0.021909 0.028508
0.857128 0.005002 0.009182
0.997015 0.003533 0.006393
0.997984 0.003329 0.006022
0.027352 0.065883 0.051262
0.044779 0.063687 0.050051
0.052274 0.062743 0.049529
0.056213 0.062246 0.049255
0.157498 0.049485 0.042212
0.359722 0.024909 0.028284
0.856758 0.005352 0.009129
0.997005 0.003670 0.006369
0.997979 0.003447 0.006001
0.017402 0.150311 0.045321
0.034325 0.148115 0.044109
0.041709 0.147171 0.043588
0.045648 0.146674 0.043314
0.146933 0.133912 0.036271
0.349157 0.108476 0.022665
0.846806 0.046929 0.008003
0.996741 0.019173 0.005816
0.997863 0.014931 0.005507
0.010108 0.289481 0.035543
0.019231 0.287285 0.034334
0.024783 0.286340 0.033816
0.028531 0.285844 0.033544
0.129527 0.273081 0.026591
0.331741 0.247599 0.015923
0.829972 0.184574 0.006652
0.996176 0.153645 0.005091
0.997632 0.146693 0.004853
0.004267 0.728462 0.012467
0.005327 0.726317 0.012026
0.005894 0.725404 0.011828
0.006566 0.724926 0.011728
0.075195 0.712440 0.009689
0.276679 0.687199 0.007174
0.776381 0.624492 0.004374
0.992505 0.593642 0.003657
0.996348 0.586689 0.003532
0.002788 0.996270 0.006524
0.003184 0.996213 0.006397
0.003375 0.996184 0.006341
0.003558 0.996166 0.006312
0.029618 0.995746 0.005676
0.228762 0.994339 0.004736
0.728944 0.987705 0.003351
0.974193 0.975974 0.002921
0.993039 0.969482 0.002842
0.002641 0.998123 0.006067
0.002993 0.998103 0.005957
0.003161 0.998094 0.005909
0.003309 0.998089 0.005885
0.022699 0.997963 0.005330
0.220855 0.997641 0.004493
0.721042 0.996112 0.003229
0.966479 0.994320 0.002829
0.991558 0.993554 0.002754
0.028945 0.042709 0.068554
0.046372 0.040513 0.067342
0.053868 0.039568 0.066820
0.057807 0.039072 0.066546
0.159092 0.026340 0.059503
0.361315 0.011351 0.045446
0.858196 0.004014 0.014349
0.997040 0.003015 0.008626
0.997996 0.002865 0.007968
0.026773 0.060064 0.067332
0.044200 0.057868 0.066120
0.051696 0.056923 0.065599
0.055635 0.056427 0.065325
0.156920 0.043667 0.058282
0.359143 0.019716 0.044226
0.856218 0.004843 0.013754
0.996995 0.003456 0.008403
0.997974 0.003261 0.007778
0.026607 0.061394 0.067239
0.044034 0.059198 0.066027
0.051529 0.058254 0.065505
0.055468 0.057757 0.065232
0.156754 0.044997 0.058188
0.358977 0.020842 0.044133
0.856068 0.004927 0.013710
0.996991 0.003496 0.008387
0.997972 0.003296 0.007764
0.026194 0.064703 0.067006
0.043620 0.062507 0.065794
0.051115 0.061562 0.065273
0.055054 0.061066 0.064999
0.156340 0.048304 0.057955
0.358563 0.023828 0.043901
0.855696 0.005267 0.013602
0.996980 0.003630 0.008346
0.997967 0.003412 0.007729
0.016579 0.149131 0.061064
0.033214 0.146935 0.059852
0.040551 0.145990 0.059331
0.044489 0.145494 0.059057
0.145774 0.132731 0.052014
0.347998 0.107299 0.037975
0.845679 0.045801 0.011334
0.996711 0.018298 0.007430
0.997850 0.014355 0.006937
0.009814 0.288300 0.051272
0.018288 0.286104 0.050060
0.023699 0.285160 0.049539
0.027418 0.284663 0.049265
0.128369 0.271901 0.042227
0.330582 0.246419 0.028377
0.828842 0.183393 0.008868
0.996137 0.152464 0.006304
0.997615 0.145513 0.005944
0.004214 0.727307 0.021033
0.005242 0.725161 0.019969
0.005792 0.724248 0.019537
0.006446 0.723769 0.019325
0.074062 0.711277 0.014815
0.275521 0.686023 0.009820
0.775242 0.623314 0.005252
0.992359 0.592461 0.004252
0.996306 0.585508 0.004085
0.002765 0.996241 0.008605
0.003155 0.996183 0.008387
0.003342 0.996153 0.008294
0.003521 0.996135 0.008248
0.028586 0.995705 0.007205
0.227603 0.994273 0.005772
0.727786 0.987456 0.003845
0.973054 0.975012 0.003291
0.992865 0.968324 0.003190
0.002621 0.998112 0.007837
0.002967 0.998092 0.007656
0.003132 0.998083 0.007579
0.003277 0.998079 0.007541
0.021727 0.997951 0.006661
0.219697 0.997625 0.005418
0.719884 0.996064 0.003686
0.965322 0.994211 0.003174
0.991300 0.993405 0.003080
0.028869 0.042631 0.069585
0.046296 0.040435 0.068373
0.053792 0.039491 0.067852
0.057731 0.038994 0.067578
0.159016 0.026263 0.060534
0.361239 0.011325 0.046476
0.858129 0.004011 0.014887
0.997039 0.003013 0.008822
0.997995 0.002863 0.008135
0.026697 0.059986 0.068364
0.044124 0.057790 0.067152
0.051620 0.056846 0.066630
0.055559 0.056350 0.066356
0.156844 0.043589 0.059313
0.359068 0.019653 0.045255
0.856150 0.004839 0.014254
0.996993 0.003454 0.008589
0.997973 0.003259 0.007938
0.026531 0.061317 0.068270
0.043958 0.059121 0.067058
0.051453 0.058176 0.066537
0.055392 0.057680 0.066263
0.156678 0.044919 0.059219
0.358901 0.020774 0.045162
0.856000 0.004922 0.014207
0.996989 0.003494 0.008572
0.997971 0.003294 0.007923
0.026118 0.064625 0.068037
0.043544 0.062429 0.066825
0.051039 0.061485 0.066304
0.054978 0.060988 0.066030
0.156264 0.048227 0.058986
0.358487 0.023759 0.044929
0.855628 0.005261 0.014092
0.996978 0.003628 0.008530
0.997966 0.003410 0.007887
0.016527 0.149053 0.062096
0.033142 0.146857 0.060884
0.040475 0.145913 0.060362
0.044413 0.145416 0.060088
0.145698 0.132654 0.053045
0.347922 0.107222 0.039001
0.845607 0.045729 0.011683
0.996709 0.018244 0.007576
0.997849 0.014318 0.007064
0.009796 0.288223 0.052303
0.018231 0.286027 0.051091
0.023630 0.285082 0.050570
0.027346 0.284586 0.050296
0.128294 0.271823 0.043256
0.330507 0.246341 0.029369
0.828769 0.183316 0.009085
0.996134 0.152387 0.006409
0.997614 0.145436 0.006037
0.004210 0.727232 0.021957
0.005237 0.725086 0.020851
0.005785 0.724172 0.020393
0.006437 0.723694 0.020165
0.073988 0.711201 0.015374
0.275445 0.685947 0.010087
0.775168 0.623237 0.005327
0.992348 0.592384 0.004300
0.996303 0.585431 0.004129
0.002764 0.996239 0.008801
0.003153 0.996181 0.008574
0.003340 0.996151 0.008477
0.003518 0.996132 0.008428
0.028520 0.995701 0.007343
0.227527 0.994268 0.005860
0.727710 0.987438 0.003884
0.972980 0.974946 0.003319
0.992851 0.968249 0.003217
0.002619 0.998112 0.007999
0.002965 0.998092 0.007811
0.003130 0.998083 0.007731
0.003275 0.998078 0.007690
0.021667 0.997950 0.006778
0.219621 0.997623 0.005495
0.719808 0.996060 0.003721
0.965246 0.994203 0.003200
0.991281 0.993394 0.003105
0.028572 0.042328 0.073624
0.045999 0.040132 0.072412
0.053495 0.039188 0.071891
0.057433 0.038692 0.071617
0.158719 0.025965 0.064574
0.360942 0.011222 0.050513
0.857867 0.003998 0.017620
0.997031 0.003006 0.010158
0.997992 0.002857 0.009290
0.026400 0.059683 0.072403
0.043827 0.057487 0.071191
0.051323 0.056543 0.070670
0.055262 0.056047 0.070396
0.156547 0.043287 0.063352
0.358770 0.019417 0.049292
0.855886 0.004820 0.016865
0.996985 0.003445 0.009867
0.997970 0.003251 0.009041
0.026233 0.061014 0.072309
0.043661 0.058818 0.071097
0.051156 0.057874 0.070576
0.055095 0.057377 0.070302
0.156380 0.044616 0.063259
0.358604 0.020517 0.049199
0.855736 0.004902 0.016809
0.996981 0.003485 0.009845
0.997968 0.003286 0.009022
0.025822 0.064322 0.072077
0.043247 0.062126 0.070865
0.050742 0.061182 0.070343
0.054681 0.060685 0.070069
0.155966 0.047924 0.063026
0.358190 0.023493 0.048966
0.855363 0.005238 0.016670
0.996970 0.003617 0.009789
0.997963 0.003400 0.008973
0.016333 0.148750 0.066135
0.032865 0.146554 0.064923
0.040178 0.145610 0.064402
0.044116 0.145113 0.064128
0.145401 0.132351 0.057084
0.347625 0.106921 0.043032
0.845324 0.045451 0.013702
0.996699 0.018041 0.008571
0.997845 0.014177 0.007932
0.009724 0.287920 0.056342
0.018017 0.285724 0.055130
0.023362 0.284779 0.054609
0.027069 0.284283 0.054335
0.127997 0.271520 0.047293
0.330209 0.246039 0.033335
0.828485 0.183013 0.010467
0.996122 0.152084 0.007103
0.997610 0.145134 0.006653
0.004197 0.726941 0.025738
0.005215 0.724795 0.024607
0.005758 0.723881 0.024129
0.006403 0.723403 0.023883
0.073703 0.710906 0.018168
0.275148 0.685647 0.011709
0.774879 0.622936 0.005812
0.992303 0.592081 0.004571
0.996290 0.585128 0.004374
0.002758 0.996228 0.010142
0.003145 0.996170 0.009856
0.003332 0.996140 0.009730
0.003508 0.996121 0.009664
0.028268 0.995686 0.008282
0.227230 0.994244 0.006441
0.727413 0.987361 0.004094
0.972690 0.974681 0.003456
0.992791 0.967952 0.003344
0.002614 0.998109 0.009120
0.002959 0.998089 0.008881
0.003123 0.998080 0.008775
0.003266 0.998075 0.008720
0.021442 0.997947 0.007572
0.219324 0.997619 0.005995
0.719510 0.996045 0.003908
0.964950 0.994166 0.003325
0.991197 0.993343 0.003222
0.023597 0.037257 0.141251
0.041023 0.035061 0.140039
0.048517 0.034116 0.139518
0.052456 0.033621 0.139244
0.153742 0.021245 0.132200
0.355965 0.009785 0.118137
0.853320 0.003799 0.083367
0.996917 0.002895 0.066347
0.997939 0.002757 0.062524
0.021428 0.054612 0.140029
0.038851 0.052416 0.138817
0.046345 0.051471 0.138296
0.050284 0.050975 0.138022
0.151570 0.038218 0.130979
0.353794 0.015959 0.116916
0.851278 0.004534 0.082148
0.996866 0.003301 0.065130
0.997916 0.003122 0.061307
0.021262 0.055942 0.139936
0.038685 0.053746 0.138724
0.046179 0.052802 0.138203
0.050118 0.052306 0.137929
0.151403 0.039547 0.130885
0.353627 0.016759 0.116822
0.851122 0.004606 0.082055
0.996862 0.003337 0.065037
0.997914 0.003155 0.061214
0.020862 0.059251 0.139703
0.038276 0.057055 0.138491
0.045765 0.056110 0.137970
0.049704 0.055614 0.137696
0.150989 0.042854 0.130652
0.353213 0.019154 0.116589
0.850734 0.004899 0.081823
0.996850 0.003456 0.064806
0.997909 0.003258 0.060984
0.013599 0.143679 0.133761
0.028240 0.141483 0.132550
0.035202 0.140538 0.132028
0.039139 0.140042 0.131754
0.140423 0.127279 0.124711
0.342648 0.101875 0.110648
0.840502 0.040763 0.075896
0.996556 0.015039 0.058899
0.997785 0.012155 0.055102
0.008659 0.282848 0.123968
0.014812 0.280652 0.122756
0.018924 0.279708 0.122234
0.022445 0.279212 0.121960
0.123027 0.266449 0.114917
0.325232 0.240967 0.100857
0.823652 0.177942 0.066163
0.995938 0.147016 0.049283
0.997534 0.140071 0.045519
0.003984 0.721994 0.093008
0.004884 0.719845 0.091797
0.005356 0.718929 0.091277
0.005926 0.718449 0.091003
0.068866 0.705906 0.083969
0.270171 0.680604 0.069974
0.769992 0.617881 0.035868
0.991562 0.587010 0.020287
0.996084 0.580056 0.017635
0.002667 0.996084 0.066118
0.003027 0.996020 0.064911
0.003199 0.995987 0.064393
0.003356 0.995966 0.064122
0.023922 0.995467 0.057131
0.222254 0.993923 0.043367
0.722437 0.986089 0.014287
0.967786 0.969806 0.008822
0.991841 0.962917 0.008150
0.002532 0.998062 0.061692
0.002853 0.998041 0.060486
0.003006 0.998031 0.059969
0.003135 0.998026 0.059699
0.018045 0.997891 0.052745
0.214348 0.997542 0.039036
0.714533 0.995808 0.012466
0.959980 0.993577 0.008026
0.989935 0.992548 0.007466
0.016395 0.028711 0.255850
0.032840 0.026550 0.254638
0.040087 0.025632 0.254117
0.044024 0.025163 0.253843
0.145307 0.015694 0.246799
0.347531 0.008016 0.232736
0.845273 0.003507 0.197952
0.996686 0.002726 0.180881
0.997843 0.002603 0.177043
0.015031 0.046019 0.254629
0.030790 0.043824 0.253417
0.037916 0.042880 0.252896
0.041852 0.042385 0.252622
0.143135 0.029679 0.245578
0.345360 0.012001 0.231515
0.843158 0.004125 0.196731
0.996628 0.003084 0.179660
0.997817 0.002927 0.175821
0.014936 0.047349 0.254535
0.030636 0.045153 0.253323
0.037750 0.044209 0.252802
0.041686 0.043714 0.252528
0.142969 0.030990 0.245485
0.345193 0.012513 0.231421
0.842997 0.004184 0.196637
0.996623 0.003116 0.179566
0.997815 0.002956 0.175728
0.014713 0.050657 0.254302
0.030259 0.048461 0.253090
0.037337 0.047517 0.252569
0.041272 0.047021 0.252295
0.142555 0.034282 0.245252
0.344779 0.014153 0.231189
0.842600 0.004416 0.196404
0.996609 0.003215 0.179333
0.997810 0.003044 0.175495
0.010625 0.135084 0.248361
0.020832 0.132888 0.247149
0.026835 0.131944 0.246628
0.030738 0.131448 0.246354
0.131990 0.118687 0.239310
0.334214 0.093374 0.225247
0.832341 0.033165 0.190463
0.996280 0.011629 0.173392
0.997672 0.009771 0.169554
0.007329 0.274254 0.238567
0.011274 0.272058 0.237355
0.013793 0.271114 0.236834
0.016222 0.270617 0.236560
0.114624 0.257855 0.229516
0.316798 0.232373 0.215453
0.815483 0.169352 0.180669
0.995577 0.138445 0.163598
0.997391 0.131514 0.159760
0.003673 0.713596 0.207602
0.004418 0.711435 0.206390
0.004800 0.710512 0.205869
0.005258 0.710027 0.205595
0.060735 0.697384 0.198552
0.261737 0.672064 0.184489
0.761695 0.609310 0.149707
0.989850 0.578416 0.132642
0.995634 0.571462 0.128808
0.002526 0.995777 0.180655
0.002846 0.995696 0.179443
0.002998 0.995653 0.178921
0.003127 0.995626 0.178648
0.017852 0.994993 0.171604
0.213824 0.993303 0.157541
0.714004 0.983096 0.122776
0.959410 0.961273 0.105762
0.989660 0.954346 0.101962
0.002404 0.997975 0.176208
0.002692 0.997952 0.174996
0.002829 0.997942 0.174475
0.002936 0.997936 0.174201
0.013960 0.997787 0.167157
0.205924 0.997396 0.153095
0.706099 0.995274 0.118341
0.951555 0.992094 0.101363
0.987494 0.990590 0.097581
0.007939 0.011378 0.614034
0.012777 0.010710 0.612824
0.015954 0.010412 0.612305
0.018857 0.010268 0.612032
0.118959 0.007668 0.604997
0.321166 0.005153 0.590949
0.819701 0.002833 0.556184
0.995786 0.002306 0.539114
0.997472 0.002217 0.535276
0.007605 0.019901 0.612815
0.011913 0.018162 0.611605
0.014699 0.017467 0.611086
0.017338 0.017139 0.610812
0.116791 0.011175 0.603777
0.318995 0.006592 0.589729
0.817582 0.003223 0.554962
0.995699 0.002557 0.537892
0.997437 0.002449 0.534054
0.007581 0.021076 0.612722
0.011851 0.019176 0.611512
0.014609 0.018421 0.610992
0.017230 0.018065 0.610719
0.116625 0.011617 0.603683
0.318828 0.006746 0.589635
0.817421 0.003259 0.554869
0.995692 0.002579 0.537799
0.997434 0.002469 0.533961
0.007521 0.024156 0.612490
0.011706 0.022114 0.611280
0.014396 0.021259 0.610760
0.016970 0.020833 0.610487
0.116213 0.013091 0.603451
0.318414 0.007355 0.589403
0.817024 0.003383 0.554636
0.995672 0.002643 0.537566
0.997426 0.002527 0.533728
0.006273 0.108233 0.606556
0.008884 0.106042 0.605345
0.010440 0.105101 0.604825
0.012073 0.104608 0.604552
0.105702 0.091950 0.597515
0.307849 0.067120 0.583466
0.806754 0.014528 0.548695
0.995176 0.006623 0.531624
0.997232 0.005942 0.527786
0.004944 0.247389 0.596774
0.006411 0.245193 0.595563
0.007208 0.244249 0.595043
0.008116 0.243752 0.594769
0.088606 0.230990 0.587732
0.290434 0.205509 0.573680
0.789851 0.142541 0.538902
0.993996 0.111868 0.521831
0.996807 0.105051 0.517992
0.002954 0.686982 0.565831
0.003410 0.684797 0.564620
0.003634 0.683860 0.564099
0.003876 0.683369 0.563825
0.036187 0.670678 0.556783
0.235379 0.645342 0.542721
0.735512 0.582475 0.507937
0.978344 0.551552 0.490866
0.993204 0.544597 0.487028
0.002167 0.994375 0.538887
0.002397 0.994246 0.537675
0.002506 0.994180 0.537154
0.002586 0.994141 0.536880
0.009142 0.993283 0.529837
0.187529 0.990841 0.515774
0.687640 0.964455 0.480990
0.933107 0.934456 0.463918
0.980946 0.927509 0.460080
0.002077 0.997646 0.534441
0.002288 0.997615 0.533229
0.002386 0.997601 0.532708
0.002456 0.997593 0.532434
0.007825 0.997386 0.525390
0.179660 0.996795 0.511327
0.679733 0.992199 0.476543
0.925211 0.984602 0.459471
0.977069 0.982075 0.455633
0.004945 0.005932 0.987648
0.006384 0.005744 0.987430
0.007159 0.005662 0.987321
0.008062 0.005621 0.987258
0.089408 0.004764 0.985638
0.291331 0.003668 0.981697
0.790701 0.002324 0.961217
0.994193 0.001960 0.944465
0.996870 0.001896 0.940632
0.004816 0.007849 0.987435
0.006166 0.007527 0.987203
0.006890 0.007391 0.987087
0.007745 0.007324 0.987021
0.087277 0.005943 0.985351
0.289159 0.004342 0.981332
0.788578 0.002580 0.960044
0.994034 0.002139 0.943245
0.996815 0.002062 0.939411
0.004806 0.008062 0.987416
0.006150 0.007722 0.987183
0.006870 0.007578 0.987067
0.007721 0.007508 0.987000
0.087115 0.006064 0.985327
0.288993 0.004407 0.981301
0.788417 0.002602 0.959955
0.994021 0.002154 0.943151
0.996810 0.002077 0.939318
0.004782 0.008891 0.987366
0.006111 0.008499 0.987130
0.006821 0.008330 0.987012
0.007662 0.008247 0.986945
0.086714 0.006581 0.985264
0.288579 0.004663 0.981223
0.788018 0.002672 0.959732
0.993987 0.002197 0.942919
0.996798 0.002116 0.939085
0.004248 0.078173 0.986043
0.005259 0.076024 0.985758
0.005785 0.075109 0.985620
0.006438 0.074631 0.985544
0.076402 0.062198 0.983728
0.278013 0.038179 0.979205
0.777715 0.007035 0.953925
0.993032 0.004357 0.936984
0.996486 0.004046 0.933149
0.003595 0.216987 0.983443
0.004291 0.214792 0.983116
0.004640 0.213847 0.982958
0.005066 0.213351 0.982872
0.059541 0.200588 0.980734
0.260599 0.175112 0.974783
0.760636 0.112429 0.944226
0.990253 0.082369 0.927201
0.995719 0.076018 0.923366
0.002414 0.656748 0.969762
0.002706 0.654563 0.968804
0.002845 0.653625 0.968385
0.002967 0.653134 0.968156
0.015046 0.640438 0.961739
0.205573 0.615065 0.948013
0.705721 0.552082 0.913316
0.951048 0.521151 0.896256
0.986917 0.514197 0.892419
0.001864 0.992222 0.944234
0.002031 0.992035 0.943024
0.002109 0.991942 0.942504
0.002162 0.991889 0.942231
0.005530 0.990559 0.935196
0.157957 0.985414 0.921149
0.657804 0.934934 0.886382
0.903287 0.904074 0.869312
0.958402 0.897120 0.865474
0.001797 0.997124 0.939797
0.001952 0.997077 0.938586
0.002024 0.997056 0.938066
0.002071 0.997043 0.937792
0.004984 0.996720 0.930756
0.150215 0.995649 0.916706
0.649896 0.984522 0.881936
0.895381 0.967143 0.864865
0.950565 0.960270 0.861027
0.004622 0.005450 0.996924
0.005848 0.005292 0.996895
0.006492 0.005223 0.996881
0.007263 0.005189 0.996873
0.083995 0.004452 0.996682
0.285786 0.003481 0.996189
0.785316 0.002248 0.993818
0.993763 0.001907 0.991085
0.996722 0.001846 0.990131
0.004508 0.007037 0.996895
0.005665 0.006777 0.996864
0.006271 0.006668 0.996850
0.007004 0.006614 0.996843
0.081868 0.005470 0.996647
0.283614 0.004085 0.996143
0.783192 0.002487 0.993681
0.993581 0.002076 0.990796
0.996661 0.002004 0.989825
0.004500 0.007205 0.996892
0.005652 0.006933 0.996862
0.006254 0.006819 0.996848
0.006985 0.006762 0.996840
0.081707 0.005571 0.996644
0.283447 0.004141 0.996139
0.783030 0.002508 0.993668
0.993566 0.002090 0.990770
0.996656 0.002017 0.989798
0.004479 0.007894 0.996886
0.005619 0.007582 0.996856
0.006214 0.007448 0.996842
0.006936 0.007381 0.996834
0.081307 0.006008 0.996637
0.283033 0.004357 0.996128
0.782631 0.002571 0.993634
0.993527 0.002130 0.990703
0.996643 0.002054 0.989728
0.004008 0.072666 0.996728
0.004892 0.070520 0.996694
0.005344 0.069607 0.996679
0.005912 0.069131 0.996670
0.071012 0.056713 0.996450
0.272468 0.033135 0.995869
0.772312 0.006350 0.992787
0.992407 0.004090 0.989131
0.996296 0.003816 0.988092
0.003421 0.211337 0.996413
0.004044 0.209141 0.996372
0.004353 0.208197 0.996353
0.004720 0.207700 0.996342
0.054185 0.194938 0.996068
0.255054 0.169464 0.995296
0.755156 0.106899 0.990765
0.988955 0.077213 0.986165
0.995410 0.070997 0.984971
0.002334 0.651132 0.994743
0.002606 0.648947 0.994644
0.002735 0.648009 0.994594
0.002842 0.647518 0.994564
0.012899 0.634820 0.993837
0.200044 0.609432 0.991484
0.700178 0.546432 0.980835
0.945587 0.515501 0.970872
0.985148 0.508547 0.967354
0.001816 0.991702 0.991062
0.001975 0.991495 0.990767
0.002048 0.991394 0.990618
0.002097 0.991336 0.990536
0.005132 0.989840 0.988649
0.152532 0.983562 0.984161
0.652258 0.929316 0.961596
0.897742 0.898425 0.944658
0.952900 0.891470 0.940820
0.001753 0.996999 0.989928
0.001900 0.996947 0.989614
0.001968 0.996924 0.989457
0.002013 0.996910 0.989370
0.004660 0.996554 0.987379
0.144812 0.995317 0.982544
0.644351 0.982377 0.957224
0.889835 0.961597 0.940212
0.945026 0.954659 0.936374
