build/lib/silbersalz_look/luts/silbersalz-250d_v0.1-statistical_33.cube
TITLE "silbersalz-250d_v0.1-statistical_33"
# Generated by saltgate on 2026-08-23
# Input:  Silbersalz flat-scan code values [0,1] (Display P3 tagged)
# Output: graded display code values (Display P3)
# track: v0-statistical
LUT_3D_SIZE 5
DOMAIN_MIN 0.0 0.0 0.0
DOMAIN_MAX 1.0 1.0 1.0
0.030104 0.043889 0.052810
0.055026 0.040749 0.051077
0.160251 0.027515 0.043760
0.859245 0.004063 0.009476
0.998007 0.002889 0.006145
0.027765 0.062575 0.051495
0.052688 0.059434 0.049762
0.157912 0.046177 0.042445
0.857128 0.005002 0.009182
0.997984 0.003329 0.006022
0.017402 0.150311 0.045321
0.041709 0.147171 0.043588
0.146933 0.133912 0.036271
0.846806 0.046929 0.008003
0.997863 0.014931 0.005507
0.004267 0.728462 0.012467
0.005894 0.725404 0.011828
0.075195 0.712440 0.009689
0.776381 0.624492 0.004374
0.996348 0.586689 0.003532
0.002641 0.998123 0.006067
0.003161 0.998094 0.005909
0.022699 0.997963 0.005330
0.721042 0.996112 0.003229
0.991558 0.993554 0.002754
0.028869 0.042631 0.069585
0.053792 0.039491 0.067852
0.159016 0.026263 0.060534
0.858129 0.004011 0.014887
0.997995 0.002863 0.008135
0.026531 0.061317 0.068270
0.051453 0.058176 0.066537
0.156678 0.044919 0.059219
0.856000 0.004922 0.014207
0.997971 0.003294 0.007923
0.016527 0.149053 0.062096
0.040475 0.145913 0.060362
0.145698 0.132654 0.053045
0.845607 0.045729 0.011683
0.997849 0.014318 0.007064
0.004210 0.727232 0.021957
0.005785 0.724172 0.020393
0.073988 0.711201 0.015374
0.775168 0.623237 0.005327
0.996303 0.585431 0.004129
0.002619 0.998112 0.007999
0.003130 0.998083 0.007731
0.021667 0.997950 0.006778
0.719808 0.996060 0.003721
0.991281 0.993394 0.003105
0.023597 0.037257 0.141251
0.048517 0.034116 0.139518
0.153742 0.021245 0.132200
0.853320 0.003799 0.083367
0.997939 0.002757 0.062524
0.021262 0.055942 0.139936
0.046179 0.052802 0.138203
0.151403 0.039547 0.130885
0.851122 0.004606 0.082055
0.997914 0.003155 0.061214
0.013599 0.143679 0.133761
0.035202 0.140538 0.132028
0.140423 0.127279 0.124711
0.840502 0.040763 0.075896
0.997785 0.012155 0.055102
0.003984 0.721994 0.093008
0.005356 0.718929 0.091277
0.068866 0.705906 0.083969
0.769992 0.617881 0.035868
0.996084 0.580056 0.017635
0.002532 0.998062 0.061692
0.003006 0.998031 0.059969
0.018045 0.997891 0.052745
0.714533 0.995808 0.012466
0.989935 0.992548 0.007466
0.007939 0.011378 0.614034
0.015954 0.010412 0.612305
0.118959 0.007668 0.604997
0.819701 0.002833 0.556184
0.997472 0.002217 0.535276
0.007581 0.021076 0.612722
0.014609 0.018421 0.610992
0.116625 0.011617 0.603683
0.817421 0.003259 0.554869
0.997434 0.002469 0.533961
0.006273 0.108233 0.606556
0.010440 0.105101 0.604825
0.105702 0.091950 0.597515
0.806754 0.014528 0.548695
0.997232 0.005942 0.527786
0.002954 0.686982 0.565831
0.003634 0.683860 0.564099
0.036187 0.670678 0.556783
0.735512 0.582475 0.507937
0.993204 0.544597 0.487028
0.002077 0.997646 0.534441
0.002386 0.997601 0.532708
0.007825 0.997386 0.525390
0.679733 0.992199 0.476543
0.977069 0.982075 0.455633
0.004622 0.005450 0.996924
0.006492 0.005223 0.996881
0.083995 0.004452 0.996682
0.785316 0.002248 0.993818
0.996722 0.001846 0.990131
0.004500 0.007205 0.996892
0.006254 0.006819 0.996848
0.081707 0.005571 0.996644
0.783030 0.002508 0.993668
0.996656 0.002017 0.989798
0.004008 0.072666 0.996728
0.005344 0.069607 0.996679
0.071012 0.056713 0.996450
0.772312 0.006350 0.992787
0.996296 0.003816 0.988092
0.002334 0.651132 0.994743
0.002735 0.648009 0.994594
0.012899 0.634820 0.993837
0.700178 0.546432 0.980835
0.985148 0.508547 0.967354
0.001753 0.996999 0.989928
0.001968 0.996924 0.989457
0.004660 0.996554 0.987379
0.644351 0.982377 0.957224
0.945026 0.954659 0.936374
