build/lib/silbersalz_look/luts/silbersalz-colorplus200_v1-paired_33.cube
TITLE "silbersalz-colorplus200_v1-paired"
# Generated by saltgate on 2026-08-27
# Input:  Silbersalz flat-scan code values [0,1] (Display P3 tagged)
# Output: graded display code values (Display P3)
# pairs: 13
LUT_3D_SIZE 33
DOMAIN_MIN 0.0 0.0 0.0
DOMAIN_MAX 1.0 1.0 1.0
0.000000 0.019771 0.032849
0.000000 0.019770 0.032825
0.000000 0.019770 0.032777
0.001984 0.019773 0.032709
0.006802 0.019784 0.032623
0.013510 0.019807 0.032523
0.022529 0.019843 0.032412
0.034323 0.019893 0.032295
0.049367 0.019953 0.032173
0.068136 0.020019 0.032050
0.091087 0.020085 0.031926
0.118645 0.020146 0.031803
0.151190 0.020195 0.031680
0.189028 0.020231 0.031558
0.232335 0.020252 0.031437
0.281103 0.020258 0.031317
0.335072 0.020254 0.031200
0.393685 0.020241 0.031086
0.456057 0.020224 0.030975
0.520979 0.020204 0.030869
0.587001 0.020186 0.030768
0.652418 0.020169 0.030672
0.715428 0.020156 0.030582
0.774445 0.020145 0.030498
0.828187 0.020136 0.030421
0.875868 0.020130 0.030351
0.917067 0.020124 0.030289
0.951701 0.020120 0.030235
0.979910 0.020116 0.030190
1.000000 0.020113 0.030153
1.000000 0.020110 0.030126
1.000000 0.020108 0.030108
1.000000 0.020107 0.030099
0.000000 0.020380 0.032807
0.000000 0.020375 0.032780
0.000000 0.020367 0.032727
0.003148 0.020361 0.032652
0.008313 0.020361 0.032557
0.015453 0.020372 0.032448
0.024984 0.020398 0.032329
0.037360 0.020440 0.032204
0.053046 0.020497 0.032077
0.072505 0.020562 0.031950
0.096186 0.020632 0.031826
0.124509 0.020698 0.031705
0.157844 0.020755 0.031586
0.196477 0.020800 0.031471
0.240553 0.020830 0.031358
0.290021 0.020845 0.031247
0.344569 0.020848 0.031138
0.403586 0.020842 0.031033
0.466139 0.020830 0.030931
0.530997 0.020815 0.030832
0.596657 0.020799 0.030738
0.661406 0.020785 0.030648
0.723542 0.020772 0.030563
0.781522 0.020762 0.030483
0.834210 0.020753 0.030409
0.880872 0.020746 0.030342
0.921152 0.020740 0.030281
0.954992 0.020734 0.030228
0.982542 0.020729 0.030183
1.000000 0.020725 0.030146
1.000000 0.020721 0.030119
1.000000 0.020719 0.030100
1.000000 0.020717 0.030091
0.000000 0.021780 0.032725
0.000000 0.021766 0.032693
0.001456 0.021744 0.032630
0.005519 0.021717 0.032540
0.011371 0.021694 0.032428
0.019363 0.021681 0.032300
0.029898 0.021687 0.032163
0.043408 0.021713 0.032023
0.060340 0.021760 0.031885
0.081142 0.021824 0.031753
0.106248 0.021899 0.031628
0.136062 0.021977 0.031511
0.170927 0.022050 0.031402
0.211082 0.022112 0.031299
0.256608 0.022160 0.031201
0.307367 0.022192 0.031107
0.362951 0.022211 0.031017
0.422654 0.022218 0.030928
0.485463 0.022216 0.030843
0.550069 0.022209 0.030760
0.614906 0.022199 0.030679
0.678346 0.022189 0.030601
0.738758 0.022178 0.030526
0.794811 0.022168 0.030454
0.845525 0.022159 0.030387
0.890298 0.022150 0.030323
0.928864 0.022142 0.030265
0.961215 0.022135 0.030214
0.987525 0.022128 0.030169
1.000000 0.022121 0.030133
1.000000 0.022116 0.030105
1.000000 0.022112 0.030087
1.000000 0.022109 0.030077
0.000000 0.024329 0.032608
0.001295 0.024304 0.032567
0.004358 0.024258 0.032489
0.009188 0.024200 0.032378
0.016055 0.024140 0.032241
0.025294 0.024091 0.032086
0.037287 0.024063 0.031922
0.052439 0.024064 0.031759
0.071175 0.024095 0.031604
0.093918 0.024155 0.031462
0.121081 0.024237 0.031336
0.153034 0.024330 0.031226
0.190071 0.024425 0.031130
0.232356 0.024513 0.031046
0.279864 0.024588 0.030972
0.332335 0.024646 0.030903
0.389229 0.024687 0.030838
0.449713 0.024713 0.030775
0.512667 0.024726 0.030714
0.576664 0.024731 0.030654
0.640163 0.024729 0.030593
0.701611 0.024723 0.030533
0.759592 0.024715 0.030473
0.812981 0.024706 0.030413
0.861002 0.024696 0.030355
0.903210 0.024685 0.030298
0.939443 0.024674 0.030245
0.969759 0.024663 0.030196
0.994363 0.024652 0.030152
1.000000 0.024642 0.030116
1.000000 0.024634 0.030088
1.000000 0.024628 0.030069
1.000000 0.024625 0.030059
0.002884 0.028561 0.032463
0.004708 0.028519 0.032413
0.008450 0.028442 0.032314
0.014288 0.028341 0.032175
0.022478 0.028231 0.032005
0.033329 0.028131 0.031814
0.047194 0.028056 0.031615
0.064448 0.028019 0.031422
0.085485 0.028026 0.031244
0.110700 0.028077 0.031089
0.140469 0.028165 0.030961
0.175107 0.028277 0.030859
0.214829 0.028399 0.030781
0.259691 0.028519 0.030722
0.309528 0.028628 0.030677
0.363925 0.028718 0.030641
0.422185 0.028788 0.030609
0.483336 0.028838 0.030580
0.546105 0.028870 0.030550
0.609023 0.028888 0.030519
0.670603 0.028896 0.030485
0.729455 0.028896 0.030448
0.784405 0.028890 0.030407
0.834567 0.028881 0.030363
0.879370 0.028868 0.030317
0.918527 0.028854 0.030269
0.951987 0.028839 0.030222
0.979878 0.028823 0.030176
1.000000 0.028807 0.030134
1.000000 0.028792 0.030098
1.000000 0.028780 0.030070
1.000000 0.028771 0.030050
1.000000 0.028766 0.030040
0.007092 0.035163 0.032303
0.009339 0.035100 0.032240
0.013918 0.034984 0.032119
0.020993 0.034829 0.031946
0.030790 0.034656 0.031736
0.043586 0.034489 0.031502
0.059696 0.034352 0.031261
0.079459 0.034264 0.031031
0.103235 0.034236 0.030825
0.131377 0.034271 0.030654
0.164204 0.034362 0.030523
0.201949 0.034492 0.030431
0.244716 0.034645 0.030373
0.292418 0.034802 0.030343
0.344721 0.034948 0.030332
0.401032 0.035075 0.030334
0.460498 0.035177 0.030342
0.521968 0.035254 0.030351
0.584055 0.035307 0.030358
0.645325 0.035340 0.030362
0.704408 0.035358 0.030359
0.760148 0.035362 0.030350
0.811609 0.035358 0.030333
0.858144 0.035347 0.030309
0.899376 0.035331 0.030278
0.935169 0.035311 0.030241
0.965578 0.035290 0.030200
0.990801 0.035267 0.030159
1.000000 0.035244 0.030119
1.000000 0.035223 0.030084
1.000000 0.035205 0.030055
1.000000 0.035192 0.030034
1.000000 0.035185 0.030024
0.012672 0.044946 0.032142
0.015420 0.044860 0.032066
0.020988 0.044697 0.031919
0.029510 0.044479 0.031710
0.041172 0.044231 0.031456
0.056211 0.043984 0.031175
0.074896 0.043771 0.030887
0.097528 0.043619 0.030615
0.124418 0.043544 0.030378
0.155861 0.043554 0.030188
0.192090 0.043641 0.030052
0.233227 0.043786 0.029969
0.279225 0.043967 0.029932
0.329827 0.044160 0.029933
0.384508 0.044346 0.029959
0.442507 0.044510 0.030001
0.502773 0.044645 0.030051
0.564007 0.044748 0.030102
0.624819 0.044821 0.030150
0.683846 0.044868 0.030192
0.739934 0.044893 0.030225
0.792142 0.044900 0.030247
0.839787 0.044895 0.030257
0.882436 0.044879 0.030255
0.919893 0.044857 0.030241
0.952156 0.044830 0.030217
0.979377 0.044800 0.030185
1.000000 0.044768 0.030149
1.000000 0.044737 0.030111
1.000000 0.044708 0.030076
1.000000 0.044684 0.030046
1.000000 0.044665 0.030025
1.000000 0.044656 0.030014
0.019892 0.058790 0.031997
0.023215 0.058678 0.031908
0.029909 0.058466 0.031735
0.040066 0.058179 0.031491
0.053827 0.057848 0.031193
0.071374 0.057512 0.030863
0.092930 0.057212 0.030528
0.118741 0.056983 0.030213
0.149057 0.056850 0.029942
0.184081 0.056824 0.029731
0.223934 0.056896 0.029588
0.268586 0.057047 0.029512
0.317818 0.057249 0.029495
0.371172 0.057473 0.029523
0.427941 0.057692 0.029585
0.487161 0.057889 0.029666
0.547607 0.058052 0.029757
0.607957 0.058178 0.029850
0.666840 0.058267 0.029940
0.723089 0.058322 0.030021
0.775750 0.058350 0.030091
0.824121 0.058357 0.030146
0.867742 0.058347 0.030185
0.906376 0.058324 0.030207
0.939978 0.058293 0.030213
0.968665 0.058255 0.030203
0.992674 0.058214 0.030180
1.000000 0.058172 0.030149
1.000000 0.058130 0.030114
1.000000 0.058091 0.030079
1.000000 0.058059 0.030049
1.000000 0.058035 0.030027
1.000000 0.058022 0.030015
0.029045 0.077546 0.031887
0.033007 0.077408 0.031786
0.040946 0.077147 0.031590
0.052907 0.076790 0.031314
0.068972 0.076374 0.030976
0.089267 0.075946 0.030602
0.113953 0.075554 0.030223
0.143206 0.075241 0.029867
0.177179 0.075039 0.029563
0.215964 0.074964 0.029331
0.259523 0.075009 0.029178
0.307652 0.075152 0.029105
0.359930 0.075361 0.029101
0.415699 0.075602 0.029152
0.474052 0.075843 0.029242
0.533823 0.076062 0.029357
0.593745 0.076244 0.029484
0.652478 0.076383 0.029616
0.708827 0.076479 0.029743
0.761815 0.076537 0.029863
0.810716 0.076563 0.029969
0.855046 0.076562 0.030057
0.894541 0.076543 0.030126
0.929129 0.076508 0.030173
0.958898 0.076464 0.030198
0.984060 0.076414 0.030203
1.000000 0.076359 0.030190
1.000000 0.076304 0.030165
1.000000 0.076250 0.030132
1.000000 0.076201 0.030098
1.000000 0.076160 0.030066
1.000000 0.076130 0.030043
1.000000 0.076114 0.030030
0.040430 0.102081 0.031826
0.045086 0.101919 0.031716
0.054376 0.101612 0.031503
0.068289 0.101190 0.031202
0.086843 0.100694 0.030833
0.110095 0.100177 0.030425
0.138127 0.099693 0.030009
0.171017 0.099293 0.029620
0.208796 0.099015 0.029288
0.251398 0.098878 0.029033
0.298604 0.098879 0.028868
0.350001 0.098995 0.028791
0.404960 0.099191 0.028792
0.462623 0.099429 0.028855
0.521864 0.099673 0.028963
0.581424 0.099896 0.029101
0.640029 0.100081 0.029256
0.696470 0.100220 0.029418
0.749738 0.100313 0.029578
0.799079 0.100364 0.029731
0.843981 0.100378 0.029870
0.884157 0.100364 0.029990
0.919510 0.100329 0.030087
0.950105 0.100278 0.030158
0.976136 0.100217 0.030203
0.997894 0.100150 0.030222
1.000000 0.100079 0.030219
1.000000 0.100009 0.030199
1.000000 0.099941 0.030168
1.000000 0.099880 0.030133
1.000000 0.099829 0.030101
1.000000 0.099792 0.030076
1.000000 0.099773 0.030062
0.054349 0.133275 0.031827
0.059747 0.133093 0.031712
0.070479 0.132746 0.031489
0.086472 0.132267 0.031173
0.107675 0.131702 0.030785
0.134059 0.131105 0.030355
0.165599 0.130536 0.029916
0.202244 0.130049 0.029503
0.243869 0.129690 0.029148
0.290217 0.129479 0.028875
0.340856 0.129418 0.028693
0.395154 0.129483 0.028605
0.452273 0.129641 0.028600
0.511126 0.129849 0.028662
0.570456 0.130070 0.028775
0.628986 0.130275 0.028923
0.685524 0.130443 0.029093
0.739059 0.130565 0.029275
0.788800 0.130639 0.029459
0.834205 0.130669 0.029638
0.874961 0.130662 0.029804
0.910949 0.130625 0.029952
0.942212 0.130567 0.030075
0.968927 0.130493 0.030168
0.991371 0.130409 0.030231
1.000000 0.130321 0.030263
1.000000 0.130230 0.030269
1.000000 0.130141 0.030253
1.000000 0.130057 0.030224
1.000000 0.129982 0.030188
1.000000 0.129920 0.030154
1.000000 0.129875 0.030127
1.000000 0.129851 0.030113
0.071103 0.171927 0.031895
0.077281 0.171729 0.031779
0.089531 0.171352 0.031553
0.107715 0.170828 0.031233
0.131696 0.170206 0.030841
0.161337 0.169542 0.030404
0.196480 0.168898 0.029956
0.236907 0.168331 0.029532
0.282298 0.167888 0.029162
0.332174 0.167594 0.028872
0.385873 0.167453 0.028673
0.442552 0.167445 0.028566
0.501137 0.167536 0.028543
0.560356 0.167686 0.028591
0.618930 0.167857 0.028695
0.675632 0.168017 0.028838
0.729455 0.168146 0.029010
0.779589 0.168231 0.029200
0.825466 0.168271 0.029397
0.866747 0.168267 0.029594
0.903293 0.168227 0.029782
0.935127 0.168157 0.029951
0.962410 0.168067 0.030095
0.985405 0.167963 0.030207
1.000000 0.167850 0.030285
1.000000 0.167734 0.030329
1.000000 0.167619 0.030341
1.000000 0.167507 0.030329
1.000000 0.167403 0.030300
1.000000 0.167310 0.030263
1.000000 0.167234 0.030226
1.000000 0.167179 0.030197
1.000000 0.167150 0.030181
0.090977 0.218640 0.032027
0.097966 0.218431 0.031914
0.111797 0.218032 0.031694
0.132257 0.217476 0.031381
0.159107 0.216812 0.030997
0.192071 0.216096 0.030567
0.230822 0.215390 0.030124
0.274940 0.214751 0.029700
0.323877 0.214227 0.029325
0.376909 0.213844 0.029022
0.433153 0.213609 0.028803
0.491520 0.213507 0.028672
0.550736 0.213508 0.028624
0.609473 0.213574 0.028646
0.666461 0.213668 0.028727
0.720653 0.213761 0.028853
0.771221 0.213829 0.029014
0.817580 0.213860 0.029200
0.859371 0.213849 0.029401
0.896436 0.213798 0.029606
0.928785 0.213714 0.029807
0.956563 0.213603 0.029992
0.980022 0.213473 0.030151
0.999492 0.213332 0.030277
1.000000 0.213184 0.030366
1.000000 0.213036 0.030418
1.000000 0.212890 0.030435
1.000000 0.212751 0.030424
1.000000 0.212623 0.030394
1.000000 0.212509 0.030355
1.000000 0.212416 0.030315
1.000000 0.212350 0.030284
1.000000 0.212314 0.030266
0.114244 0.273668 0.032214
0.122068 0.273452 0.032107
0.137526 0.273039 0.031899
0.160317 0.272464 0.031603
0.190068 0.271772 0.031238
0.226337 0.271020 0.030828
0.268591 0.270266 0.030402
0.316175 0.269565 0.029989
0.368287 0.268963 0.029615
0.423962 0.268490 0.029304
0.482064 0.268154 0.029067
0.541276 0.267945 0.028909
0.600258 0.267838 0.028828
0.657651 0.267801 0.028816
0.712341 0.267800 0.028865
0.763449 0.267805 0.028964
0.810361 0.267795 0.029104
0.852700 0.267756 0.029276
0.890293 0.267683 0.029471
0.923140 0.267576 0.029676
0.951377 0.267439 0.029881
0.975249 0.267278 0.030074
0.995079 0.267102 0.030242
1.000000 0.266918 0.030376
1.000000 0.266730 0.030472
1.000000 0.266544 0.030528
1.000000 0.266364 0.030547
1.000000 0.266193 0.030536
1.000000 0.266037 0.030504
1.000000 0.265900 0.030461
1.000000 0.265787 0.030418
1.000000 0.265707 0.030384
1.000000 0.265664 0.030365
0.141156 0.336761 0.032441
0.149833 0.336543 0.032343
0.166940 0.336125 0.032152
0.192066 0.335542 0.031880
0.224680 0.334837 0.031542
0.264135 0.334063 0.031161
0.309657 0.333275 0.030760
0.360337 0.332526 0.030365
0.415108 0.331858 0.030001
0.472752 0.331300 0.029685
0.531872 0.330864 0.029432
0.591056 0.330545 0.029248
0.648908 0.330323 0.029133
0.704203 0.330173 0.029084
0.755981 0.330065 0.029095
0.803569 0.329973 0.029161
0.846553 0.329876 0.029273
0.884741 0.329760 0.029424
0.918122 0.329618 0.029604
0.946827 0.329449 0.029801
0.971100 0.329255 0.030003
0.991261 0.329043 0.030195
1.000000 0.328819 0.030365
1.000000 0.328589 0.030502
1.000000 0.328359 0.030599
1.000000 0.328134 0.030655
1.000000 0.327918 0.030673
1.000000 0.327716 0.030659
1.000000 0.327531 0.030624
1.000000 0.327369 0.030577
1.000000 0.327238 0.030531
1.000000 0.327143 0.030494
1.000000 0.327094 0.030474
0.171939 0.407053 0.032692
0.181468 0.406837 0.032605
0.200206 0.406424 0.032434
0.227609 0.405845 0.032189
0.262954 0.405143 0.031884
0.305356 0.404365 0.031536
0.353778 0.403562 0.031166
0.407035 0.402782 0.030796
0.463804 0.402063 0.030445
0.522588 0.401435 0.030131
0.581837 0.400911 0.029866
0.640082 0.400491 0.029658
0.696008 0.400161 0.029511
0.748548 0.399902 0.029425
0.796936 0.399689 0.029399
0.840695 0.399501 0.029428
0.879593 0.399318 0.029508
0.913598 0.399125 0.029633
0.942834 0.398916 0.029792
0.967542 0.398687 0.029974
0.988046 0.398440 0.030165
1.000000 0.398178 0.030349
1.000000 0.397908 0.030514
1.000000 0.397635 0.030647
1.000000 0.397366 0.030741
1.000000 0.397104 0.030793
1.000000 0.396854 0.030807
1.000000 0.396621 0.030788
1.000000 0.396409 0.030748
1.000000 0.396225 0.030697
1.000000 0.396076 0.030647
1.000000 0.395968 0.030608
1.000000 0.395912 0.030586
0.206765 0.482880 0.032951
0.217121 0.482671 0.032874
0.237422 0.482271 0.032724
0.266963 0.481710 0.032508
0.304800 0.481026 0.032237
0.349784 0.480262 0.031926
0.400599 0.479464 0.031590
0.455787 0.478674 0.031248
0.513736 0.477927 0.030915
0.572750 0.477251 0.030606
0.631206 0.476660 0.030335
0.687664 0.476158 0.030109
0.740968 0.475737 0.029935
0.790230 0.475384 0.029816
0.834881 0.475081 0.029754
0.874620 0.474808 0.029747
0.909377 0.474549 0.029795
0.939251 0.474290 0.029890
0.964478 0.474023 0.030024
0.985383 0.473744 0.030185
1.000000 0.473452 0.030358
1.000000 0.473150 0.030528
1.000000 0.472843 0.030681
1.000000 0.472535 0.030804
1.000000 0.472233 0.030889
1.000000 0.471941 0.030934
1.000000 0.471664 0.030941
1.000000 0.471406 0.030917
1.000000 0.471173 0.030871
1.000000 0.470970 0.030816
1.000000 0.470805 0.030762
1.000000 0.470687 0.030720
1.000000 0.470625 0.030698
0.245724 0.561825 0.033201
0.256852 0.561629 0.033135
0.278591 0.561252 0.033005
0.310042 0.560723 0.032818
0.350012 0.560076 0.032582
0.397073 0.559348 0.032307
0.449640 0.558578 0.032006
0.505955 0.557803 0.031693
0.564159 0.557056 0.031381
0.622467 0.556361 0.031084
0.679250 0.555733 0.030812
0.733202 0.555178 0.030574
0.783320 0.554695 0.030379
0.828917 0.554275 0.030233
0.869603 0.553904 0.030140
0.905236 0.553568 0.030101
0.935880 0.553253 0.030117
0.961744 0.552946 0.030181
0.983149 0.552638 0.030287
1.000000 0.552324 0.030422
1.000000 0.552002 0.030572
1.000000 0.551674 0.030722
1.000000 0.551343 0.030857
1.000000 0.551015 0.030965
1.000000 0.550692 0.031037
1.000000 0.550382 0.031071
1.000000 0.550088 0.031069
1.000000 0.549815 0.031038
1.000000 0.549568 0.030987
1.000000 0.549354 0.030927
1.000000 0.549181 0.030871
1.000000 0.549056 0.030827
1.000000 0.548990 0.030803
0.288793 0.640876 0.033431
0.300605 0.640697 0.033375
0.323580 0.640355 0.033265
0.356610 0.639873 0.033105
0.398233 0.639281 0.032902
0.446750 0.638610 0.032662
0.500274 0.637895 0.032396
0.556785 0.637165 0.032113
0.614309 0.636449 0.031825
0.671000 0.635769 0.031542
0.725351 0.635140 0.031274
0.776193 0.634570 0.031032
0.822703 0.634061 0.030824
0.864376 0.633609 0.030658
0.900981 0.633203 0.030540
0.932515 0.632834 0.030473
0.959147 0.632489 0.030458
0.981178 0.632157 0.030492
0.998990 0.631831 0.030567
1.000000 0.631502 0.030673
1.000000 0.631170 0.030796
1.000000 0.630835 0.030921
1.000000 0.630498 0.031033
1.000000 0.630164 0.031121
1.000000 0.629838 0.031177
1.000000 0.629524 0.031198
1.000000 0.629227 0.031186
1.000000 0.628953 0.031147
1.000000 0.628705 0.031091
1.000000 0.628491 0.031028
1.000000 0.628318 0.030969
1.000000 0.628194 0.030924
1.000000 0.628128 0.030900
0.335795 0.716695 0.033632
0.348157 0.716540 0.033586
0.372097 0.716243 0.033493
0.406275 0.715822 0.033359
0.448969 0.715302 0.033185
0.498188 0.714709 0.032979
0.551756 0.714072 0.032745
0.607530 0.713415 0.032493
0.663428 0.712762 0.032230
0.717708 0.712132 0.031966
0.768985 0.711540 0.031708
0.816256 0.710993 0.031468
0.858869 0.710497 0.031254
0.896476 0.710049 0.031075
0.928984 0.709644 0.030938
0.956501 0.709274 0.030847
0.979284 0.708929 0.030805
0.997700 0.708600 0.030809
1.000000 0.708279 0.030854
1.000000 0.707960 0.030928
1.000000 0.707639 0.031021
1.000000 0.707316 0.031117
1.000000 0.706993 0.031203
1.000000 0.706674 0.031268
1.000000 0.706362 0.031305
1.000000 0.706062 0.031311
1.000000 0.705780 0.031288
1.000000 0.705521 0.031242
1.000000 0.705287 0.031180
1.000000 0.705087 0.031115
1.000000 0.704925 0.031054
1.000000 0.704809 0.031009
1.000000 0.704748 0.030984
0.386367 0.786150 0.033800
0.399113 0.786022 0.033762
0.423675 0.785776 0.033686
0.458487 0.785426 0.033573
0.501567 0.784992 0.033427
0.550620 0.784494 0.033251
0.603312 0.783954 0.033049
0.657395 0.783393 0.032827
0.710854 0.782829 0.032590
0.762051 0.782279 0.032346
0.809759 0.781754 0.032104
0.853136 0.781264 0.031871
0.891682 0.780814 0.031657
0.925184 0.780403 0.031471
0.953660 0.780030 0.031321
0.977306 0.779687 0.031211
0.996449 0.779369 0.031145
1.000000 0.779067 0.031122
1.000000 0.778774 0.031136
1.000000 0.778484 0.031178
1.000000 0.778193 0.031238
1.000000 0.777901 0.031303
1.000000 0.777609 0.031361
1.000000 0.777321 0.031402
1.000000 0.777040 0.031418
1.000000 0.776772 0.031408
1.000000 0.776520 0.031374
1.000000 0.776290 0.031320
1.000000 0.776085 0.031254
1.000000 0.775909 0.031187
1.000000 0.775769 0.031126
1.000000 0.775671 0.031080
1.000000 0.775619 0.031056
0.439942 0.847062 0.033934
0.452872 0.846962 0.033903
0.477659 0.846769 0.033840
0.512526 0.846494 0.033748
0.555210 0.846151 0.033626
0.603225 0.845755 0.033478
0.654133 0.845323 0.033305
0.705700 0.844871 0.033111
0.756025 0.844413 0.032901
0.803618 0.843961 0.032680
0.847407 0.843526 0.032455
0.886694 0.843116 0.032234
0.921111 0.842736 0.032026
0.950553 0.842387 0.031839
0.975128 0.842068 0.031680
0.995100 0.841776 0.031556
1.000000 0.841504 0.031470
1.000000 0.841247 0.031421
1.000000 0.840997 0.031405
1.000000 0.840750 0.031416
1.000000 0.840502 0.031443
1.000000 0.840253 0.031476
1.000000 0.840005 0.031505
1.000000 0.839759 0.031520
1.000000 0.839520 0.031515
1.000000 0.839292 0.031490
1.000000 0.839080 0.031444
1.000000 0.838887 0.031383
1.000000 0.838718 0.031314
1.000000 0.838574 0.031245
1.000000 0.838461 0.031184
1.000000 0.838382 0.031140
1.000000 0.838341 0.031116
0.495740 0.898392 0.034034
0.508631 0.898320 0.034009
0.533218 0.898179 0.033958
0.567494 0.897976 0.033883
0.608986 0.897723 0.033784
0.655118 0.897430 0.033660
0.703435 0.897108 0.033514
0.751812 0.896769 0.033347
0.798483 0.896422 0.033162
0.842111 0.896079 0.032965
0.881768 0.895746 0.032760
0.916887 0.895429 0.032554
0.947205 0.895135 0.032355
0.972707 0.894863 0.032171
0.993568 0.894614 0.032009
1.000000 0.894386 0.031875
1.000000 0.894173 0.031771
1.000000 0.893971 0.031700
1.000000 0.893774 0.031657
1.000000 0.893579 0.031637
1.000000 0.893382 0.031633
1.000000 0.893182 0.031634
1.000000 0.892982 0.031634
1.000000 0.892783 0.031623
1.000000 0.892590 0.031598
1.000000 0.892407 0.031557
1.000000 0.892237 0.031500
1.000000 0.892084 0.031433
1.000000 0.891951 0.031361
1.000000 0.891839 0.031291
1.000000 0.891753 0.031232
1.000000 0.891693 0.031188
1.000000 0.891662 0.031165
0.552754 0.940022 0.034103
0.565380 0.939974 0.034083
0.589295 0.939880 0.034043
0.622313 0.939746 0.033983
0.661880 0.939577 0.033903
0.705392 0.939381 0.033801
0.750501 0.939164 0.033679
0.795192 0.938935 0.033537
0.837860 0.938700 0.033377
0.877318 0.938466 0.033203
0.912765 0.938238 0.033019
0.943743 0.938021 0.032830
0.970077 0.937819 0.032644
0.991822 0.937632 0.032466
1.000000 0.937460 0.032303
1.000000 0.937303 0.032162
1.000000 0.937156 0.032045
1.000000 0.937015 0.031954
1.000000 0.936875 0.031887
1.000000 0.936734 0.031839
1.000000 0.936590 0.031805
1.000000 0.936441 0.031777
1.000000 0.936289 0.031749
1.000000 0.936138 0.031714
1.000000 0.935990 0.031669
1.000000 0.935850 0.031612
1.000000 0.935721 0.031546
1.000000 0.935605 0.031473
1.000000 0.935506 0.031398
1.000000 0.935424 0.031329
1.000000 0.935361 0.031270
1.000000 0.935319 0.031227
1.000000 0.935297 0.031205
0.609795 0.972506 0.034146
0.621895 0.972479 0.034131
0.644647 0.972427 0.034100
0.675827 0.972353 0.034053
0.712839 0.972260 0.033988
0.753194 0.972151 0.033906
0.794655 0.972032 0.033805
0.835362 0.971905 0.033686
0.873859 0.971775 0.033550
0.909094 0.971646 0.033398
0.940377 0.971520 0.033235
0.967343 0.971402 0.033063
0.989886 0.971291 0.032890
1.000000 0.971190 0.032721
1.000000 0.971098 0.032561
1.000000 0.971013 0.032416
1.000000 0.970933 0.032289
1.000000 0.970853 0.032181
1.000000 0.970771 0.032093
1.000000 0.970684 0.032020
1.000000 0.970590 0.031959
1.000000 0.970490 0.031904
1.000000 0.970385 0.031850
1.000000 0.970277 0.031793
1.000000 0.970171 0.031730
1.000000 0.970070 0.031660
1.000000 0.969977 0.031584
1.000000 0.969895 0.031506
1.000000 0.969825 0.031429
1.000000 0.969768 0.031359
1.000000 0.969725 0.031302
1.000000 0.969696 0.031261
1.000000 0.969682 0.031239
0.665469 0.996841 0.034168
0.676787 0.996833 0.034156
0.697997 0.996817 0.034133
0.726846 0.996794 0.034097
0.760877 0.996767 0.034046
0.797724 0.996735 0.033981
0.835309 0.996702 0.033899
0.871924 0.996667 0.033800
0.906251 0.996632 0.033685
0.937351 0.996599 0.033554
0.964634 0.996568 0.033410
0.987806 0.996541 0.033256
1.000000 0.996518 0.033097
1.000000 0.996499 0.032938
1.000000 0.996483 0.032782
1.000000 0.996468 0.032636
1.000000 0.996451 0.032501
1.000000 0.996431 0.032380
1.000000 0.996403 0.032274
1.000000 0.996367 0.032180
1.000000 0.996320 0.032096
1.000000 0.996264 0.032017
1.000000 0.996201 0.031941
1.000000 0.996132 0.031864
1.000000 0.996062 0.031784
1.000000 0.995995 0.031702
1.000000 0.995932 0.031617
1.000000 0.995877 0.031534
1.000000 0.995831 0.031456
1.000000 0.995794 0.031386
1.000000 0.995767 0.031330
1.000000 0.995749 0.031290
1.000000 0.995740 0.031269
0.718258 1.000000 0.034173
0.728632 1.000000 0.034165
0.747995 1.000000 0.034148
0.774240 1.000000 0.034121
0.805062 1.000000 0.034082
0.838274 1.000000 0.034031
0.871960 1.000000 0.033965
0.904555 1.000000 0.033884
0.934864 1.000000 0.033787
0.962049 1.000000 0.033676
0.985597 1.000000 0.033550
1.000000 1.000000 0.033412
1.000000 1.000000 0.033267
1.000000 1.000000 0.033117
1.000000 1.000000 0.032967
1.000000 1.000000 0.032821
1.000000 1.000000 0.032682
1.000000 1.000000 0.032551
1.000000 1.000000 0.032431
1.000000 1.000000 0.032319
