build/lib/silbersalz_look/luts/silbersalz-colorplus200_v1-paired_33.cube
TITLE "silbersalz-colorplus200_v1-paired"
# Generated by saltgate on 2026-08-27
# Input:  Silbersalz flat-scan code values [0,1] (Display P3 tagged)
# Output: graded display code values (Display P3)
# pairs: 13
LUT_3D_SIZE 9
DOMAIN_MIN 0.0 0.0 0.0
DOMAIN_MAX 1.0 1.0 1.0
0.000000 0.019771 0.032849
0.006802 0.019784 0.032623
0.049367 0.019953 0.032173
0.151190 0.020195 0.031680
0.335072 0.020254 0.031200
0.587001 0.020186 0.030768
0.828187 0.020136 0.030421
0.979910 0.020116 0.030190
1.000000 0.020107 0.030099
0.002884 0.028561 0.032463
0.022478 0.028231 0.032005
0.085485 0.028026 0.031244
0.214829 0.028399 0.030781
0.422185 0.028788 0.030609
0.670603 0.028896 0.030485
0.879370 0.028868 0.030317
1.000000 0.028807 0.030134
1.000000 0.028766 0.030040
0.029045 0.077546 0.031887
0.068972 0.076374 0.030976
0.177179 0.075039 0.029563
0.359930 0.075361 0.029101
0.593745 0.076244 0.029484
0.810716 0.076563 0.029969
0.958898 0.076464 0.030198
1.000000 0.076250 0.030132
1.000000 0.076114 0.030030
0.090977 0.218640 0.032027
0.159107 0.216812 0.030997
0.323877 0.214227 0.029325
0.550736 0.213508 0.028624
0.771221 0.213829 0.029014
0.928785 0.213714 0.029807
1.000000 0.213184 0.030366
1.000000 0.212623 0.030394
1.000000 0.212314 0.030266
0.206765 0.482880 0.032951
0.304800 0.481026 0.032237
0.513736 0.477927 0.030915
0.740968 0.475737 0.029935
0.909377 0.474549 0.029795
1.000000 0.473452 0.030358
1.000000 0.472233 0.030889
1.000000 0.471173 0.030871
1.000000 0.470625 0.030698
0.386367 0.786150 0.033800
0.501567 0.784992 0.033427
0.710854 0.782829 0.032590
0.891682 0.780814 0.031657
0.996449 0.779369 0.031145
1.000000 0.778193 0.031238
1.000000 0.777040 0.031418
1.000000 0.776085 0.031254
1.000000 0.775619 0.031056
0.609795 0.972506 0.034146
0.712839 0.972260 0.033988
0.873859 0.971775 0.033550
0.989886 0.971291 0.032890
1.000000 0.970933 0.032289
1.000000 0.970590 0.031959
1.000000 0.970171 0.031730
1.000000 0.969825 0.031429
1.000000 0.969682 0.031239
0.809337 1.000000 0.034156
0.878678 1.000000 0.034109
0.980297 1.000000 0.033918
1.000000 1.000000 0.033508
1.000000 1.000000 0.032954
1.000000 1.000000 0.032402
1.000000 1.000000 0.031914
1.000000 1.000000 0.031524
0.998421 1.000000 0.031343
0.900931 1.000000 0.034111
0.950254 1.000000 0.034101
1.000000 1.000000 0.034000
1.000000 1.000000 0.033697
1.000000 1.000000 0.033184
1.000000 1.000000 0.032574
1.000000 1.000000 0.031999
0.999955 1.000000 0.031575
0.993609 1.000000 0.031396
0.000000 0.019737 0.030755
0.001489 0.020007 0.030780
0.030470 0.020666 0.030752
0.107752 0.021010 0.030433
0.258186 0.020667 0.029913
0.480677 0.020255 0.029595
0.724813 0.020124 0.029599
0.908256 0.020153 0.029765
0.981590 0.020185 0.029885
0.000000 0.025753 0.030118
0.011673 0.025380 0.029705
0.056616 0.025474 0.029095
0.157056 0.026278 0.028881
0.330664 0.026505 0.028918
0.562013 0.026415 0.029155
0.788948 0.026455 0.029502
0.944025 0.026572 0.029764
1.000000 0.026633 0.029875
0.015196 0.066080 0.028932
0.044014 0.063608 0.027327
0.125391 0.060787 0.024781
0.271822 0.062551 0.024888
0.480220 0.064625 0.026495
0.707179 0.065393 0.028177
0.889058 0.065855 0.029486
0.996822 0.066267 0.030031
1.000000 0.066454 0.030121
0.060135 0.193159 0.028814
0.113208 0.189410 0.026881
0.244247 0.183946 0.023664
0.437116 0.183894 0.023151
0.653898 0.185860 0.024857
0.840151 0.186692 0.027581
0.964562 0.187372 0.030032
1.000000 0.188209 0.030906
1.000000 0.188638 0.030931
0.151913 0.442638 0.030078
0.232817 0.439448 0.028932
0.412285 0.433760 0.026739
0.628234 0.429955 0.025193
0.814086 0.428785 0.025584
0.938625 0.428539 0.028269
1.000000 0.428838 0.031088
1.000000 0.429695 0.031993
1.000000 0.430238 0.031918
0.301570 0.749094 0.031301
0.404163 0.747053 0.030762
0.606377 0.742782 0.029443
0.803356 0.738371 0.027898
0.934126 0.735723 0.027601
1.000000 0.734764 0.029409
1.000000 0.734657 0.031540
1.000000 0.735290 0.032263
1.000000 0.735829 0.032216
0.498361 0.955184 0.031857
0.604566 0.954485 0.031653
0.786743 0.952808 0.031014
0.931850 0.950731 0.030046
1.000000 0.949245 0.029547
1.000000 0.948657 0.030178
1.000000 0.948677 0.031206
1.000000 0.949303 0.031687
1.000000 0.949836 0.031742
0.690713 1.000000 0.031962
0.779789 1.000000 0.031933
0.915430 1.000000 0.031730
1.000000 1.000000 0.031262
1.000000 1.000000 0.030799
1.000000 1.000000 0.030716
1.000000 1.000000 0.030930
1.000000 1.000000 0.031122
1.000000 1.000000 0.031193
0.789313 1.000000 0.031945
0.861830 1.000000 0.031978
0.968794 1.000000 0.031935
1.000000 1.000000 0.031669
1.000000 1.000000 0.031263
1.000000 1.000000 0.030963
1.000000 1.000000 0.030876
1.000000 1.000000 0.030919
0.999126 1.000000 0.030970
0.000000 0.021030 0.029275
0.000000 0.022248 0.030523
0.005313 0.024599 0.032606
0.042202 0.025032 0.033217
0.134236 0.023217 0.032584
0.297759 0.021642 0.032638
0.517344 0.021081 0.033824
0.729610 0.021060 0.035348
0.834831 0.021120 0.036240
0.000000 0.022405 0.028479
0.000000 0.022875 0.029358
0.015938 0.025741 0.031377
0.067323 0.027047 0.032021
0.179728 0.024909 0.031480
0.363522 0.023405 0.032175
0.591869 0.023142 0.033869
0.792927 0.023382 0.035487
0.884582 0.023568 0.036304
0.000000 0.046941 0.026364
0.008493 0.041636 0.024192
0.042369 0.033421 0.018766
0.121934 0.042711 0.022481
0.270894 0.045128 0.026297
0.486782 0.045568 0.030506
0.718206 0.046774 0.034487
0.890159 0.048326 0.036584
0.960428 0.049162 0.037215
0.015025 0.146991 0.025425
0.042117 0.138192 0.022111
0.111106 0.121599 0.014899
0.225705 0.125583 0.016411
0.395796 0.131489 0.020595
0.616008 0.132611 0.028363
0.824249 0.135906 0.036732
0.960362 0.140625 0.039587
1.000000 0.143184 0.039764
0.065650 0.366994 0.026753
0.116778 0.360371 0.025294
0.234912 0.346206 0.021985
0.394758 0.334539 0.018426
0.578465 0.332368 0.019312
0.761566 0.333904 0.029303
0.909655 0.337959 0.040116
0.998524 0.345058 0.042924
1.000000 0.349541 0.042524
0.163096 0.672321 0.028153
0.239832 0.667877 0.027578
0.405221 0.656689 0.025519
0.597829 0.642498 0.021911
0.766102 0.634741 0.021796
0.891897 0.634718 0.030069
0.972435 0.637152 0.039193
1.000000 0.643289 0.042226
1.000000 0.648021 0.042258
0.307030 0.915283 0.028794
0.403886 0.913240 0.028679
0.595445 0.907607 0.027830
0.783297 0.899476 0.026026
0.908918 0.893336 0.025640
0.975681 0.891329 0.029512
1.000000 0.891942 0.034986
1.000000 0.896036 0.038149
1.000000 0.899463 0.039003
0.464328 1.000000 0.028915
0.570154 1.000000 0.029091
0.756965 1.000000 0.029124
0.911274 1.000000 0.028692
0.994255 1.000000 0.028587
1.000000 1.000000 0.030078
1.000000 1.000000 0.032712
1.000000 1.000000 0.034940
1.000000 1.000000 0.035926
0.553561 1.000000 0.028888
0.659414 1.000000 0.029178
0.831941 1.000000 0.029549
0.963120 1.000000 0.029639
1.000000 1.000000 0.029746
1.000000 1.000000 0.030577
1.000000 1.000000 0.032174
1.000000 1.000000 0.033824
1.000000 1.000000 0.034709
0.003277 0.024324 0.039980
0.000289 0.026681 0.043669
0.000000 0.030942 0.050139
0.003645 0.031602 0.053610
0.043362 0.028476 0.054151
0.140875 0.025532 0.055710
0.303174 0.024083 0.059374
0.491047 0.023635 0.063620
0.600095 0.023572 0.066005
0.000000 0.022631 0.039718
0.000000 0.025719 0.044586
0.000163 0.034828 0.055382
0.015289 0.035623 0.058333
0.068135 0.029316 0.055572
0.185784 0.024962 0.056294
0.370682 0.023063 0.059811
0.572527 0.022497 0.063832
0.682614 0.022467 0.066039
0.000000 0.034067 0.037956
0.000000 0.032714 0.041881
0.006631 0.049015 0.062871
0.037362 0.051426 0.062034
0.109173 0.037005 0.052351
0.264611 0.033671 0.056633
0.494440 0.032478 0.061996
0.713829 0.033049 0.065922
0.817640 0.033878 0.067583
0.000000 0.105638 0.035863
0.000000 0.096933 0.036653
0.021144 0.075835 0.039432
0.063609 0.078785 0.043198
0.129961 0.086183 0.041779
0.320120 0.078117 0.052412
0.605032 0.082017 0.068560
0.832591 0.090290 0.072631
0.925824 0.095440 0.072570
0.007482 0.289024 0.035454
0.031383 0.279884 0.036163
0.085615 0.253888 0.036681
0.152436 0.215453 0.029823
0.284495 0.217051 0.032522
0.492998 0.217278 0.054452
0.740780 0.222061 0.080780
0.915174 0.240747 0.081515
0.988842 0.254627 0.078383
0.056007 0.580938 0.035526
0.103357 0.573469 0.036068
0.210134 0.550336 0.035149
0.344318 0.511061 0.028150
0.500520 0.487985 0.024978
0.701042 0.494401 0.048650
0.861831 0.493472 0.072452
0.968337 0.511307 0.077645
1.000000 0.529137 0.076268
0.142769 0.859619 0.035347
0.216007 0.855538 0.036034
0.376092 0.842801 0.036022
0.565255 0.821108 0.033213
0.729699 0.802809 0.031437
0.853814 0.796384 0.040396
0.938457 0.793158 0.054938
0.999368 0.805742 0.063966
1.000000 0.818275 0.066105
0.247899 1.000000 0.034955
0.343328 1.000000 0.035941
0.539768 1.000000 0.037132
0.744796 0.992783 0.037283
0.889443 0.985158 0.037720
0.966907 0.980664 0.041900
1.000000 0.978444 0.048859
1.000000 0.982768 0.054842
1.000000 0.987794 0.057556
0.310140 1.000000 0.034696
0.417228 1.000000 0.035835
0.626392 1.000000 0.037572
0.825440 1.000000 0.038854
0.952807 1.000000 0.040244
1.000000 1.000000 0.043316
1.000000 1.000000 0.047859
1.000000 1.000000 0.052238
1.000000 1.000000 0.054670
0.012296 0.027724 0.081788
0.008890 0.029855 0.087376
0.001547 0.033646 0.097897
0.000000 0.035060 0.106674
0.003388 0.033251 0.112636
0.047054 0.030446 0.119210
0.142867 0.028367 0.127830
0.270784 0.027337 0.136870
0.350194 0.027039 0.141759
0.008995 0.024580 0.081698
0.006429 0.027735 0.088830
0.002334 0.034614 0.103192
0.002467 0.037932 0.112991
0.019567 0.035912 0.116667
0.077542 0.031000 0.121017
0.195146 0.026852 0.128179
0.346856 0.024582 0.136522
0.439486 0.023901 0.141172
0.000850 0.028151 0.080475
0.000000 0.030824 0.089275
0.001738 0.040294 0.111014
0.018582 0.048585 0.124356
0.059734 0.053226 0.126554
0.142402 0.042108 0.125928
0.301645 0.031782 0.129854
0.500222 0.026592 0.137366
0.612019 0.025473 0.141502
0.000000 0.076438 0.077707
0.000000 0.074147 0.084825
0.000000 0.072173 0.103184
0.040089 0.065774 0.107177
0.119627 0.101338 0.127927
0.216126 0.080335 0.123431
0.411534 0.062241 0.131799
0.664783 0.057399 0.142887
0.784647 0.059746 0.145479
0.000000 0.222412 0.074967
0.000000 0.215182 0.079688
0.017099 0.191095 0.089617
0.047976 0.144771 0.099736
0.195057 0.210530 0.149107
0.279349 0.133790 0.099651
0.547893 0.122019 0.140358
0.802801 0.146787 0.155971
0.915328 0.169657 0.150996
0.004164 0.488820 0.072801
0.027787 0.480534 0.075922
0.084002 0.451217 0.080423
0.154173 0.385866 0.077256
0.222453 0.326949 0.062805
0.465512 0.366883 0.094871
0.655308 0.312387 0.125568
0.896300 0.356462 0.148982
0.994492 0.402126 0.144222
0.044670 0.791309 0.070992
0.090202 0.785857 0.073477
0.197950 0.767157 0.076507
0.342193 0.729406 0.074332
0.494589 0.691207 0.067964
0.661203 0.683886 0.078257
0.802628 0.654739 0.100308
0.961853 0.682912 0.119819
1.000000 0.715570 0.123083
0.101437 0.982030 0.069516
0.169347 0.979907 0.072020
0.325888 0.972420 0.075757
0.527542 0.958016 0.077218
0.717573 0.944165 0.078091
0.861436 0.939753 0.085987
0.953777 0.931345 0.095318
1.000000 0.935434 0.103458
1.000000 0.945757 0.108515
0.136799 1.000000 0.068776
0.217147 1.000000 0.071389
0.399226 1.000000 0.075741
0.622733 1.000000 0.079159
0.813672 1.000000 0.082725
0.938948 1.000000 0.089469
1.000000 1.000000 0.096510
1.000000 1.000000 0.102484
1.000000 1.000000 0.106604
0.019205 0.030225 0.182487
0.016584 0.031387 0.190340
0.009916 0.033606 0.206054
0.000680 0.035152 0.223258
0.000000 0.034982 0.239654
0.006338 0.033466 0.256662
0.049371 0.031782 0.275032
0.117832 0.030691 0.292407
0.162829 0.030304 0.301621
0.017027 0.026096 0.181333
0.014637 0.027874 0.189934
0.009137 0.031819 0.207225
0.002966 0.035628 0.225375
0.003109 0.036674 0.241514
0.024269 0.034094 0.257095
0.083989 0.030325 0.273974
0.173424 0.027476 0.290522
0.231294 0.026375 0.299500
0.011102 0.024079 0.178569
0.009050 0.026380 0.188252
0.005910 0.033230 0.208359
0.007417 0.043159 0.228359
0.024335 0.048782 0.245983
0.069518 0.043949 0.258696
0.166224 0.034478 0.271907
0.302048 0.026196 0.287166
0.386531 0.023041 0.295825
0.002158 0.054222 0.174475
0.000693 0.054750 0.183953
0.000202 0.058765 0.204159
0.011179 0.071866 0.224607
0.050421 0.081335 0.242351
0.138982 0.079075 0.253811
0.287112 0.065386 0.264442
0.482243 0.047266 0.282281
0.590008 0.041982 0.291771
0.000000 0.166879 0.169894
0.000000 0.163353 0.178017
0.002212 0.152516 0.195129
0.028154 0.134582 0.210045
0.099960 0.121330 0.196070
0.226111 0.150794 0.225959
0.458247 0.142558 0.237739
0.693884 0.116965 0.270608
0.797049 0.120988 0.283583
0.000000 0.400983 0.165504
0.001788 0.394896 0.172053
0.026933 0.373245 0.184377
0.071297 0.323747 0.193168
0.134726 0.260904 0.186693
0.162564 0.247851 0.153573
0.553731 0.266080 0.195938
0.864488 0.269883 0.249080
0.959228 0.313042 0.262000
0.004810 0.711649 0.161514
0.027152 0.706587 0.166981
0.085435 0.688658 0.176033
0.175085 0.648564 0.179001
0.287549 0.596948 0.169152
0.539824 0.652283 0.212804
0.676543 0.574672 0.186481
0.954335 0.583759 0.217121
1.000000 0.627930 0.228450
0.027776 0.945332 0.158290
0.066125 0.942908 0.163442
0.163932 0.934243 0.172307
0.313276 0.916724 0.178176
0.498633 0.900904 0.181879
0.715027 0.915170 0.202065
0.897437 0.910382 0.207100
1.000000 0.900647 0.204242
1.000000 0.911137 0.218047
0.043425 1.000000 0.156731
0.091299 1.000000 0.161897
0.211825 1.000000 0.171314
0.394206 1.000000 0.180121
0.607700 1.000000 0.190237
0.807961 1.000000 0.208263
0.961841 1.000000 0.222356
1.000000 1.000000 0.226490
1.000000 1.000000 0.232218
0.022826 0.032242 0.376437
0.021250 0.032665 0.388302
0.016673 0.033567 0.412117
0.008689 0.034427 0.439722
0.000000 0.034677 0.467607
0.000000 0.034188 0.495714
0.007684 0.033386 0.523986
0.034853 0.032751 0.549189
0.054767 0.032497 0.562146
0.021757 0.027364 0.373429
0.020065 0.028134 0.385587
0.015397 0.030022 0.409946
0.007895 0.032346 0.438145
0.000715 0.033685 0.466341
0.002633 0.033080 0.494005
0.025108 0.031094 0.521390
0.066674 0.029049 0.545959
0.095613 0.028110 0.558732
0.018544 0.020887 0.367425
0.016517 0.022159 0.380046
0.011507 0.025932 0.405530
0.005114 0.032012 0.435453
0.003726 0.037105 0.465501
0.021530 0.037238 0.492436
0.073075 0.032096 0.517075
0.150101 0.025259 0.539576
0.199762 0.021971 0.551748
0.012745 0.036371 0.360327
0.010369 0.037171 0.373039
0.005158 0.040464 0.399234
0.000432 0.049087 0.431671
0.006222 0.062255 0.467653
0.054400 0.068543 0.494673
0.160938 0.059110 0.512500
0.292214 0.041048 0.529723
0.369021 0.032900 0.540864
0.005242 0.120357 0.352941
0.003389 0.119061 0.365114
0.000351 0.115522 0.390195
0.001971 0.112382 0.420748
0.017510 0.127806 0.463164
0.095814 0.161044 0.500346
0.303802 0.148202 0.502788
0.501230 0.110363 0.507619
0.595891 0.098512 0.519072
0.000000 0.320464 0.345513
0.000000 0.317038 0.356672
0.004123 0.305376 0.378673
0.017392 0.280303 0.402233
0.052242 0.249240 0.428290
0.193001 0.267866 0.444079
0.521807 0.297822 0.461237
0.749877 0.269175 0.462190
0.836305 0.269942 0.477144
0.000000 0.624991 0.338333
0.005086 0.621370 0.348542
0.026043 0.608916 0.367464
0.064992 0.581004 0.382921
0.122656 0.538771 0.382693
0.265784 0.544150 0.398558
0.596859 0.613883 0.474590
0.947413 0.563239 0.402001
1.000000 0.577358 0.426879
0.003228 0.895211 0.332294
0.018882 0.893063 0.342112
0.064423 0.885688 0.360431
0.148211 0.871031 0.377845
0.279935 0.858250 0.393947
0.492921 0.882201 0.432119
0.800251 0.924569 0.479641
1.000000 0.914583 0.416653
1.000000 0.904050 0.447389
0.007802 1.000000 0.329309
0.028992 1.000000 0.339101
0.090116 0.998918 0.357834
0.202353 0.992042 0.378601
0.377155 0.991703 0.405822
0.615050 1.000000 0.455450
0.871952 1.000000 0.508653
1.000000 1.000000 0.510909
1.000000 1.000000 0.505112
0.024145 0.033803 0.632765
0.023399 0.033828 0.647755
0.020754 0.033911 0.677193
0.014979 0.034034 0.710053
0.006123 0.034090 0.742144
0.000000 0.033999 0.772582
0.000000 0.033810 0.801186
0.000506 0.033642 0.825253
0.006277 0.033572 0.836977
0.023806 0.028421 0.628391
0.022806 0.028619 0.643509
0.019529 0.029193 0.673304
0.012955 0.030092 0.706762
0.003911 0.030897 0.739371
0.000000 0.031025 0.770058
0.000139 0.030294 0.798412
0.013898 0.029231 0.822247
0.025104 0.028671 0.833941
0.022487 0.018780 0.619746
0.020829 0.019275 0.635155
0.015921 0.020835 0.665781
0.007303 0.023736 0.700928
0.000000 0.027166 0.735460
0.000000 0.028795 0.766891
0.018474 0.026689 0.794067
0.055332 0.022447 0.816330
0.080719 0.020073 0.827454
0.019369 0.023582 0.609716
0.016772 0.024000 0.625406
0.009595 0.025685 0.656961
0.000000 0.030311 0.694725
0.000000 0.039032 0.733796
0.004892 0.046849 0.767631
0.062239 0.043540 0.791474
0.141776 0.031516 0.808093
0.190023 0.024660 0.816809
0.014099 0.085395 0.599329
0.010709 0.084895 0.615076
0.001872 0.083896 0.646701
0.000000 0.084983 0.685622
0.000000 0.096435 0.730024
0.022935 0.120495 0.770665
0.148174 0.122770 0.791201
0.293956 0.095563 0.792751
0.371931 0.080691 0.795022
0.007723 0.256061 0.588733
0.004481 0.254278 0.604180
0.000000 0.248900 0.634366
0.000000 0.240148 0.669919
0.000000 0.238037 0.710980
0.073572 0.271133 0.758349
0.279112 0.316126 0.799717
0.516060 0.262424 0.759691
0.621340 0.240380 0.752305
0.002708 0.546231 0.578307
0.001557 0.543888 0.593291
0.000876 0.536701 0.621723
0.007519 0.523396 0.652804
0.040001 0.511266 0.687628
0.159838 0.529932 0.757565
0.439885 0.625803 0.878974
0.776707 0.552157 0.702120
0.877956 0.540434 0.711188
0.000833 0.841417 0.569404
0.003495 0.839692 0.584131
0.015656 0.834502 0.612264
0.051370 0.826268 0.644468
0.136356 0.825426 0.688451
0.320578 0.861333 0.781182
0.651322 0.957328 0.956546
0.991155 1.000000 0.881795
1.000000 0.898515 0.789245
0.000845 0.972997 0.564939
0.006063 0.971900 0.579631
0.026964 0.968596 0.608115
0.082402 0.964698 0.642459
0.202835 0.971740 0.692995
0.429351 1.000000 0.785857
0.755348 1.000000 0.901377
1.000000 1.000000 0.914690
1.000000 1.000000 0.868525
0.024433 0.034500 0.788380
0.024043 0.034389 0.803072
0.022272 0.034168 0.831745
0.017646 0.033962 0.862768
0.009509 0.033850 0.891573
0.000000 0.033827 0.917516
0.000000 0.033848 0.940688
0.000000 0.033880 0.959189
0.000000 0.033899 0.967804
0.024376 0.028911 0.783815
0.023699 0.028906 0.798693
0.021154 0.028984 0.827787
0.015351 0.029273 0.859490
0.006226 0.029708 0.888972
0.000000 0.029943 0.915387
0.000000 0.029661 0.938645
0.000000 0.029055 0.957081
0.001679 0.028698 0.965672
0.023800 0.017927 0.774589
0.022375 0.018120 0.789882
0.017833 0.018826 0.819926
0.009067 0.020408 0.853331
0.000000 0.022730 0.884753
0.000000 0.024349 0.912414
0.000000 0.023410 0.935425
0.019285 0.020551 0.952841
0.034394 0.018779 0.960897
0.021808 0.018050 0.763715
0.019241 0.018249 0.779542
0.011731 0.019174 0.810774
0.000000 0.022035 0.846611
0.000000 0.027963 0.881656
0.000000 0.034241 0.912104
0.022143 0.033481 0.933984
0.076579 0.025366 0.947077
0.111416 0.019948 0.952606
0.017695 0.069562 0.752316
0.013879 0.069241 0.768612
0.003362 0.068799 0.800595
0.000000 0.070386 0.838214
0.000000 0.079180 0.877904
0.000000 0.095863 0.915291
0.080481 0.100971 0.937164
0.192710 0.083457 0.937655
0.257583 0.070545 0.935303
0.011859 0.225701 0.740609
0.007327 0.224498 0.757065
0.000000 0.221354 0.788799
0.000000 0.218178 0.826014
0.000000 0.224520 0.869933
0.037104 0.254748 0.925348
0.189727 0.280978 0.959057
0.383497 0.250525 0.926465
0.486187 0.225849 0.904957
0.006128 0.505810 0.728984
0.002256 0.504025 0.745371
0.000000 0.499184 0.776563
0.000000 0.492780 0.813032
0.014854 0.496385 0.863262
0.124894 0.536787 0.953077
0.365450 0.598648 1.000000
0.641876 0.562422 0.944718
0.761325 0.524122 0.889835
0.002473 0.810892 0.718985
0.000601 0.809378 0.735332
0.000447 0.805379 0.766732
0.017164 0.801019 0.804600
0.084016 0.809093 0.862074
0.258365 0.858177 0.971486
0.580860 0.950638 1.000000
0.905994 0.938287 1.000000
0.961182 0.877208 0.952111
0.001256 0.955082 0.713983
0.000820 0.954047 0.730357
0.006222 0.951295 0.762167
0.037337 0.949438 0.801380
0.131611 0.961365 0.861296
0.342371 1.000000 0.966139
0.683842 1.000000 1.000000
0.965909 1.000000 1.000000
0.995253 0.995295 1.000000
