build/lib/silbersalz_look/luts/silbersalz-250d_v0.1-statistical_33.cube
TITLE "silbersalz-250d_v0.1-statistical_33"
# Generated by saltgate on 2026-08-23
# Input:  Silbersalz flat-scan code values [0,1] (Display P3 tagged)
# Output: graded display code values (Display P3)
# track: v0-statistical
LUT_3D_SIZE 33
DOMAIN_MIN 0.0 0.0 0.0
DOMAIN_MAX 1.0 1.0 1.0
0.030104 0.043889 0.052810
0.030203 0.043877 0.052803
0.030735 0.043810 0.052766
0.033471 0.043465 0.052576
0.047531 0.041693 0.051598
0.051862 0.041148 0.051297
0.053670 0.040920 0.051171
0.054556 0.040808 0.051110
0.055026 0.040749 0.051077
0.055382 0.040704 0.051052
0.055891 0.040640 0.051017
0.056875 0.040516 0.050948
0.058965 0.040252 0.050803
0.064387 0.039569 0.050426
0.083289 0.037188 0.049112
0.131196 0.031155 0.045780
0.160251 0.027515 0.043760
0.181240 0.024983 0.042301
0.218420 0.020921 0.039718
0.277838 0.016186 0.035601
0.362474 0.011740 0.029797
0.467274 0.008525 0.022965
0.594233 0.006338 0.016700
0.730583 0.004937 0.012243
0.859245 0.004063 0.009476
0.963757 0.003501 0.007812
0.990423 0.003177 0.006907
0.995946 0.003069 0.006609
0.997064 0.003042 0.006532
0.997311 0.003031 0.006503
0.997424 0.003017 0.006465
0.997611 0.002980 0.006372
0.998007 0.002889 0.006145
0.028672 0.055327 0.052005
0.028772 0.055314 0.051998
0.029304 0.055247 0.051961
0.032040 0.054902 0.051771
0.046100 0.053131 0.050793
0.050431 0.052585 0.050492
0.052239 0.052357 0.050366
0.053124 0.052246 0.050305
0.053595 0.052186 0.050272
0.053951 0.052141 0.050247
0.054460 0.052077 0.050212
0.055444 0.051953 0.050144
0.057534 0.051690 0.049998
0.062956 0.051007 0.049621
0.081857 0.048625 0.048307
0.129765 0.042591 0.044975
0.158819 0.038940 0.042955
0.179809 0.036345 0.041496
0.216989 0.031875 0.038913
0.276407 0.025177 0.034797
0.361043 0.016911 0.029004
0.465843 0.011156 0.022249
0.592804 0.007719 0.016259
0.729170 0.005740 0.011968
0.857930 0.004591 0.009303
0.963111 0.003885 0.007694
0.990296 0.003489 0.006815
0.995904 0.003361 0.006524
0.997036 0.003329 0.006448
0.997286 0.003317 0.006420
0.997400 0.003300 0.006384
0.997590 0.003257 0.006292
0.997993 0.003146 0.006071
0.028236 0.058811 0.051760
0.028336 0.058798 0.051753
0.028868 0.058732 0.051716
0.031604 0.058387 0.051526
0.045663 0.056615 0.050548
0.049995 0.056069 0.050247
0.051803 0.055841 0.050121
0.052688 0.055730 0.050060
0.053159 0.055671 0.050027
0.053514 0.055626 0.050002
0.054024 0.055562 0.049967
0.055008 0.055438 0.049898
0.057098 0.055174 0.049753
0.062520 0.054491 0.049376
0.081421 0.052110 0.048062
0.129329 0.046074 0.044730
0.158383 0.042418 0.042710
0.179373 0.039794 0.041251
0.216553 0.035199 0.038668
0.275971 0.028074 0.034553
0.360607 0.018902 0.028765
0.465407 0.012169 0.022037
0.592370 0.008233 0.016116
0.728744 0.006026 0.011875
0.857546 0.004772 0.009244
0.962905 0.004014 0.007654
0.990242 0.003592 0.006784
0.995887 0.003456 0.006497
0.997026 0.003421 0.006422
0.997278 0.003408 0.006394
0.997392 0.003391 0.006358
0.997583 0.003345 0.006267
0.997989 0.003230 0.006047
0.028042 0.060366 0.051651
0.028141 0.060353 0.051644
0.028673 0.060286 0.051607
0.031409 0.059941 0.051417
0.045469 0.058170 0.050439
0.049800 0.057624 0.050138
0.051608 0.057396 0.050012
0.052494 0.057284 0.049950
0.052965 0.057225 0.049918
0.053320 0.057180 0.049893
0.053829 0.057116 0.049857
0.054813 0.056992 0.049789
0.056903 0.056729 0.049644
0.062325 0.056046 0.049267
0.081227 0.053664 0.047952
0.129134 0.047628 0.044621
0.158189 0.043969 0.042600
0.179178 0.041337 0.041141
0.216359 0.036707 0.038559
0.275776 0.029474 0.034444
0.360412 0.020022 0.028659
0.465213 0.012728 0.021944
0.592176 0.008505 0.016053
0.728554 0.006171 0.011834
0.857374 0.004862 0.009218
0.962812 0.004076 0.007636
0.990217 0.003641 0.006770
0.995879 0.003501 0.006485
0.997022 0.003466 0.006410
0.997274 0.003452 0.006382
0.997389 0.003434 0.006346
0.997580 0.003388 0.006256
0.997986 0.003269 0.006037
0.027932 0.061244 0.051589
0.028031 0.061232 0.051582
0.028563 0.061165 0.051545
0.031299 0.060820 0.051355
0.045359 0.059048 0.050377
0.049690 0.058503 0.050076
0.051498 0.058275 0.049950
0.052384 0.058163 0.049888
0.052855 0.058104 0.049856
0.053210 0.058059 0.049831
0.053719 0.057995 0.049796
0.054703 0.057871 0.049727
0.056793 0.057608 0.049582
0.062215 0.056924 0.049205
0.081117 0.054543 0.047890
0.129024 0.048506 0.044559
0.158079 0.044847 0.042538
0.179068 0.042211 0.041079
0.216249 0.037571 0.038497
0.275666 0.030306 0.034383
0.360302 0.020746 0.028599
0.465103 0.013085 0.021892
0.592067 0.008675 0.016018
0.728447 0.006260 0.011812
0.857276 0.004916 0.009204
0.962758 0.004113 0.007626
0.990203 0.003670 0.006763
0.995874 0.003528 0.006478
0.997019 0.003492 0.006403
0.997272 0.003478 0.006375
0.997387 0.003460 0.006340
0.997579 0.003413 0.006250
0.997985 0.003292 0.006031
0.027865 0.061774 0.051552
0.027965 0.061761 0.051545
0.028497 0.061694 0.051508
0.031233 0.061349 0.051317
0.045293 0.059578 0.050340
0.049624 0.059032 0.050039
0.051432 0.058804 0.049913
0.052317 0.058693 0.049851
0.052788 0.058633 0.049818
0.053144 0.058589 0.049794
0.053653 0.058524 0.049758
0.054637 0.058400 0.049690
0.056727 0.058137 0.049545
0.062149 0.057454 0.049167
0.081051 0.055072 0.047853
0.128958 0.049036 0.044521
0.158013 0.045376 0.042501
0.179002 0.042739 0.041042
0.216182 0.038096 0.038460
0.275600 0.030817 0.034346
0.360236 0.021203 0.028563
0.465037 0.013313 0.021861
0.592001 0.008782 0.015998
0.728382 0.006316 0.011798
0.857217 0.004949 0.009195
0.962726 0.004136 0.007620
0.990195 0.003688 0.006758
0.995871 0.003544 0.006474
0.997018 0.003508 0.006399
0.997271 0.003494 0.006371
0.997386 0.003476 0.006336
0.997578 0.003428 0.006246
0.997985 0.003307 0.006028
0.027825 0.062099 0.051529
0.027924 0.062087 0.051522
0.028456 0.062020 0.051485
0.031192 0.061675 0.051295
0.045252 0.059904 0.050317
0.049583 0.059358 0.050016
0.051391 0.059130 0.049890
0.052277 0.059018 0.049828
0.052748 0.058959 0.049796
0.053103 0.058914 0.049771
0.053612 0.058850 0.049735
0.054596 0.058726 0.049667
0.056686 0.058463 0.049522
0.062108 0.057779 0.049145
0.081010 0.055398 0.047830
0.128917 0.049361 0.044499
0.157972 0.045702 0.042478
0.178961 0.043065 0.041019
0.216142 0.038419 0.038437
0.275559 0.031133 0.034323
0.360195 0.021489 0.028540
0.464996 0.013458 0.021842
0.591960 0.008851 0.015985
0.728342 0.006352 0.011790
0.857181 0.004970 0.009190
0.962706 0.004151 0.007617
0.990190 0.003700 0.006756
0.995870 0.003554 0.006471
0.997017 0.003518 0.006397
0.997270 0.003504 0.006369
0.997385 0.003486 0.006333
0.997577 0.003437 0.006244
0.997984 0.003316 0.006025
0.027796 0.062332 0.051512
0.027895 0.062319 0.051505
0.028427 0.062252 0.051468
0.031163 0.061908 0.051278
0.045223 0.060136 0.050300
0.049554 0.059590 0.049999
0.051362 0.059362 0.049873
0.052248 0.059251 0.049812
0.052718 0.059191 0.049779
0.053074 0.059147 0.049754
0.053583 0.059083 0.049719
0.054567 0.058958 0.049651
0.056657 0.058695 0.049505
0.062079 0.058012 0.049128
0.080981 0.055630 0.047814
0.128888 0.049594 0.044482
0.157943 0.045934 0.042462
0.178932 0.043297 0.041003
0.216112 0.038650 0.038421
0.275530 0.031359 0.034307
0.360166 0.021694 0.028524
0.464967 0.013564 0.021828
0.591932 0.008901 0.015976
0.728314 0.006377 0.011784
0.857155 0.004986 0.009186
0.962691 0.004161 0.007614
0.990187 0.003708 0.006754
0.995868 0.003562 0.006470
0.997016 0.003525 0.006395
0.997269 0.003511 0.006367
0.997385 0.003493 0.006332
0.997577 0.003444 0.006242
0.997984 0.003322 0.006024
0.027765 0.062575 0.051495
0.027865 0.062562 0.051488
0.028397 0.062495 0.051451
0.031133 0.062151 0.051261
0.045192 0.060379 0.050283
0.049524 0.059833 0.049982
0.051332 0.059605 0.049856
0.052217 0.059494 0.049795
0.052688 0.059434 0.049762
0.053043 0.059390 0.049737
0.053553 0.059326 0.049702
0.054537 0.059202 0.049633
0.056627 0.058938 0.049488
0.062049 0.058255 0.049111
0.080950 0.055873 0.047797
0.128858 0.049837 0.044465
0.157912 0.046177 0.042445
0.178902 0.043540 0.040986
0.216082 0.038892 0.038403
0.275500 0.031597 0.034290
0.360136 0.021909 0.028508
0.464937 0.013676 0.021814
0.591901 0.008954 0.015966
0.728284 0.006405 0.011778
0.857128 0.005002 0.009182
0.962676 0.004172 0.007612
0.990183 0.003716 0.006752
0.995867 0.003570 0.006468
0.997015 0.003533 0.006393
0.997269 0.003519 0.006366
0.997384 0.003500 0.006330
0.997576 0.003452 0.006240
0.997984 0.003329 0.006022
0.027721 0.062932 0.051470
0.027820 0.062919 0.051463
0.028352 0.062852 0.051426
0.031088 0.062507 0.051236
0.045148 0.060736 0.050258
0.049479 0.060190 0.049957
0.051287 0.059962 0.049831
0.052173 0.059851 0.049770
0.052643 0.059791 0.049737
0.052999 0.059746 0.049712
0.053508 0.059682 0.049677
0.054492 0.059558 0.049608
0.056582 0.059295 0.049463
0.062004 0.058612 0.049086
0.080906 0.056230 0.047772
0.128813 0.050193 0.044440
0.157868 0.046534 0.042420
0.178857 0.043896 0.040961
0.216037 0.039247 0.038378
0.275455 0.031945 0.034265
0.360091 0.022227 0.028484
0.464892 0.013842 0.021793
0.591857 0.009033 0.015953
0.728241 0.006446 0.011769
0.857088 0.005026 0.009177
0.962654 0.004189 0.007608
0.990177 0.003729 0.006749
0.995865 0.003581 0.006465
0.997014 0.003544 0.006391
0.997268 0.003530 0.006363
0.997384 0.003511 0.006327
0.997576 0.003462 0.006238
0.997983 0.003339 0.006020
0.027649 0.063508 0.051430
0.027748 0.063495 0.051423
0.028280 0.063428 0.051386
0.031016 0.063083 0.051195
0.045076 0.061312 0.050218
0.049407 0.060766 0.049916
0.051215 0.060538 0.049791
0.052100 0.060427 0.049729
0.052571 0.060367 0.049696
0.052927 0.060323 0.049672
0.053436 0.060258 0.049636
0.054420 0.060134 0.049568
0.056510 0.059871 0.049422
0.061932 0.059188 0.049045
0.080834 0.056806 0.047731
0.128741 0.050770 0.044399
0.157796 0.047110 0.042379
0.178785 0.044472 0.040920
0.215965 0.039821 0.038338
0.275383 0.032509 0.034225
0.360019 0.022743 0.028444
0.464820 0.014120 0.021759
0.591785 0.009168 0.015930
0.728170 0.006517 0.011755
0.857023 0.005069 0.009168
0.962618 0.004218 0.007601
0.990168 0.003751 0.006744
0.995862 0.003601 0.006461
0.997013 0.003563 0.006387
0.997266 0.003549 0.006359
0.997382 0.003530 0.006323
0.997575 0.003481 0.006234
0.997982 0.003356 0.006016
0.027534 0.064425 0.051365
0.027634 0.064412 0.051358
0.028165 0.064345 0.051321
0.030901 0.064000 0.051131
0.044961 0.062229 0.050153
0.049292 0.061683 0.049852
0.051100 0.061455 0.049726
0.051986 0.061343 0.049665
0.052457 0.061284 0.049632
0.052812 0.061239 0.049607
0.053321 0.061175 0.049572
0.054305 0.061051 0.049503
0.056395 0.060788 0.049358
0.061817 0.060105 0.048981
0.080719 0.057723 0.047666
0.128626 0.051686 0.044335
0.157681 0.048026 0.042315
0.178670 0.045388 0.040856
0.215851 0.040734 0.038273
0.275268 0.033409 0.034161
0.359904 0.023572 0.028382
0.464706 0.014592 0.021706
0.591671 0.009410 0.015895
0.728058 0.006651 0.011732
0.856920 0.005151 0.009153
0.962561 0.004272 0.007591
0.990153 0.003792 0.006736
0.995857 0.003637 0.006454
0.997010 0.003598 0.006380
0.997264 0.003583 0.006352
0.997380 0.003563 0.006317
0.997573 0.003513 0.006227
0.997981 0.003386 0.006010
0.027352 0.065883 0.051262
0.027452 0.065871 0.051255
0.027984 0.065804 0.051219
0.030719 0.065459 0.051028
0.044779 0.063687 0.050051
0.049110 0.063141 0.049749
0.050918 0.062914 0.049624
0.051803 0.062802 0.049562
0.052274 0.062743 0.049529
0.052629 0.062698 0.049505
0.053139 0.062634 0.049469
0.054123 0.062510 0.049401
0.056213 0.062246 0.049255
0.061635 0.061563 0.048878
0.080536 0.059181 0.047564
0.128444 0.053145 0.044232
0.157498 0.049485 0.042212
0.178488 0.046845 0.040753
0.215668 0.042188 0.038171
0.275086 0.034842 0.034059
0.359722 0.024909 0.028284
0.464523 0.015463 0.021622
0.591489 0.009926 0.015838
0.727880 0.006970 0.011695
0.856758 0.005352 0.009129
0.962466 0.004402 0.007575
0.990125 0.003885 0.006723
0.995847 0.003715 0.006442
0.997005 0.003670 0.006369
0.997261 0.003653 0.006341
0.997377 0.003632 0.006306
0.997570 0.003578 0.006217
0.997979 0.003447 0.006001
0.026937 0.069238 0.051026
0.027037 0.069225 0.051019
0.027568 0.069158 0.050982
0.030303 0.068814 0.050792
0.044360 0.067042 0.049814
0.048690 0.066496 0.049513
0.050498 0.066268 0.049387
0.051383 0.066157 0.049326
0.051854 0.066097 0.049293
0.052210 0.066053 0.049268
0.052719 0.065988 0.049233
0.053703 0.065864 0.049165
0.055793 0.065601 0.049019
0.061215 0.064918 0.048642
0.080116 0.062536 0.047328
0.128024 0.056499 0.043996
0.157079 0.052839 0.041976
0.178068 0.050198 0.040517
0.215248 0.045535 0.037936
0.274666 0.038160 0.033826
0.359302 0.028077 0.028060
0.464104 0.017904 0.021435
0.591072 0.011619 0.015708
0.727471 0.008113 0.011610
0.856385 0.006077 0.009074
0.962234 0.004855 0.007538
0.990052 0.004195 0.006695
0.995823 0.003970 0.006417
0.996993 0.003906 0.006344
0.997252 0.003882 0.006317
0.997370 0.003854 0.006282
0.997564 0.003790 0.006194
0.997974 0.003641 0.005979
0.025587 0.080204 0.050255
0.025686 0.080192 0.050248
0.026216 0.080125 0.050211
0.028946 0.079780 0.050020
0.042994 0.078008 0.049043
0.047320 0.077463 0.048741
0.049126 0.077235 0.048616
0.050011 0.077123 0.048554
0.050482 0.077064 0.048521
0.050837 0.077019 0.048497
0.051346 0.076955 0.048461
0.052331 0.076831 0.048393
0.054421 0.076568 0.048247
0.059843 0.075884 0.047870
0.078744 0.073503 0.046556
0.126652 0.067466 0.043224
0.155706 0.063805 0.041204
0.176696 0.061163 0.039746
0.213876 0.056492 0.037166
0.273293 0.049074 0.033062
0.357930 0.038757 0.027330
0.462733 0.027301 0.020844
0.589704 0.018848 0.015303
0.726124 0.013211 0.011350
0.855136 0.009260 0.008908
0.961416 0.006774 0.007424
0.989818 0.005486 0.006606
0.995749 0.005034 0.006337
0.996957 0.004903 0.006267
0.997224 0.004854 0.006241
0.997345 0.004800 0.006207
0.997543 0.004683 0.006121
0.997959 0.004443 0.005910
0.020512 0.121588 0.047342
0.020611 0.121575 0.047335
0.021136 0.121508 0.047298
0.023848 0.121163 0.047108
0.037840 0.119392 0.046130
0.042147 0.118846 0.045829
0.043949 0.118618 0.045703
0.044833 0.118506 0.045642
0.045303 0.118447 0.045609
0.045658 0.118402 0.045584
0.046168 0.118338 0.045549
0.047152 0.118214 0.045481
0.049242 0.117951 0.045335
0.054664 0.117268 0.044958
0.073565 0.114886 0.043644
0.121473 0.108849 0.040312
0.150527 0.105188 0.038292
0.171517 0.102545 0.036834
0.208697 0.097866 0.034257
0.268115 0.090407 0.030171
0.352751 0.079863 0.024544
0.457555 0.067126 0.018742
0.584534 0.052561 0.013941
0.720992 0.037564 0.010504
0.850244 0.023986 0.008365
0.958037 0.015312 0.007043
0.989122 0.011169 0.006306
0.995540 0.009836 0.006060
0.996836 0.009481 0.005996
0.997121 0.009351 0.005972
0.997250 0.009193 0.005940
0.997460 0.008827 0.005861
0.997904 0.008033 0.005669
0.017402 0.150311 0.045321
0.017498 0.150299 0.045314
0.018010 0.150232 0.045277
0.020660 0.149887 0.045087
0.034325 0.148115 0.044109
0.038569 0.147570 0.043808
0.040358 0.147342 0.043682
0.041239 0.147230 0.043621
0.041709 0.147171 0.043588
0.042064 0.147126 0.043563
0.042573 0.147062 0.043528
0.043558 0.146938 0.043459
0.045648 0.146674 0.043314
0.051069 0.145991 0.042937
0.069971 0.143609 0.041622
0.117878 0.137573 0.038291
0.146933 0.133912 0.036271
0.167922 0.131267 0.034814
0.205102 0.126585 0.032240
0.264520 0.119107 0.028175
0.349157 0.108476 0.022665
0.453962 0.095379 0.017411
0.580945 0.079649 0.013046
0.717429 0.062847 0.009945
0.846806 0.046929 0.008003
0.955190 0.033096 0.006789
0.988506 0.023332 0.006104
0.995361 0.019994 0.005876
0.996741 0.019173 0.005816
0.997044 0.018866 0.005793
0.997180 0.018446 0.005763
0.997401 0.017395 0.005689
0.997863 0.014931 0.005507
0.016036 0.165808 0.044230
0.016128 0.165795 0.044224
0.016622 0.165728 0.044187
0.019186 0.165383 0.043996
0.032500 0.163612 0.043019
0.036659 0.163066 0.042717
0.038428 0.162838 0.042592
0.039304 0.162727 0.042530
0.039773 0.162667 0.042497
0.040128 0.162622 0.042473
0.040637 0.162558 0.042437
0.041621 0.162434 0.042369
0.043710 0.162171 0.042223
0.049131 0.161488 0.041846
0.068032 0.159106 0.040532
0.115939 0.153069 0.037201
0.144993 0.149408 0.035181
0.165983 0.146763 0.033725
0.203163 0.142079 0.031157
0.262581 0.134595 0.027117
0.347218 0.123938 0.021721
0.452023 0.110754 0.016728
0.579010 0.094799 0.012576
0.715510 0.077639 0.009648
0.844958 0.061211 0.007810
0.953641 0.046441 0.006653
0.988097 0.035690 0.005997
0.995237 0.031870 0.005778
0.996682 0.030881 0.005721
0.997000 0.030491 0.005699
0.997141 0.029927 0.005671
0.997367 0.028420 0.005599
0.997840 0.024423 0.005422
0.014438 0.189171 0.042587
0.014522 0.189159 0.042580
0.014976 0.189092 0.042543
0.017357 0.188747 0.042353
0.029832 0.186975 0.041375
0.033805 0.186429 0.041074
0.035533 0.186202 0.040948
0.036399 0.186090 0.040887
0.036865 0.186031 0.040854
0.037219 0.185986 0.040829
0.037726 0.185922 0.040794
0.038708 0.185798 0.040725
0.040795 0.185534 0.040580
0.046214 0.184851 0.040203
0.065112 0.182469 0.038889
0.113017 0.176433 0.035559
0.142070 0.172771 0.033541
0.163059 0.170127 0.032089
0.200239 0.165442 0.029534
0.259657 0.157955 0.025551
0.344294 0.147292 0.020419
0.449100 0.134089 0.015811
0.576091 0.118089 0.011961
0.712608 0.100858 0.009262
0.842138 0.084324 0.007555
0.951212 0.069383 0.006470
0.987513 0.058456 0.005850
0.995059 0.054536 0.005643
0.996592 0.053505 0.005589
0.996929 0.053092 0.005568
0.997078 0.052490 0.005541
0.997314 0.050878 0.005473
0.997803 0.046642 0.005304
0.012340 0.229263 0.039768
0.012411 0.229251 0.039761
0.012793 0.229184 0.039724
0.014802 0.228839 0.039534
0.025402 0.227067 0.038556
0.028987 0.226521 0.038255
0.030627 0.226294 0.038130
0.031469 0.226182 0.038068
0.031926 0.226123 0.038036
0.032274 0.226078 0.038011
0.032776 0.226014 0.037976
0.033750 0.225890 0.037907
0.035825 0.225626 0.037762
0.041229 0.224943 0.037386
0.060111 0.222561 0.036074
0.108006 0.216525 0.032748
0.137055 0.212864 0.030737
0.158043 0.210219 0.029298
0.195222 0.205534 0.026785
0.254640 0.198047 0.022957
0.339277 0.187382 0.018431
0.444084 0.174175 0.014413
0.571080 0.158166 0.011042
0.707622 0.140921 0.008681
0.837280 0.124365 0.007165
0.946995 0.109393 0.006185
0.986536 0.098434 0.005618
0.994762 0.094494 0.005428
0.996434 0.093454 0.005378
0.996802 0.093034 0.005359
0.996963 0.092423 0.005334
0.997217 0.090790 0.005271
0.997738 0.086516 0.005114
0.010108 0.289481 0.035543
0.010160 0.289468 0.035536
0.010436 0.289401 0.035499
0.011862 0.289056 0.035310
0.019231 0.287285 0.034334
0.022134 0.286739 0.034034
0.023585 0.286511 0.033909
0.024358 0.286400 0.033848
0.024783 0.286340 0.033816
0.025109 0.286295 0.033791
0.025584 0.286231 0.033756
0.026516 0.286107 0.033688
0.028531 0.285844 0.033544
0.033861 0.285161 0.033172
0.052652 0.282779 0.031870
0.100498 0.276742 0.028568
0.129527 0.273081 0.026591
0.150509 0.270437 0.025205
0.187687 0.265752 0.022838
0.247104 0.258265 0.019547
0.331741 0.247599 0.015923
0.436550 0.234392 0.012626
0.563552 0.218381 0.009883
0.700131 0.201133 0.007935
0.829972 0.184574 0.006652
0.940634 0.169595 0.005803
0.985055 0.158630 0.005303
0.994298 0.154687 0.005135
0.996176 0.153645 0.005091
0.996591 0.153224 0.005074
0.996772 0.152610 0.005052
0.997056 0.150972 0.004995
0.997632 0.146693 0.004853
0.008153 0.368403 0.030060
0.008186 0.368390 0.030053
0.008358 0.368324 0.030017
0.009215 0.367979 0.029832
0.013442 0.366207 0.028869
0.015158 0.365662 0.028575
0.016071 0.365434 0.028453
0.016583 0.365322 0.028393
0.016875 0.365263 0.028362
0.017107 0.365218 0.028338
0.017456 0.365154 0.028303
0.018180 0.365030 0.028238
0.019890 0.364767 0.028099
0.024850 0.364084 0.027741
0.043125 0.361703 0.026492
0.090729 0.355667 0.023331
0.119679 0.352006 0.021548
0.140639 0.349362 0.020383
0.177811 0.344677 0.018552
0.237227 0.337190 0.016088
0.321864 0.326525 0.013315
0.426675 0.313318 0.010774
0.553686 0.297308 0.008671
0.690311 0.280060 0.007132
0.820392 0.263499 0.006083
0.932286 0.248520 0.005369
0.983029 0.237554 0.004941
0.993629 0.233610 0.004796
0.995788 0.232568 0.004758
0.996267 0.232146 0.004743
0.996480 0.231532 0.004724
0.996813 0.229894 0.004674
0.997475 0.225614 0.004550
0.006524 0.469188 0.023373
0.006544 0.469176 0.023367
0.006645 0.469109 0.023335
0.007136 0.468765 0.023167
0.009512 0.466994 0.022290
0.010440 0.466449 0.022028
0.010920 0.466221 0.021921
0.011186 0.466110 0.021869
0.011339 0.466051 0.021842
0.011462 0.466006 0.021821
0.011652 0.465942 0.021792
0.012066 0.465818 0.021735
0.013150 0.465555 0.021616
0.016775 0.464873 0.021318
0.032011 0.462494 0.020317
0.078502 0.456461 0.018012
0.107154 0.452802 0.016735
0.128042 0.450160 0.015892
0.165198 0.445477 0.014592
0.224611 0.437992 0.012823
0.309248 0.427329 0.010834
0.414060 0.414124 0.009029
0.541083 0.398116 0.007493
0.677764 0.380871 0.006318
0.808141 0.364312 0.005486
0.921570 0.349335 0.004902
0.980270 0.338369 0.004545
0.992647 0.334425 0.004423
0.995180 0.333383 0.004391
0.995750 0.332961 0.004378
0.996016 0.332347 0.004362
0.996433 0.330709 0.004319
0.997239 0.326428 0.004213
0.005231 0.591842 0.017094
0.005243 0.591830 0.017089
0.005302 0.591764 0.017065
0.005587 0.591422 0.016947
0.006961 0.589656 0.016398
0.007473 0.589113 0.016220
0.007727 0.588887 0.016147
0.007866 0.588777 0.016112
0.007944 0.588718 0.016093
0.008008 0.588673 0.016079
0.008110 0.588610 0.016059
0.008345 0.588487 0.016021
0.009021 0.588226 0.015939
0.011490 0.587548 0.015732
0.022296 0.585179 0.015061
0.064270 0.579161 0.013544
0.092011 0.575515 0.012671
0.112718 0.572882 0.012092
0.149838 0.568208 0.011225
0.209243 0.560733 0.010064
0.293879 0.550080 0.008752
0.398694 0.536887 0.007523
0.525728 0.520893 0.006427
0.662472 0.503660 0.005548
0.793183 0.487113 0.004900
0.908383 0.472143 0.004431
0.976454 0.461181 0.004139
0.991144 0.457239 0.004039
0.994187 0.456197 0.004012
0.994893 0.455776 0.004002
0.995251 0.455161 0.003988
0.995824 0.453523 0.003952
0.996880 0.449243 0.003863
0.004267 0.728462 0.012467
0.004274 0.728451 0.012463
0.004310 0.728388 0.012446
0.004484 0.728057 0.012368
0.005327 0.726317 0.012026
0.005629 0.725789 0.011911
0.005774 0.725569 0.011863
0.005851 0.725461 0.011840
0.005894 0.725404 0.011828
0.005930 0.725360 0.011819
0.005988 0.725298 0.011806
0.006130 0.725179 0.011781
0.006566 0.724926 0.011728
0.008264 0.724269 0.011593
0.015965 0.721950 0.011170
0.049098 0.716021 0.010234
0.075195 0.712440 0.009689
0.095590 0.709852 0.009325
0.132651 0.705227 0.008779
0.192045 0.697798 0.008037
0.276679 0.687199 0.007174
0.381495 0.674067 0.006330
0.508541 0.658143 0.005539
0.645346 0.640980 0.004878
0.776381 0.624492 0.004374
0.893331 0.609561 0.003998
0.970926 0.598617 0.003761
0.988728 0.594682 0.003678
0.992505 0.593642 0.003657
0.993429 0.593221 0.003648
0.993966 0.592607 0.003637
0.994841 0.590969 0.003607
0.996348 0.586689 0.003532
0.003605 0.858862 0.009554
0.003610 0.858853 0.009552
0.003633 0.858801 0.009541
0.003749 0.858518 0.009492
0.004319 0.856943 0.009279
0.004517 0.856482 0.009207
0.004609 0.856290 0.009177
0.004657 0.856195 0.009162
0.004684 0.856144 0.009154
0.004706 0.856107 0.009149
0.004743 0.856052 0.009140
0.004834 0.855947 0.009125
0.005124 0.855726 0.009091
0.006272 0.855155 0.009006
0.011530 0.853091 0.008739
0.034705 0.847682 0.008141
0.058829 0.844429 0.007792
0.078834 0.842057 0.007555
0.115818 0.837681 0.007193
0.175197 0.830490 0.006689
0.259828 0.820160 0.006085
0.364645 0.807349 0.005471
0.491699 0.791790 0.004875
0.628548 0.774998 0.004359
0.759815 0.758823 0.003954
0.878001 0.744095 0.003647
0.962224 0.733235 0.003449
0.984705 0.729328 0.003380
0.989628 0.728297 0.003362
0.990934 0.727879 0.003355
0.991832 0.727266 0.003345
0.993307 0.725628 0.003320
0.995604 0.721348 0.003257
0.003133 0.966384 0.007738
0.003136 0.966379 0.007737
0.003153 0.966354 0.007730
0.003237 0.966238 0.007698
0.003650 0.965731 0.007557
0.003791 0.965555 0.007509
0.003856 0.965480 0.007489
0.003889 0.965444 0.007480
0.003907 0.965424 0.007474
0.003922 0.965410 0.007471
0.003947 0.965389 0.007465
0.004009 0.965347 0.007455
0.004199 0.965255 0.007432
0.004934 0.965008 0.007376
0.008172 0.964158 0.007196
0.021571 0.961902 0.006788
0.043242 0.960264 0.006547
0.062749 0.958848 0.006383
0.099635 0.955822 0.006126
0.158995 0.949818 0.005760
