build/lib/silbersalz_look/luts/silbersalz-colorplus200_v1-paired_33.cube
TITLE "silbersalz-colorplus200_v1-paired"
# Generated by saltgate on 2026-08-27
# Input:  Silbersalz flat-scan code values [0,1] (Display P3 tagged)
# Output: graded display code values (Display P3)
# pairs: 13
LUT_3D_SIZE 5
DOMAIN_MIN 0.0 0.0 0.0
DOMAIN_MAX 1.0 1.0 1.0
0.000000 0.019771 0.032849
0.049367 0.019953 0.032173
0.335072 0.020254 0.031200
0.828187 0.020136 0.030421
1.000000 0.020107 0.030099
0.029045 0.077546 0.031887
0.177179 0.075039 0.029563
0.593745 0.076244 0.029484
0.958898 0.076464 0.030198
1.000000 0.076114 0.030030
0.206765 0.482880 0.032951
0.513736 0.477927 0.030915
0.909377 0.474549 0.029795
1.000000 0.472233 0.030889
1.000000 0.470625 0.030698
0.609795 0.972506 0.034146
0.873859 0.971775 0.033550
1.000000 0.970933 0.032289
1.000000 0.970171 0.031730
1.000000 0.969682 0.031239
0.900931 1.000000 0.034111
1.000000 1.000000 0.034000
1.000000 1.000000 0.033184
1.000000 1.000000 0.031999
0.993609 1.000000 0.031396
0.000000 0.021030 0.029275
0.005313 0.024599 0.032606
0.134236 0.023217 0.032584
0.517344 0.021081 0.033824
0.834831 0.021120 0.036240
0.000000 0.046941 0.026364
0.042369 0.033421 0.018766
0.270894 0.045128 0.026297
0.718206 0.046774 0.034487
0.960428 0.049162 0.037215
0.065650 0.366994 0.026753
0.234912 0.346206 0.021985
0.578465 0.332368 0.019312
0.909655 0.337959 0.040116
1.000000 0.349541 0.042524
0.307030 0.915283 0.028794
0.595445 0.907607 0.027830
0.908918 0.893336 0.025640
1.000000 0.891942 0.034986
1.000000 0.899463 0.039003
0.553561 1.000000 0.028888
0.831941 1.000000 0.029549
1.000000 1.000000 0.029746
1.000000 1.000000 0.032174
1.000000 1.000000 0.034709
0.012296 0.027724 0.081788
0.001547 0.033646 0.097897
0.003388 0.033251 0.112636
0.142867 0.028367 0.127830
0.350194 0.027039 0.141759
0.000850 0.028151 0.080475
0.001738 0.040294 0.111014
0.059734 0.053226 0.126554
0.301645 0.031782 0.129854
0.612019 0.025473 0.141502
0.000000 0.222412 0.074967
0.017099 0.191095 0.089617
0.195057 0.210530 0.149107
0.547893 0.122019 0.140358
0.915328 0.169657 0.150996
0.044670 0.791309 0.070992
0.197950 0.767157 0.076507
0.494589 0.691207 0.067964
0.802628 0.654739 0.100308
1.000000 0.715570 0.123083
0.136799 1.000000 0.068776
0.399226 1.000000 0.075741
0.813672 1.000000 0.082725
1.000000 1.000000 0.096510
1.000000 1.000000 0.106604
0.022826 0.032242 0.376437
0.016673 0.033567 0.412117
0.000000 0.034677 0.467607
0.007684 0.033386 0.523986
0.054767 0.032497 0.562146
0.018544 0.020887 0.367425
0.011507 0.025932 0.405530
0.003726 0.037105 0.465501
0.073075 0.032096 0.517075
0.199762 0.021971 0.551748
0.005242 0.120357 0.352941
0.000351 0.115522 0.390195
0.017510 0.127806 0.463164
0.303802 0.148202 0.502788
0.595891 0.098512 0.519072
0.000000 0.624991 0.338333
0.026043 0.608916 0.367464
0.122656 0.538771 0.382693
0.596859 0.613883 0.474590
1.000000 0.577358 0.426879
0.007802 1.000000 0.329309
0.090116 0.998918 0.357834
0.377155 0.991703 0.405822
0.871952 1.000000 0.508653
1.000000 1.000000 0.505112
0.024433 0.034500 0.788380
0.022272 0.034168 0.831745
0.009509 0.033850 0.891573
0.000000 0.033848 0.940688
0.000000 0.033899 0.967804
0.023800 0.017927 0.774589
0.017833 0.018826 0.819926
0.000000 0.022730 0.884753
0.000000 0.023410 0.935425
0.034394 0.018779 0.960897
0.017695 0.069562 0.752316
0.003362 0.068799 0.800595
0.000000 0.079180 0.877904
0.080481 0.100971 0.937164
0.257583 0.070545 0.935303
0.006128 0.505810 0.728984
0.000000 0.499184 0.776563
0.014854 0.496385 0.863262
0.365450 0.598648 1.000000
0.761325 0.524122 0.889835
0.001256 0.955082 0.713983
0.006222 0.951295 0.762167
0.131611 0.961365 0.861296
0.683842 1.000000 1.000000
0.995253 0.995295 1.000000
