luts/silbersalz-250d_v2-paired_33.cube
TITLE "silbersalz-250d_v2-paired_33"
# Generated by saltgate on 2026-08-25
# Input:  Silbersalz flat-scan code values [0,1] (Display P3 tagged)
# Output: graded display code values (Display P3)
# pairs: 22
LUT_3D_SIZE 9
DOMAIN_MIN 0.0 0.0 0.0
DOMAIN_MAX 1.0 1.0 1.0
0.012446 0.019573 0.014428
0.018487 0.008975 0.016355
0.065778 0.009287 0.014830
0.177226 0.009586 0.015889
0.374165 0.008686 0.019301
0.642240 0.007464 0.025684
0.880715 0.006467 0.035693
1.000000 0.005865 0.047458
1.000000 0.005624 0.054363
0.020879 0.035439 0.014322
0.031483 0.031338 0.014409
0.066234 0.026752 0.014989
0.159640 0.022078 0.013362
0.343249 0.017602 0.013071
0.606847 0.013442 0.015573
0.855956 0.010487 0.021445
0.993863 0.008742 0.029291
1.000000 0.008035 0.034072
0.018205 0.051042 0.010530
0.029206 0.052125 0.011914
0.064933 0.053704 0.011623
0.133110 0.048313 0.011180
0.288857 0.038155 0.007802
0.539576 0.028404 0.004898
0.804900 0.021546 0.003794
0.972885 0.017443 0.004885
1.000000 0.015756 0.006131
0.011320 0.079325 0.006305
0.020897 0.079223 0.007015
0.050719 0.078875 0.008010
0.111376 0.074930 0.009406
0.243415 0.065436 0.008861
0.473065 0.053569 0.005652
0.746410 0.043491 0.000321
0.945268 0.036652 0.000000
1.000000 0.033589 0.000000
0.005863 0.133381 0.006893
0.011287 0.129902 0.007042
0.032590 0.123789 0.007534
0.087983 0.116670 0.009006
0.207112 0.107442 0.010858
0.417162 0.095809 0.010646
0.689006 0.084169 0.006338
0.912556 0.074996 0.000625
1.000000 0.070495 0.000000
0.003792 0.235805 0.010541
0.005534 0.227935 0.010308
0.018684 0.213549 0.009920
0.064514 0.198734 0.010123
0.169684 0.184451 0.011410
0.361043 0.169438 0.012220
0.627110 0.154182 0.010184
0.870476 0.141250 0.006090
0.976975 0.134769 0.003332
0.004413 0.403873 0.014439
0.003602 0.390981 0.014012
0.009684 0.366582 0.013040
0.043882 0.340552 0.012035
0.132908 0.316139 0.011608
0.303741 0.292639 0.011293
0.559263 0.269486 0.009730
0.816998 0.249404 0.006958
0.940823 0.239319 0.005129
0.005806 0.603553 0.017104
0.003406 0.586702 0.016622
0.004308 0.554137 0.015411
0.028442 0.518042 0.013725
0.103071 0.483187 0.012009
0.255373 0.449605 0.010363
0.497656 0.416903 0.008358
0.762338 0.388486 0.006101
0.899783 0.374164 0.004836
0.006539 0.719056 0.018141
0.003502 0.700865 0.017657
0.002129 0.665136 0.016399
0.021399 0.624914 0.014497
0.088876 0.585386 0.012302
0.231944 0.546871 0.010085
0.466234 0.509112 0.007819
0.732337 0.476137 0.005729
0.876230 0.459345 0.004677
0.016084 0.029419 0.026614
0.027380 0.017019 0.028707
0.075266 0.011541 0.038437
0.186555 0.010053 0.053533
0.387394 0.009777 0.070601
0.656944 0.008983 0.089462
0.889990 0.007847 0.110714
1.000000 0.006937 0.131795
1.000000 0.006526 0.143385
0.018993 0.041780 0.026703
0.030982 0.028219 0.018233
0.074738 0.025448 0.025119
0.164494 0.022186 0.038092
0.352242 0.019846 0.051299
0.618958 0.016315 0.066165
0.864645 0.013079 0.082795
0.996637 0.010883 0.099430
1.000000 0.009929 0.108614
0.018605 0.058991 0.014191
0.030717 0.059440 0.014967
0.072788 0.060520 0.014315
0.128475 0.057740 0.023786
0.285957 0.047101 0.029011
0.542860 0.035739 0.036610
0.810620 0.027552 0.044044
0.974968 0.022502 0.052083
1.000000 0.020323 0.056647
0.012884 0.090681 0.005020
0.025620 0.090931 0.006287
0.062435 0.091804 0.007814
0.117423 0.090105 0.014675
0.241968 0.082565 0.023682
0.470537 0.068268 0.029681
0.749695 0.055970 0.029100
0.947234 0.047891 0.028250
1.000000 0.043918 0.027327
0.007303 0.150346 0.002950
0.014743 0.146649 0.003548
0.039975 0.141251 0.004938
0.095968 0.136649 0.009867
0.214856 0.129333 0.019937
0.426704 0.116909 0.031225
0.699392 0.103985 0.032698
0.918470 0.094450 0.028706
1.000000 0.088947 0.023828
0.004572 0.262620 0.006020
0.007418 0.254226 0.006084
0.023181 0.239654 0.006493
0.071443 0.226253 0.008888
0.178721 0.214143 0.015982
0.375890 0.199548 0.025710
0.644773 0.182946 0.030189
0.882094 0.169026 0.028185
0.982952 0.161269 0.023836
0.004600 0.441926 0.010465
0.004400 0.428477 0.010148
0.012220 0.403368 0.009557
0.048983 0.377380 0.009743
0.141184 0.354144 0.012518
0.317792 0.331738 0.017370
0.577672 0.307561 0.019801
0.831746 0.285036 0.017802
0.950370 0.273186 0.015002
0.005624 0.648434 0.013889
0.003564 0.631587 0.013358
0.005645 0.598983 0.012103
0.032165 0.563007 0.010703
0.110327 0.528668 0.010207
0.267885 0.495617 0.010700
0.514771 0.461998 0.010180
0.778031 0.431246 0.007663
0.911448 0.415338 0.005703
0.006219 0.765403 0.015307
0.003420 0.747547 0.014707
0.003000 0.712461 0.013212
0.024508 0.672769 0.011191
0.095513 0.633685 0.009372
0.243505 0.595434 0.008016
0.482441 0.557122 0.006216
0.748190 0.522634 0.003622
0.888838 0.504819 0.002015
0.012753 0.030926 0.108978
0.030327 0.027159 0.117628
0.086338 0.017719 0.143344
0.205693 0.012352 0.182220
0.416029 0.012576 0.226166
0.686776 0.012281 0.270535
0.907988 0.010809 0.314925
1.000000 0.009309 0.355153
1.000000 0.008572 0.376559
0.013914 0.044275 0.079317
0.029437 0.044684 0.077969
0.074276 0.027061 0.093219
0.179277 0.020152 0.128033
0.377307 0.023080 0.171997
0.646546 0.021554 0.214378
0.882333 0.018074 0.254933
1.000000 0.015173 0.290860
1.000000 0.013816 0.309579
0.016057 0.071633 0.043245
0.031376 0.074762 0.050757
0.057628 0.048934 0.025788
0.137050 0.048856 0.044412
0.297623 0.053781 0.086622
0.559522 0.047558 0.127098
0.823872 0.038959 0.160974
0.978779 0.032693 0.189530
1.000000 0.029647 0.203248
0.013204 0.111840 0.015067
0.029034 0.110462 0.019377
0.076425 0.106253 0.019532
0.122877 0.103822 0.024902
0.223156 0.102448 0.049085
0.459076 0.091991 0.083554
0.752230 0.080489 0.107626
0.948913 0.071527 0.125006
1.000000 0.065472 0.129120
0.008763 0.185158 0.000833
0.019379 0.179477 0.003129
0.052873 0.172231 0.006430
0.112357 0.175922 0.012725
0.221051 0.170117 0.034174
0.444644 0.154123 0.082572
0.718149 0.144464 0.108477
0.927971 0.139698 0.117970
1.000000 0.130132 0.105279
0.005730 0.318441 0.000000
0.010858 0.308319 0.000000
0.032786 0.291861 0.002420
0.086788 0.281278 0.008958
0.192169 0.276789 0.027778
0.404616 0.268018 0.063069
0.685348 0.248794 0.090353
0.906624 0.237512 0.102426
0.994393 0.224279 0.089058
0.004925 0.518315 0.001105
0.006132 0.503808 0.001340
0.018050 0.477181 0.002220
0.060468 0.451633 0.005514
0.157948 0.433752 0.016543
0.347093 0.420666 0.038076
0.619316 0.397222 0.054372
0.864217 0.367719 0.054683
0.970695 0.349843 0.047308
0.005234 0.733516 0.004785
0.003978 0.717158 0.004299
0.008787 0.685458 0.003285
0.040542 0.651029 0.003014
0.126312 0.620333 0.006382
0.295755 0.592645 0.014479
0.552720 0.559747 0.019826
0.811201 0.523170 0.016259
0.935350 0.502854 0.011644
0.005526 0.849609 0.006567
0.003291 0.833601 0.005794
0.005036 0.801424 0.003987
0.031396 0.764546 0.002082
0.110191 0.728738 0.001961
0.269241 0.693954 0.004209
0.517436 0.656201 0.004971
0.780632 0.618277 0.001256
0.913783 0.597726 0.000000
0.010299 0.031044 0.322937
0.032254 0.028993 0.340643
0.098667 0.023014 0.383307
0.231344 0.018337 0.442109
0.452519 0.017520 0.505635
0.722213 0.016495 0.567419
0.927816 0.014454 0.625104
1.000000 0.012420 0.673153
1.000000 0.011394 0.697041
0.009951 0.046586 0.255668
0.028724 0.045243 0.261684
0.086152 0.037232 0.290994
0.206373 0.030331 0.345773
0.414438 0.029912 0.409090
0.683190 0.027314 0.473141
0.903743 0.023329 0.534240
1.000000 0.019981 0.585578
1.000000 0.018375 0.611285
0.010007 0.081723 0.153478
0.025745 0.080415 0.146376
0.068311 0.073762 0.141423
0.170562 0.070075 0.186904
0.336141 0.064632 0.232245
0.601141 0.056926 0.299551
0.847125 0.048706 0.368064
0.985043 0.042609 0.425878
1.000000 0.039443 0.453115
0.009401 0.134948 0.075731
0.024239 0.128578 0.078021
0.065008 0.115866 0.089234
0.120395 0.099450 0.080187
0.267992 0.107517 0.097025
0.527694 0.098858 0.149304
0.770892 0.096550 0.219771
0.954412 0.090804 0.286912
1.000000 0.085322 0.310986
0.007566 0.228381 0.027491
0.019117 0.217641 0.031873
0.057711 0.198467 0.042885
0.131192 0.186742 0.052969
0.213038 0.177910 0.050274
0.448501 0.171342 0.106381
0.746281 0.166615 0.174512
0.938951 0.178781 0.232618
1.000000 0.168778 0.232165
0.005886 0.387457 0.003194
0.013083 0.373431 0.006948
0.042497 0.348784 0.016330
0.108489 0.330889 0.028536
0.208368 0.328212 0.047243
0.415937 0.332619 0.100938
0.736440 0.314473 0.163600
0.939256 0.325438 0.219477
1.000000 0.294766 0.183360
0.005041 0.606423 0.000000
0.008001 0.590348 0.000000
0.025755 0.560448 0.000664
0.077677 0.532910 0.009103
0.182935 0.521448 0.028459
0.385355 0.535334 0.077169
0.686322 0.524593 0.124250
0.912301 0.474032 0.118331
0.996755 0.443352 0.099558
0.004788 0.821459 0.000000
0.004655 0.806437 0.000000
0.013376 0.777078 0.000000
0.052773 0.746004 0.000000
0.149965 0.722754 0.005199
0.337630 0.709341 0.028203
0.610426 0.685086 0.048405
0.856862 0.639340 0.041348
0.964492 0.611139 0.030476
0.004756 0.928325 0.000000
0.003333 0.915665 0.000000
0.008119 0.889560 0.000000
0.041144 0.859504 0.000000
0.131003 0.831933 0.000000
0.306360 0.807109 0.004301
0.566592 0.775519 0.012663
0.822062 0.734895 0.008390
0.942707 0.710508 0.002231
0.011144 0.034448 0.644273
0.037492 0.032580 0.664767
0.113782 0.028715 0.706376
0.259181 0.025339 0.756618
0.490434 0.023269 0.806887
0.757157 0.021104 0.852789
0.945915 0.018517 0.892499
1.000000 0.016173 0.922866
1.000000 0.015001 0.936782
0.009043 0.052846 0.553363
0.031978 0.050190 0.569264
0.100230 0.044780 0.603741
0.233380 0.040331 0.652554
0.451834 0.037161 0.708234
0.719608 0.033281 0.765039
0.924450 0.028975 0.817594
1.000000 0.025444 0.858786
1.000000 0.023741 0.877825
0.006147 0.095344 0.391662
0.023220 0.089966 0.396540
0.075002 0.080162 0.403018
0.180915 0.075027 0.429409
0.366135 0.070400 0.483345
0.635066 0.063666 0.559684
0.872816 0.056596 0.641650
0.993738 0.051671 0.709385
1.000000 0.049110 0.740789
0.004497 0.162984 0.241512
0.016834 0.151050 0.241941
0.053721 0.126517 0.224327
0.126704 0.112850 0.192356
0.270293 0.113449 0.222388
0.529704 0.106639 0.298954
0.804118 0.100625 0.411000
0.967387 0.100647 0.516069
1.000000 0.098652 0.563335
0.004045 0.278932 0.130787
0.013697 0.260492 0.135591
0.049028 0.223642 0.142158
0.114482 0.204268 0.157643
0.247511 0.197624 0.154863
0.492511 0.180586 0.170188
0.764287 0.171564 0.225005
0.954154 0.189651 0.345675
1.000000 0.186748 0.397947
0.004337 0.463059 0.057881
0.011795 0.442230 0.065441
0.045180 0.401420 0.083245
0.124661 0.366601 0.104481
0.241305 0.349976 0.113159
0.428937 0.341823 0.126575
0.794328 0.332708 0.211136
0.967885 0.342188 0.259214
1.000000 0.330679 0.273662
0.004525 0.692954 0.013981
0.008713 0.674383 0.019534
0.031923 0.638228 0.032634
0.096503 0.604070 0.050338
0.220756 0.590876 0.071863
0.446011 0.610038 0.121508
0.785548 0.629723 0.216861
0.966463 0.561841 0.192591
1.000000 0.524230 0.170582
0.004324 0.894269 0.000000
0.005319 0.881027 0.000000
0.018248 0.854583 0.000000
0.066558 0.827151 0.008771
0.178800 0.810668 0.026585
0.392677 0.811076 0.064128
0.689385 0.807367 0.109841
0.909179 0.758094 0.101010
0.990085 0.721820 0.084065
0.004136 0.983631 0.000000
0.003644 0.974523 0.000000
0.011832 0.955422 0.000000
0.052220 0.933984 0.000000
0.154977 0.917405 0.002916
0.351443 0.907479 0.025814
0.626803 0.890656 0.048236
0.867330 0.853466 0.048505
0.968905 0.826518 0.041264
0.014436 0.044396 0.904429
0.044740 0.042051 0.915484
0.129668 0.037834 0.936863
0.287053 0.033929 0.960348
0.528043 0.030725 0.982206
0.790288 0.027570 1.000000
0.961657 0.024290 1.000000
1.000000 0.021431 1.000000
1.000000 0.020023 1.000000
0.011168 0.066668 0.839965
0.037822 0.063129 0.851369
0.114500 0.056797 0.872083
0.259600 0.051243 0.896137
0.489943 0.046876 0.923420
0.755622 0.042371 0.951862
0.943517 0.037619 0.977946
1.000000 0.033562 0.997719
1.000000 0.031563 1.000000
0.005765 0.117787 0.695483
0.024937 0.110434 0.705338
0.082507 0.097003 0.716607
0.197888 0.087286 0.729759
0.403919 0.082228 0.763946
0.676308 0.076598 0.814415
0.899062 0.070255 0.869685
1.000000 0.065164 0.915415
1.000000 0.062521 0.936090
0.001599 0.201427 0.517167
0.012350 0.184923 0.523522
0.045241 0.151584 0.515586
0.110964 0.131388 0.488350
0.283766 0.129196 0.519683
0.568998 0.124262 0.583409
0.835577 0.119249 0.677510
0.980465 0.117919 0.768838
1.000000 0.116333 0.811722
0.000259 0.340203 0.348312
0.005580 0.311888 0.356521
0.026045 0.244726 0.357703
0.081247 0.206807 0.345167
0.200425 0.212570 0.346489
0.492761 0.200999 0.350851
0.779387 0.199616 0.433105
0.962542 0.210430 0.568250
1.000000 0.209848 0.638331
0.001643 0.544740 0.210253
0.006178 0.514641 0.223011
0.031408 0.445151 0.250078
0.117858 0.387540 0.289344
0.220036 0.382903 0.287482
0.455613 0.368037 0.262291
0.794705 0.351363 0.291853
0.974256 0.377466 0.378489
1.000000 0.370304 0.457205
0.003371 0.773900 0.106498
0.007297 0.752441 0.118318
0.031240 0.707373 0.144951
0.101917 0.662989 0.181021
0.230967 0.644914 0.211152
0.467639 0.647713 0.219788
0.842192 0.635831 0.261808
0.987030 0.623587 0.304340
1.000000 0.600251 0.323549
0.003844 0.948199 0.038376
0.005548 0.936905 0.046224
0.021139 0.913409 0.063833
0.074464 0.888996 0.089039
0.193577 0.877047 0.122206
0.428291 0.884167 0.164319
0.759733 0.895720 0.215379
0.946266 0.862473 0.229668
0.996995 0.825733 0.223395
0.003747 1.000000 0.010655
0.004099 1.000000 0.016208
0.015131 0.996888 0.028686
0.060801 0.983175 0.047533
0.172420 0.976809 0.076455
0.388233 0.981596 0.117308
0.683279 0.982974 0.156773
0.906355 0.957116 0.171179
0.983655 0.931162 0.168001
0.019190 0.060653 1.000000
0.053254 0.057614 1.000000
0.146333 0.052141 1.000000
0.315467 0.046776 1.000000
0.565067 0.042086 1.000000
0.821082 0.037620 1.000000
0.975257 0.033200 1.000000
1.000000 0.029403 1.000000
1.000000 0.027541 1.000000
0.015195 0.086998 0.988406
0.045594 0.082865 0.992305
0.130717 0.075320 0.998607
0.288321 0.068187 1.000000
0.529178 0.062311 1.000000
0.790458 0.056632 1.000000
0.960677 0.050777 1.000000
1.000000 0.045629 1.000000
1.000000 0.043042 1.000000
0.008309 0.148793 0.919659
0.030878 0.140672 0.924129
0.097266 0.125502 0.928177
0.228080 0.113030 0.930928
0.449637 0.105716 0.942736
0.720858 0.099047 0.962519
0.924693 0.091630 0.984650
1.000000 0.084969 1.000000
1.000000 0.081531 1.000000
0.002371 0.252167 0.805142
0.014939 0.234198 0.810935
0.053872 0.197129 0.809232
0.142560 0.170626 0.799474
0.335899 0.164743 0.816861
0.621794 0.159932 0.851627
0.869744 0.153058 0.894959
0.993646 0.147244 0.939627
1.000000 0.144019 0.961715
0.000000 0.415217 0.649707
0.003782 0.383744 0.660353
0.015617 0.303104 0.661451
0.060804 0.241810 0.640188
0.210593 0.247593 0.671518
0.509684 0.252836 0.707960
0.805910 0.249704 0.754358
0.974621 0.250217 0.824941
1.000000 0.249404 0.865268
0.000631 0.633191 0.474901
0.003321 0.600456 0.492607
0.017677 0.517759 0.522161
0.070918 0.426409 0.553969
0.174873 0.401543 0.581482
0.414353 0.414771 0.608164
0.773651 0.402795 0.619075
0.972572 0.422227 0.681877
1.000000 0.425649 0.732828
0.002841 0.848147 0.307959
0.006288 0.827229 0.327325
0.027229 0.780483 0.367632
0.088887 0.728530 0.421695
0.203627 0.696312 0.488927
0.401300 0.705535 0.558381
0.797495 0.722529 0.557443
0.987740 0.674665 0.559324
1.000000 0.674837 0.601111
0.003694 0.986233 0.177752
0.005906 0.977469 0.194014
0.022602 0.958380 0.229018
0.075733 0.937733 0.278088
0.188854 0.929120 0.347053
0.412876 0.945916 0.434006
0.782212 0.963258 0.472567
0.970202 0.943899 0.488882
0.989317 0.910652 0.491141
0.003692 1.000000 0.118597
0.004845 1.000000 0.132500
0.018158 1.000000 0.162689
0.066856 1.000000 0.205716
0.181460 1.000000 0.267780
0.407586 1.000000 0.351157
0.725545 1.000000 0.426889
0.938640 1.000000 0.451515
0.987736 1.000000 0.436974
0.024304 0.078719 1.000000
0.061620 0.075211 1.000000
0.161843 0.068717 1.000000
0.341243 0.061991 1.000000
0.597479 0.055771 1.000000
0.846576 0.049794 1.000000
0.985870 0.043964 1.000000
1.000000 0.038998 1.000000
1.000000 0.036562 1.000000
0.019854 0.108697 1.000000
0.053744 0.104249 1.000000
0.146690 0.095976 1.000000
0.315475 0.087618 1.000000
0.564284 0.080198 1.000000
0.819742 0.073028 1.000000
0.974213 0.065785 1.000000
1.000000 0.059408 1.000000
1.000000 0.056187 1.000000
0.012381 0.181877 1.000000
0.039136 0.173924 1.000000
0.116044 0.158959 1.000000
0.262306 0.144894 1.000000
0.494715 0.134365 1.000000
0.760339 0.124971 1.000000
0.945712 0.115300 1.000000
1.000000 0.106661 1.000000
1.000000 0.102269 1.000000
0.006109 0.306182 0.978299
0.024035 0.290662 0.980058
0.079473 0.259964 0.978681
0.195248 0.232479 0.974693
0.403748 0.216687 0.978866
0.677658 0.204861 0.989082
0.901278 0.192573 1.000000
1.000000 0.181766 1.000000
1.000000 0.176270 1.000000
0.002811 0.492190 0.900515
0.012870 0.467710 0.907016
0.047588 0.414995 0.911889
0.130792 0.365004 0.912162
0.306134 0.341228 0.925240
0.579579 0.327772 0.944086
0.843693 0.314353 0.962127
0.987994 0.304267 0.982426
1.000000 0.299071 0.994632
0.002712 0.716130 0.765649
0.008970 0.690915 0.781983
0.034871 0.634681 0.808568
0.101079 0.573032 0.835562
0.240585 0.533821 0.869413
0.487294 0.511111 0.908099
0.788857 0.498196 0.921203
0.973957 0.494971 0.932904
1.000000 0.492543 0.945263
0.003798 0.908328 0.579556
0.008601 0.892472 0.603992
0.031963 0.857303 0.651089
0.093373 0.815780 0.709415
0.212581 0.781319 0.787708
0.420342 0.757248 0.900480
0.764485 0.750638 0.912488
0.976498 0.748826 0.881698
1.000000 0.742415 0.885786
0.004128 1.000000 0.394406
0.007246 1.000000 0.420392
0.026135 0.992470 0.473526
0.081949 0.977854 0.543685
0.199842 0.971094 0.641790
0.427601 0.987197 0.785885
0.788688 1.000000 0.936441
0.987206 0.983723 0.924419
0.996319 0.949604 0.837567
0.003988 1.000000 0.299630
0.006057 1.000000 0.324330
0.022031 1.000000 0.376170
0.074953 1.000000 0.446042
0.195834 1.000000 0.541968
0.432066 1.000000 0.672995
0.762937 1.000000 0.805591
0.966782 1.000000 0.850074
0.990649 1.000000 0.813311
0.027173 0.088835 1.000000
0.066154 0.085130 1.000000
0.169976 0.078224 1.000000
0.354642 0.070924 1.000000
0.614031 0.063967 1.000000
0.859022 0.057157 1.000000
0.990811 0.050456 1.000000
1.000000 0.044770 1.000000
1.000000 0.041957 1.000000
0.022506 0.120698 1.000000
0.058241 0.116126 1.000000
0.155126 0.107571 1.000000
0.329578 0.098665 1.000000
0.582173 0.090453 1.000000
0.834128 0.082456 1.000000
0.980512 0.074439 1.000000
1.000000 0.067403 1.000000
1.000000 0.063840 1.000000
0.014844 0.200357 1.000000
0.043933 0.192579 1.000000
0.126267 0.177943 1.000000
0.280009 0.163284 1.000000
0.517498 0.150966 1.000000
0.779847 0.139735 1.000000
0.955606 0.128585 1.000000
1.000000 0.118822 1.000000
1.000000 0.113909 1.000000
0.008656 0.336268 1.000000
0.029834 0.322380 1.000000
0.094038 0.295553 1.000000
0.221973 0.268898 1.000000
0.437701 0.248403 1.000000
0.706484 0.231437 1.000000
0.917007 0.215390 1.000000
1.000000 0.201729 1.000000
1.000000 0.194895 1.000000
0.005321 0.534125 0.999297
0.019274 0.513939 1.000000
0.065956 0.473295 1.000000
0.167257 0.431172 1.000000
0.354903 0.399123 1.000000
0.621078 0.374430 1.000000
0.865880 0.353441 1.000000
0.995348 0.336956 1.000000
1.000000 0.328675 1.000000
0.004537 0.759220 0.907935
0.013639 0.738940 0.919902
0.048186 0.696486 0.941002
0.128800 0.648794 0.963868
0.286217 0.608507 0.992173
0.538513 0.577257 1.000000
0.813221 0.555596 1.000000
0.978552 0.540760 1.000000
1.000000 0.532223 1.000000
0.004719 0.936635 0.743860
0.010835 0.924254 0.766797
0.037782 0.897170 0.810444
0.105523 0.864395 0.862706
0.241049 0.834431 0.929501
0.482125 0.813199 1.000000
0.787891 0.802826 1.000000
0.972512 0.789159 1.000000
1.000000 0.775661 1.000000
0.004536 1.000000 0.542885
0.008350 1.000000 0.573983
0.029269 1.000000 0.634938
0.089127 0.997321 0.710761
0.217481 0.991656 0.808288
0.462317 0.998641 0.932701
0.798215 1.000000 1.000000
0.983676 0.973027 1.000000
1.000000 0.951152 1.000000
0.004246 1.000000 0.426729
0.006892 1.000000 0.458990
0.024677 1.000000 0.524505
0.081131 1.000000 0.608693
0.208455 1.000000 0.716346
0.452271 1.000000 0.851614
0.777244 1.000000 0.971782
0.970240 1.000000 1.000000
0.991816 0.991815 0.988051
