luts/silbersalz-250d_v0.2-structured_33.cube
TITLE "silbersalz-250d_v0.2-structured_33"
# Generated by silbersalz-look on 2026-08-22
# Input:  Silbersalz flat-scan code values [0,1] (Display P3 tagged)
# Output: graded display code values (Display P3)
# track: v0.2-structured
LUT_3D_SIZE 9
DOMAIN_MIN 0.0 0.0 0.0
DOMAIN_MAX 1.0 1.0 1.0
0.028534 0.023519 0.000012
0.109677 0.033368 0.000022
0.119864 0.034559 0.000024
0.119867 0.034559 0.000024
0.119908 0.034565 0.000025
0.212040 0.046972 0.000516
0.605190 0.152025 0.090194
0.771025 0.239359 0.153939
0.840141 0.265033 0.170860
0.042826 0.101346 0.000039
0.124373 0.111755 0.001408
0.134315 0.113150 0.002104
0.134318 0.113150 0.002104
0.134359 0.113156 0.002107
0.226617 0.125920 0.009984
0.617409 0.217968 0.117283
0.783839 0.292155 0.184060
0.867813 0.299453 0.179737
0.045371 0.115793 0.000060
0.126795 0.126363 0.003895
0.136764 0.127759 0.004701
0.136767 0.127760 0.004701
0.136808 0.127765 0.004705
0.229176 0.140565 0.013444
0.619640 0.230851 0.123210
0.788092 0.301054 0.187327
0.873227 0.307092 0.181058
0.045373 0.115800 0.000060
0.126796 0.126370 0.003896
0.136765 0.127766 0.004702
0.136768 0.127767 0.004703
0.136809 0.127773 0.004706
0.229177 0.140572 0.013446
0.619641 0.230858 0.123213
0.788094 0.301058 0.187328
0.873230 0.307096 0.181059
0.045374 0.115806 0.000061
0.126797 0.126377 0.003898
0.136766 0.127773 0.004704
0.136770 0.127773 0.004704
0.136810 0.127779 0.004708
0.229178 0.140578 0.013448
0.619642 0.230863 0.123216
0.788096 0.301062 0.187329
0.873232 0.307099 0.181059
0.051301 0.148772 0.004218
0.132376 0.159581 0.011430
0.142434 0.160967 0.012460
0.142437 0.160967 0.012461
0.142478 0.160973 0.012466
0.235092 0.173776 0.023992
0.624972 0.260761 0.137629
0.800400 0.321163 0.190966
0.885949 0.326692 0.183300
0.213801 0.514323 0.199450
0.271110 0.524670 0.212871
0.278639 0.526057 0.214095
0.278642 0.526057 0.214095
0.278673 0.526063 0.214097
0.349980 0.540214 0.215945
0.734192 0.605295 0.196358
0.942839 0.628513 0.164608
0.998657 0.635098 0.152006
0.209478 0.752227 0.174222
0.272330 0.763941 0.171549
0.280810 0.765427 0.171103
0.280812 0.765427 0.171103
0.280848 0.765433 0.171101
0.363482 0.779189 0.165235
0.780315 0.838026 0.120176
0.988484 0.860750 0.134902
0.999997 0.870805 0.143296
0.105689 0.869147 0.109450
0.211608 0.880898 0.102091
0.223536 0.882386 0.100964
0.223540 0.882386 0.100964
0.223586 0.882392 0.100959
0.328450 0.895965 0.090236
0.794940 0.949900 0.128222
0.995667 0.973532 0.147191
0.999999 0.984050 0.156354
0.023229 0.024360 0.025640
0.104484 0.034251 0.034297
0.114679 0.035450 0.035383
0.114682 0.035450 0.035384
0.114723 0.035456 0.035388
0.206866 0.047897 0.045272
0.600304 0.151816 0.128555
0.765671 0.238747 0.191960
0.833628 0.265800 0.210181
0.037416 0.102208 0.046085
0.118938 0.112703 0.055120
0.128911 0.114095 0.056221
0.128914 0.114096 0.056222
0.128955 0.114101 0.056226
0.221390 0.126846 0.066537
0.612199 0.218234 0.156752
0.778210 0.292117 0.220866
0.861582 0.300329 0.218998
0.039829 0.116660 0.049761
0.121329 0.127311 0.058821
0.131337 0.128703 0.059930
0.131341 0.128704 0.059930
0.131381 0.128709 0.059935
0.223947 0.141489 0.070466
0.614387 0.231173 0.162428
0.781852 0.301686 0.224877
0.867051 0.307984 0.220353
0.039830 0.116668 0.049762
0.121331 0.127318 0.058823
0.131338 0.128711 0.059932
0.131342 0.128711 0.059932
0.131382 0.128717 0.059936
0.223949 0.141496 0.070468
0.614388 0.231179 0.162431
0.781854 0.301691 0.224878
0.867054 0.307987 0.220354
0.039831 0.116674 0.049764
0.121332 0.127324 0.058825
0.131340 0.128717 0.059933
0.131343 0.128717 0.059934
0.131383 0.128723 0.059938
0.223950 0.141502 0.070470
0.614389 0.231185 0.162433
0.781856 0.301695 0.224879
0.867056 0.307991 0.220354
0.045650 0.149655 0.058321
0.126928 0.160522 0.067593
0.137031 0.161904 0.068768
0.137035 0.161905 0.068768
0.137076 0.161910 0.068773
0.229927 0.174694 0.079989
0.619625 0.261181 0.176130
0.794268 0.321855 0.228640
0.879900 0.327611 0.222769
0.208715 0.515272 0.233378
0.265417 0.525659 0.246301
0.272577 0.527128 0.246907
0.272579 0.527128 0.246907
0.272611 0.527134 0.246909
0.344036 0.541255 0.249816
0.729148 0.606197 0.237815
0.938201 0.629467 0.212052
0.998125 0.635804 0.200911
0.204481 0.753239 0.216367
0.267380 0.764938 0.215192
0.275876 0.766422 0.214952
0.275879 0.766422 0.214952
0.275914 0.766428 0.214951
0.358730 0.780163 0.211289
0.776169 0.838921 0.181191
0.984668 0.861661 0.194845
0.999996 0.871573 0.202303
0.099333 0.870126 0.167877
0.206970 0.881863 0.164031
0.218983 0.883349 0.163419
0.218986 0.883349 0.163419
0.219033 0.883355 0.163416
0.324347 0.896903 0.157924
0.790841 0.950785 0.192011
0.995215 0.974336 0.208780
0.999999 0.984833 0.216957
0.017554 0.025191 0.083811
0.099148 0.035091 0.091810
0.109361 0.036303 0.092744
0.109364 0.036303 0.092745
0.109405 0.036309 0.092748
0.201665 0.048798 0.100837
0.594887 0.151903 0.171979
0.759881 0.238357 0.232280
0.826772 0.266605 0.251310
0.033488 0.103033 0.100954
0.114189 0.113663 0.108210
0.124181 0.115046 0.109106
0.124184 0.115047 0.109106
0.124225 0.115053 0.109110
0.216719 0.127740 0.117515
0.606573 0.218715 0.199034
0.772162 0.292261 0.260137
0.855018 0.301244 0.260513
0.036398 0.117485 0.103861
0.116747 0.128265 0.111140
0.126766 0.129648 0.112041
0.126770 0.129649 0.112041
0.126810 0.129654 0.112045
0.219371 0.142384 0.120660
0.608719 0.231702 0.204454
0.775272 0.302397 0.264695
0.860544 0.308914 0.261973
0.036400 0.117492 0.103862
0.116748 0.128272 0.111141
0.126768 0.129656 0.112042
0.126771 0.129656 0.112043
0.126812 0.129662 0.112046
0.219372 0.142391 0.120662
0.608720 0.231709 0.204457
0.775274 0.302401 0.264697
0.860547 0.308918 0.261974
0.036401 0.117498 0.103863
0.116750 0.128278 0.111143
0.126769 0.129662 0.112044
0.126772 0.129662 0.112044
0.126813 0.129668 0.112048
0.219373 0.142397 0.120664
0.608721 0.231714 0.204459
0.775276 0.302405 0.264698
0.860549 0.308921 0.261974
0.042418 0.150547 0.110710
0.122666 0.161463 0.118316
0.132752 0.162839 0.119285
0.132755 0.162839 0.119286
0.132796 0.162845 0.119290
0.225443 0.175596 0.128877
0.613859 0.261796 0.217521
0.787799 0.322620 0.268733
0.873525 0.328569 0.264706
0.203538 0.516294 0.271322
0.259090 0.526828 0.282971
0.266171 0.528310 0.283537
0.266174 0.528310 0.283537
0.266205 0.528316 0.283539
0.337724 0.542406 0.287405
0.723802 0.607165 0.282241
0.933299 0.630453 0.261418
0.997562 0.636511 0.251297
0.199183 0.754333 0.261483
0.262131 0.766014 0.261474
0.270644 0.767496 0.261393
0.270646 0.767496 0.261393
0.270682 0.767502 0.261392
0.353699 0.781213 0.259399
0.771836 0.839856 0.239287
0.980644 0.862608 0.252718
0.999995 0.872367 0.259723
0.092720 0.871178 0.223578
0.202196 0.882898 0.221655
0.214294 0.884381 0.221315
0.214298 0.884382 0.221315
0.214344 0.884388 0.221313
0.320118 0.897905 0.218430
0.786559 0.951712 0.251989
0.994595 0.975253 0.267921
0.999999 0.985649 0.275583
0.017497 0.025199 0.084413
0.099103 0.035098 0.092371
0.109316 0.036310 0.093300
0.109319 0.036310 0.093301
0.109360 0.036316 0.093304
0.201617 0.048806 0.101372
0.594827 0.151906 0.172460
0.759817 0.238355 0.232725
0.826697 0.266613 0.251762
0.033480 0.103041 0.101488
0.114149 0.113672 0.108741
0.124140 0.115056 0.109637
0.124143 0.115057 0.109637
0.124184 0.115062 0.109641
0.216672 0.127750 0.118044
0.606511 0.218721 0.199503
0.772094 0.292264 0.260573
0.854946 0.301254 0.260970
0.036393 0.117493 0.104392
0.116708 0.128275 0.111671
0.126726 0.129658 0.112571
0.126729 0.129659 0.112572
0.126770 0.129664 0.112575
0.219324 0.142393 0.121189
0.608656 0.231709 0.204920
0.775200 0.302404 0.265135
0.860472 0.308924 0.262432
0.036394 0.117500 0.104394
0.116709 0.128282 0.111672
0.126727 0.129666 0.112573
0.126730 0.129666 0.112573
0.126771 0.129672 0.112577
0.219325 0.142401 0.121191
0.608657 0.231716 0.204923
0.775202 0.302409 0.265137
0.860475 0.308928 0.262433
0.036396 0.117506 0.104395
0.116710 0.128288 0.111673
0.126728 0.129672 0.112574
0.126731 0.129672 0.112574
0.126772 0.129678 0.112578
0.219326 0.142407 0.121193
0.608658 0.231721 0.204925
0.775204 0.302413 0.265138
0.860478 0.308931 0.262433
0.042398 0.150558 0.111241
0.122626 0.161473 0.118847
0.132710 0.162849 0.119815
0.132713 0.162849 0.119816
0.132754 0.162855 0.119820
0.225395 0.175606 0.129403
0.613795 0.261804 0.217980
0.787729 0.322629 0.269177
0.873455 0.328579 0.265169
0.203482 0.516306 0.271753
0.259023 0.526840 0.283391
0.266103 0.528323 0.283956
0.266105 0.528323 0.283956
0.266137 0.528329 0.283959
0.337656 0.542418 0.287833
0.723743 0.607176 0.282733
0.933246 0.630464 0.261960
0.997552 0.636519 0.251850
0.199124 0.754345 0.261983
0.262073 0.766026 0.261986
0.270586 0.767508 0.261906
0.270589 0.767508 0.261906
0.270625 0.767514 0.261906
0.353644 0.781224 0.259930
0.771788 0.839866 0.239906
0.980603 0.862618 0.253340
0.999995 0.872376 0.260341
0.092649 0.871190 0.224173
0.202143 0.882910 0.222266
0.214242 0.884393 0.221928
0.214246 0.884393 0.221928
0.214293 0.884399 0.221927
0.320071 0.897916 0.219065
0.786513 0.951722 0.252628
0.994581 0.975264 0.268554
0.999999 0.985658 0.276212
0.017497 0.025199 0.084414
0.099103 0.035098 0.092372
0.109316 0.036310 0.093301
0.109319 0.036310 0.093301
0.109360 0.036316 0.093305
0.201617 0.048806 0.101373
0.594827 0.151906 0.172460
0.759817 0.238355 0.232725
0.826697 0.266613 0.251762
0.033480 0.103041 0.101488
0.114149 0.113672 0.108742
0.124140 0.115056 0.109638
0.124143 0.115057 0.109638
0.124184 0.115062 0.109642
0.216672 0.127750 0.118045
0.606511 0.218721 0.199503
0.772094 0.292264 0.260574
0.854946 0.301254 0.260971
0.036393 0.117493 0.104393
0.116708 0.128275 0.111671
0.126726 0.129658 0.112572
0.126729 0.129659 0.112572
0.126770 0.129664 0.112576
0.219324 0.142394 0.121190
0.608656 0.231709 0.204921
0.775200 0.302404 0.265136
0.860472 0.308924 0.262433
0.036394 0.117500 0.104395
0.116709 0.128282 0.111673
0.126727 0.129666 0.112574
0.126730 0.129666 0.112574
0.126771 0.129672 0.112578
0.219325 0.142401 0.121192
0.608657 0.231716 0.204924
0.775202 0.302409 0.265137
0.860475 0.308928 0.262433
0.036396 0.117506 0.104396
0.116710 0.128288 0.111674
0.126728 0.129672 0.112575
0.126731 0.129672 0.112575
0.126772 0.129678 0.112579
0.219326 0.142407 0.121193
0.608658 0.231721 0.204926
0.775204 0.302413 0.265138
0.860477 0.308931 0.262434
0.042398 0.150558 0.111242
0.122626 0.161473 0.118847
0.132710 0.162849 0.119816
0.132713 0.162849 0.119816
0.132754 0.162855 0.119821
0.225395 0.175606 0.129404
0.613795 0.261804 0.217981
0.787729 0.322629 0.269178
0.873455 0.328579 0.265170
0.203482 0.516306 0.271754
0.259023 0.526841 0.283392
0.266103 0.528323 0.283957
0.266105 0.528323 0.283957
0.266137 0.528329 0.283959
0.337656 0.542418 0.287834
0.723743 0.607176 0.282734
0.933246 0.630464 0.261961
0.997552 0.636519 0.251851
0.199124 0.754345 0.261984
0.262073 0.766026 0.261986
0.270586 0.767508 0.261907
0.270589 0.767508 0.261907
0.270625 0.767514 0.261906
0.353644 0.781224 0.259931
0.771788 0.839866 0.239907
0.980603 0.862618 0.253341
0.999995 0.872376 0.260342
0.092649 0.871190 0.224174
0.202143 0.882910 0.222267
0.214242 0.884393 0.221929
0.214246 0.884393 0.221929
0.214293 0.884399 0.221928
0.320071 0.897916 0.219066
0.786512 0.951722 0.252629
0.994581 0.975264 0.268555
0.999999 0.985658 0.276213
0.017409 0.025234 0.087995
0.098881 0.035140 0.095906
0.109067 0.036361 0.096833
0.109070 0.036361 0.096834
0.109111 0.036366 0.096837
0.201310 0.048858 0.104903
0.594422 0.151940 0.175671
0.759383 0.238354 0.235689
0.826205 0.266671 0.254747
0.033431 0.103095 0.105025
0.113891 0.113739 0.112281
0.123872 0.115122 0.113178
0.123875 0.115123 0.113178
0.123916 0.115128 0.113181
0.216360 0.127814 0.121582
0.606092 0.218775 0.202641
0.771646 0.292293 0.263481
0.854473 0.301320 0.264005
0.036336 0.117551 0.107932
0.116448 0.128342 0.115213
0.126456 0.129725 0.116115
0.126460 0.129725 0.116115
0.126500 0.129731 0.116119
0.219009 0.142459 0.124726
0.608234 0.231766 0.208041
0.774729 0.302459 0.268060
0.860003 0.308990 0.265479
0.036338 0.117558 0.107933
0.116449 0.128350 0.115215
0.126458 0.129732 0.116116
0.126461 0.129733 0.116116
0.126502 0.129738 0.116120
0.219011 0.142466 0.124728
0.608235 0.231773 0.208044
0.774731 0.302463 0.268062
0.860006 0.308994 0.265480
0.036339 0.117564 0.107934
0.116450 0.128356 0.115216
0.126459 0.129738 0.116117
0.126462 0.129739 0.116118
0.126503 0.129744 0.116121
0.219012 0.142472 0.124729
0.608236 0.231778 0.208046
0.774733 0.302467 0.268063
0.860008 0.308998 0.265480
0.042264 0.150628 0.114781
0.122361 0.161541 0.122386
0.132435 0.162916 0.123354
0.132439 0.162917 0.123354
0.132479 0.162922 0.123359
0.225073 0.175674 0.132916
0.613366 0.261866 0.221053
0.787265 0.322687 0.272133
0.872997 0.328647 0.268255
0.203144 0.516383 0.274668
0.258592 0.526929 0.286232
0.265664 0.528412 0.286794
0.265666 0.528412 0.286794
0.265698 0.528418 0.286796
0.337213 0.542506 0.290726
0.723351 0.607249 0.286027
0.932889 0.630534 0.265562
0.997479 0.636582 0.255553
0.198737 0.754427 0.265336
0.261688 0.766107 0.265403
0.270201 0.767588 0.265333
0.270204 0.767589 0.265333
0.270240 0.767595 0.265333
0.353274 0.781303 0.263457
0.771470 0.839934 0.243940
0.980331 0.862686 0.257396
0.999995 0.872432 0.264379
0.092161 0.871268 0.228054
0.201789 0.882987 0.226233
0.213895 0.884470 0.225908
0.213899 0.884470 0.225908
0.213946 0.884476 0.225907
0.319777 0.897988 0.223177
0.786201 0.951789 0.256772
0.994340 0.975331 0.272674
0.999998 0.985716 0.280311
0.021136 0.028070 0.368241
0.080186 0.038790 0.375860
0.089036 0.040129 0.376802
0.089039 0.040129 0.376802
0.089077 0.040135 0.376806
0.176616 0.052427 0.385174
0.561729 0.159606 0.428714
0.725136 0.242926 0.468174
0.791232 0.270812 0.484312
0.021746 0.108029 0.385185
0.093210 0.118740 0.392737
0.102418 0.120088 0.393674
0.102421 0.120088 0.393674
0.102460 0.120094 0.393678
0.191088 0.132872 0.401847
0.572790 0.226668 0.449742
0.737132 0.297753 0.490984
0.820670 0.305938 0.499381
0.023630 0.122728 0.388231
0.095564 0.133447 0.395778
0.104837 0.134797 0.396714
0.104840 0.134798 0.396714
0.104879 0.134803 0.396718
0.193580 0.147743 0.404707
0.574818 0.239666 0.453860
0.740978 0.307334 0.494824
0.826415 0.313673 0.502092
0.023631 0.122735 0.388232
0.095566 0.133455 0.395780
0.104838 0.134805 0.396716
0.104841 0.134805 0.396716
0.104880 0.134811 0.396719
0.193582 0.147751 0.404708
0.574819 0.239673 0.453862
0.740980 0.307339 0.494826
0.826418 0.313677 0.502093
0.023632 0.122741 0.388234
0.095567 0.133461 0.395781
0.104840 0.134811 0.396717
0.104843 0.134811 0.396717
0.104881 0.134817 0.396720
0.193583 0.147757 0.404709
0.574820 0.239678 0.453864
0.740982 0.307343 0.494827
0.826420 0.313681 0.502094
0.029144 0.156102 0.394957
0.101471 0.166870 0.402400
0.110823 0.168230 0.403326
0.110826 0.168231 0.403326
0.110864 0.168236 0.403330
0.199160 0.181516 0.411065
0.579739 0.269742 0.463732
0.753939 0.327671 0.501721
0.839894 0.333441 0.507984
0.188959 0.523286 0.504451
0.232676 0.534778 0.511746
0.239180 0.536251 0.512654
0.239182 0.536252 0.512654
0.239212 0.536258 0.512658
0.307814 0.550118 0.520893
0.693979 0.612974 0.547291
0.905306 0.635525 0.547696
0.988119 0.641344 0.545676
0.169306 0.761121 0.531865
0.231483 0.772669 0.536031
0.240010 0.774132 0.536515
0.240013 0.774132 0.536515
0.240049 0.774138 0.536517
0.323797 0.787639 0.540294
0.746320 0.844956 0.551877
0.956363 0.867752 0.566271
0.999977 0.876547 0.572236
0.035769 0.877592 0.524330
0.169047 0.889172 0.527270
0.182200 0.890627 0.527619
0.182204 0.890628 0.527619
0.182254 0.890634 0.527621
0.297885 0.903292 0.534052
0.761373 0.956837 0.568718
0.971455 0.980395 0.584050
0.999993 0.990058 0.590689
0.027996 0.029019 0.609860
0.063900 0.040253 0.617265
0.071824 0.041964 0.617973
0.071827 0.041965 0.617973
0.071861 0.041972 0.617976
0.154420 0.059756 0.622894
0.533702 0.176913 0.642738
0.696817 0.256581 0.665879
0.770842 0.273002 0.680147
0.034700 0.114021 0.622050
0.081847 0.125931 0.627585
0.089705 0.127473 0.628214
0.089707 0.127474 0.628214
0.089742 0.127480 0.628216
0.170976 0.142643 0.633159
0.545587 0.241195 0.658785
0.715638 0.303879 0.686108
0.800171 0.308326 0.701288
0.037460 0.129306 0.623690
0.085632 0.141072 0.629191
0.093443 0.142594 0.629822
0.093446 0.142594 0.629822
0.093480 0.142600 0.629825
0.174233 0.157526 0.634896
0.547794 0.253790 0.661853
0.720971 0.311963 0.690311
0.805870 0.316092 0.705254
0.037462 0.129314 0.623691
0.085634 0.141079 0.629192
0.093445 0.142601 0.629823
0.093448 0.142601 0.629823
0.093482 0.142608 0.629826
0.174235 0.157533 0.634897
0.547795 0.253796 0.661855
0.720973 0.311967 0.690313
0.805873 0.316096 0.705256
0.037464 0.129320 0.623691
0.085636 0.141086 0.629192
0.093447 0.142607 0.629824
0.093450 0.142608 0.629824
0.093484 0.142614 0.629826
0.174236 0.157540 0.634898
0.547796 0.253801 0.661856
0.720976 0.311971 0.690315
0.805875 0.316100 0.705258
0.046088 0.163323 0.627325
0.095218 0.174866 0.632876
0.102872 0.176356 0.633529
0.102874 0.176357 0.633529
0.102907 0.176363 0.633532
0.182257 0.190923 0.639004
0.553244 0.283042 0.669274
0.734205 0.331789 0.700099
0.819215 0.335912 0.714243
0.196890 0.531670 0.705643
0.230225 0.542893 0.714886
0.235588 0.544328 0.716069
0.235590 0.544329 0.716070
0.235616 0.544335 0.716074
0.296340 0.557808 0.727233
0.671815 0.617626 0.776428
0.883116 0.638521 0.792233
0.967831 0.643856 0.796270
0.140742 0.767095 0.767472
0.201653 0.778472 0.774343
0.210173 0.779910 0.775191
0.210176 0.779911 0.775191
0.210212 0.779917 0.775195
0.294620 0.793146 0.782675
0.722437 0.848662 0.812611
0.932815 0.871466 0.827525
0.999867 0.879768 0.833057
0.002120 0.882995 0.778615
0.129062 0.893756 0.785784
0.146106 0.895102 0.786694
0.146111 0.895102 0.786694
0.146169 0.895107 0.786698
0.271458 0.907388 0.795020
0.737743 0.960716 0.830289
0.948992 0.984273 0.845673
0.999969 0.993243 0.851653
0.045774 0.041964 0.705832
0.069901 0.054719 0.711853
0.076848 0.056411 0.712506
0.076850 0.056412 0.712506
0.076880 0.056419 0.712508
0.150574 0.073492 0.717384
0.522686 0.188167 0.732650
0.686117 0.265039 0.750397
0.765315 0.273084 0.767769
0.059792 0.122344 0.716087
0.090787 0.134067 0.721560
0.097100 0.135607 0.722181
0.097102 0.135607 0.722181
0.097132 0.135614 0.722183
0.169489 0.150952 0.726979
0.535348 0.250377 0.746788
0.710291 0.305544 0.773245
0.794181 0.308472 0.791465
0.063184 0.137029 0.717657
0.095071 0.148673 0.723072
0.101341 0.150199 0.723691
0.101343 0.150199 0.723691
0.101373 0.150205 0.723693
0.173258 0.165344 0.728545
0.537721 0.262661 0.749457
0.715799 0.313297 0.778031
0.799777 0.316251 0.795956
0.063186 0.137036 0.717658
0.095073 0.148681 0.723073
0.101343 0.150206 0.723692
0.101345 0.150206 0.723692
0.101375 0.150213 0.723694
0.173259 0.165351 0.728546
0.537722 0.262667 0.749458
0.715802 0.313301 0.778033
0.799780 0.316255 0.795958
0.063187 0.137042 0.717658
0.095075 0.148687 0.723074
0.101345 0.150212 0.723692
0.101347 0.150212 0.723692
0.101377 0.150219 0.723695
0.173261 0.165357 0.728546
0.537724 0.262673 0.749460
0.715804 0.313305 0.778036
0.799782 0.316259 0.795960
0.072458 0.170178 0.721010
0.105765 0.181683 0.726385
0.111930 0.183183 0.727011
0.111932 0.183183 0.727011
0.111960 0.183189 0.727014
0.182484 0.197988 0.732106
0.543665 0.291231 0.756062
0.728817 0.332968 0.789129
0.812865 0.336099 0.806234
0.205212 0.535728 0.796827
0.233686 0.546770 0.806803
0.238460 0.548182 0.808085
0.238462 0.548182 0.808085
0.238485 0.548188 0.808090
0.294766 0.561407 0.820373
0.662879 0.619359 0.878646
0.873630 0.639265 0.900464
0.958327 0.644252 0.906834
0.121733 0.769623 0.872886
0.183636 0.780907 0.880812
0.192336 0.782332 0.881802
0.192339 0.782332 0.881802
0.192377 0.782338 0.881806
0.278239 0.795417 0.890716
0.710785 0.850060 0.926161
0.921601 0.872862 0.941208
0.999251 0.881173 0.946749
0.000489 0.884702 0.891807
0.102536 0.895381 0.899206
0.122367 0.896723 0.900131
0.122373 0.896723 0.900131
0.122437 0.896729 0.900135
0.255201 0.908989 0.908520
0.726214 0.962239 0.943959
0.937979 0.985789 0.959389
0.999950 0.994455 0.965095
