luts/silbersalz-250d_v1-bridged_33.cube
TITLE "silbersalz-250d_v1-bridged_33"
# Generated by silbersalz-look on 2026-08-23
# Input:  Silbersalz flat-scan code values [0,1] (Display P3 tagged)
# Output: graded display code values (Display P3)
# track: v1-bridged
# base: silbersalz-gold200_v1-paired_33.cube
LUT_3D_SIZE 9
DOMAIN_MIN 0.0 0.0 0.0
DOMAIN_MAX 1.0 1.0 1.0
0.000000 0.016709 0.003909
0.000000 0.016709 0.003909
0.000721 0.016505 0.003932
0.056434 0.014190 0.005088
0.209231 0.013794 0.012217
0.458492 0.016883 0.024011
0.741228 0.017448 0.027143
0.948655 0.014728 0.020036
1.000000 0.013421 0.016482
0.000357 0.032147 0.003364
0.000357 0.032147 0.003364
0.003034 0.031845 0.003374
0.059065 0.028205 0.004344
0.212032 0.025931 0.011394
0.461558 0.027753 0.024131
0.744456 0.027814 0.028365
0.950685 0.025094 0.021617
1.000000 0.023812 0.018062
0.009837 0.085121 0.002063
0.009837 0.085121 0.002063
0.013068 0.084519 0.002031
0.069222 0.076679 0.002331
0.222126 0.067984 0.008883
0.471745 0.065195 0.024242
0.754571 0.063524 0.031882
0.956723 0.060865 0.026312
1.000000 0.059687 0.022769
0.033310 0.191044 0.000932
0.033310 0.191044 0.000932
0.036553 0.189999 0.000791
0.092482 0.175337 0.000020
0.243865 0.154375 0.004622
0.491861 0.141947 0.023391
0.772328 0.136817 0.036559
0.966055 0.134310 0.033196
1.000000 0.133351 0.029752
0.073592 0.355782 0.001624
0.073592 0.355782 0.001624
0.076921 0.354349 0.001371
0.133371 0.333052 0.000000
0.283022 0.296933 0.001086
0.526554 0.270605 0.020854
0.798335 0.260042 0.039503
0.976865 0.257192 0.039143
1.000000 0.256426 0.036039
0.128866 0.560450 0.005288
0.128866 0.560450 0.005288
0.132476 0.558901 0.005026
0.192659 0.535069 0.001750
0.345446 0.489990 0.002117
0.582161 0.451920 0.018534
0.834164 0.434666 0.038383
0.988052 0.429900 0.040486
1.000000 0.428947 0.038017
0.193461 0.764789 0.010614
0.193461 0.764789 0.010614
0.197568 0.763484 0.010409
0.265076 0.743035 0.007745
0.428050 0.701825 0.006982
0.658419 0.662637 0.017834
0.879531 0.641255 0.033154
0.997260 0.633617 0.035700
1.000000 0.632067 0.033961
0.256384 0.922572 0.015190
0.256384 0.922572 0.015190
0.261057 0.921761 0.015053
0.337086 0.908886 0.013227
0.513192 0.881794 0.012118
0.739156 0.853480 0.017576
0.926573 0.835170 0.025977
1.000000 0.826895 0.027128
1.000000 0.825036 0.025904
0.302560 1.000000 0.017774
0.302560 1.000000 0.017774
0.307663 1.000000 0.017689
0.390178 0.997635 0.016502
0.576455 0.990547 0.015320
0.799714 0.977195 0.017098
0.961564 0.967055 0.020080
1.000000 0.961393 0.019505
1.000000 0.959963 0.018489
0.000000 0.014663 0.012513
0.000000 0.014663 0.012513
0.000000 0.014469 0.012515
0.052319 0.012485 0.013521
0.203880 0.013113 0.021278
0.452402 0.016967 0.034013
0.735496 0.017500 0.037066
0.944223 0.014677 0.029556
0.999466 0.013349 0.025866
0.000000 0.029370 0.011710
0.000000 0.029370 0.011710
0.000404 0.029056 0.011694
0.054329 0.025570 0.012473
0.206081 0.024446 0.020106
0.455022 0.027307 0.034005
0.738721 0.027504 0.038270
0.946480 0.024816 0.031122
1.000000 0.023547 0.027422
0.005298 0.080365 0.009860
0.005298 0.080365 0.009860
0.008357 0.079675 0.009807
0.063051 0.071332 0.010082
0.214542 0.063994 0.016770
0.463648 0.062914 0.033735
0.748707 0.061948 0.041772
0.953164 0.059815 0.035785
1.000000 0.058770 0.032056
0.028197 0.184179 0.008131
0.028197 0.184179 0.008131
0.031276 0.182981 0.007965
0.085255 0.166721 0.006070
0.233755 0.146341 0.010725
0.480786 0.136111 0.031997
0.765871 0.132746 0.046453
0.963358 0.131772 0.042631
1.000000 0.131188 0.038890
0.068161 0.347941 0.008105
0.068161 0.347941 0.008105
0.071329 0.346352 0.007787
0.125078 0.322857 0.003558
0.269091 0.284809 0.004864
0.511244 0.260074 0.027320
0.790611 0.252668 0.049048
0.974819 0.252630 0.048375
1.000000 0.252558 0.044826
0.122697 0.552960 0.011257
0.122697 0.552960 0.011257
0.126150 0.551283 0.010934
0.183595 0.525464 0.006636
0.329785 0.477198 0.005312
0.564107 0.439034 0.023124
0.825103 0.425102 0.046789
0.986229 0.423730 0.048956
1.000000 0.423669 0.046007
0.186310 0.758897 0.016341
0.186310 0.758897 0.016341
0.190285 0.757508 0.016090
0.255541 0.735748 0.012685
0.413295 0.692197 0.010617
0.641540 0.652215 0.021943
0.870323 0.632641 0.039851
0.996267 0.627501 0.042685
1.000000 0.626692 0.040602
0.248360 0.919022 0.020873
0.248360 0.919022 0.020873
0.252936 0.918166 0.020706
0.327384 0.904612 0.018385
0.500255 0.876311 0.016355
0.725381 0.847374 0.021660
0.918663 0.829609 0.031064
1.000000 0.822445 0.032402
1.000000 0.820971 0.031019
0.293984 0.999574 0.023496
0.293984 0.999574 0.023496
0.299019 0.999412 0.023391
0.380471 0.996812 0.021886
0.564934 0.988172 0.020029
0.788491 0.974381 0.021271
0.955170 0.964231 0.024210
1.000000 0.958849 0.023588
1.000000 0.957534 0.022515
0.000000 0.010743 0.045837
0.000000 0.010743 0.045837
0.000000 0.010623 0.045770
0.041673 0.010077 0.046257
0.189100 0.013737 0.055890
0.434282 0.018933 0.070654
0.716989 0.018448 0.072881
0.928825 0.014838 0.064194
0.986698 0.013327 0.060160
0.000000 0.023448 0.044033
0.000000 0.023448 0.044033
0.000000 0.023132 0.043899
0.041726 0.020679 0.043635
0.189509 0.022993 0.053314
0.435870 0.027924 0.070122
0.720500 0.027440 0.073861
0.931951 0.024307 0.065597
0.989173 0.022942 0.061550
0.000000 0.068664 0.039970
0.000000 0.068664 0.039970
0.000131 0.067667 0.039749
0.044706 0.057878 0.039926
0.192619 0.055468 0.047040
0.440132 0.058484 0.068353
0.730939 0.058226 0.076891
0.941165 0.056995 0.069827
0.996173 0.056166 0.065672
0.014876 0.165785 0.036178
0.014876 0.165785 0.036178
0.017446 0.164096 0.035970
0.065635 0.142350 0.033579
0.205749 0.125562 0.035396
0.447855 0.120974 0.064008
0.747409 0.121330 0.081374
0.954914 0.124351 0.076122
1.000000 0.124646 0.071601
0.053229 0.325695 0.033776
0.053229 0.325695 0.033776
0.055972 0.323655 0.033299
0.101805 0.293324 0.025513
0.226020 0.247918 0.020315
0.463395 0.228651 0.050954
0.768937 0.230298 0.083241
0.969286 0.238576 0.080956
1.000000 0.240388 0.075997
0.104658 0.530721 0.035131
0.104658 0.530721 0.035131
0.107684 0.528669 0.034629
0.157253 0.496765 0.027237
0.281161 0.437217 0.019218
0.505123 0.398063 0.039558
0.798721 0.394680 0.077438
0.981760 0.404060 0.079006
1.000000 0.406647 0.074355
0.164389 0.740875 0.039317
0.164389 0.740875 0.039317
0.167979 0.739238 0.038910
0.226510 0.713544 0.032978
0.367191 0.662770 0.025950
0.586686 0.620093 0.037592
0.842187 0.605464 0.064499
0.993073 0.607960 0.067865
1.000000 0.609386 0.064520
0.223023 0.907973 0.043709
0.223023 0.907973 0.043709
0.227301 0.906988 0.043432
0.296863 0.891455 0.039360
0.459292 0.859763 0.033809
0.681009 0.829213 0.037765
0.893935 0.812746 0.050205
0.999570 0.808612 0.052028
1.000000 0.808220 0.050124
0.266480 0.997464 0.046491
0.266480 0.997464 0.046491
0.271297 0.997274 0.046318
0.349380 0.994158 0.043705
0.527991 0.980993 0.039345
0.752373 0.966112 0.038199
0.934855 0.955930 0.040459
1.000000 0.951210 0.039591
1.000000 0.950161 0.038397
0.000000 0.012233 0.123019
0.000000 0.012233 0.123019
0.000000 0.012342 0.122931
0.032716 0.015139 0.123555
0.172676 0.022921 0.134886
0.408150 0.026916 0.148412
0.684902 0.022299 0.147557
0.898612 0.016092 0.137482
0.958425 0.013935 0.133222
0.000000 0.023285 0.119517
0.000000 0.023285 0.119517
0.000000 0.023232 0.119317
0.031832 0.024876 0.118629
0.173066 0.031941 0.130950
0.410556 0.035307 0.146557
0.689993 0.030315 0.147386
0.903627 0.024740 0.138164
0.962806 0.022763 0.134004
0.000000 0.062752 0.110781
0.000000 0.062752 0.110781
0.000000 0.061997 0.110392
0.032124 0.058232 0.108667
0.173734 0.061485 0.120534
0.414908 0.062634 0.140344
0.704751 0.057231 0.147085
0.918557 0.054500 0.140235
0.975600 0.053213 0.136212
0.003711 0.149731 0.101351
0.003711 0.149731 0.101351
0.005836 0.147866 0.100972
0.050719 0.123075 0.100826
0.174430 0.113082 0.102857
0.412775 0.114351 0.129504
0.725692 0.110602 0.148058
0.941079 0.115538 0.143394
0.993791 0.115827 0.138866
0.036421 0.300293 0.094731
0.036421 0.300293 0.094731
0.038877 0.297909 0.094075
0.079320 0.263111 0.085467
0.172532 0.207315 0.067597
0.405115 0.198823 0.101683
0.747044 0.202475 0.149546
0.963678 0.219073 0.145040
1.000000 0.222141 0.138841
0.080824 0.501268 0.093194
0.080824 0.501268 0.093194
0.083475 0.498802 0.092421
0.125658 0.459957 0.080708
0.217231 0.383796 0.060497
0.412463 0.340699 0.072661
0.770249 0.349401 0.140261
0.979471 0.373462 0.138551
1.000000 0.379302 0.131414
0.132179 0.715045 0.095866
0.132179 0.715045 0.095866
0.135318 0.713099 0.095174
0.185627 0.682594 0.084489
0.300915 0.623843 0.066758
0.498511 0.578631 0.073119
0.804654 0.565837 0.116479
0.991103 0.577487 0.119526
1.000000 0.581876 0.114115
0.183299 0.891452 0.100121
0.183299 0.891452 0.100121
0.187162 0.890307 0.099645
0.249798 0.872446 0.092223
0.396186 0.837637 0.078773
0.609985 0.807060 0.076376
0.857801 0.790955 0.092378
0.997980 0.789041 0.094966
1.000000 0.789691 0.092658
0.221884 0.994202 0.103263
0.221884 0.994202 0.103263
0.226364 0.993855 0.102975
0.299214 0.986679 0.098390
0.468555 0.971264 0.088897
0.694062 0.956112 0.081087
0.903512 0.946257 0.079606
1.000000 0.941786 0.078179
1.000000 0.940697 0.077353
0.000000 0.021384 0.260180
0.000000 0.021384 0.260180
0.000000 0.021711 0.260130
0.028605 0.027405 0.261229
0.155613 0.038096 0.271086
0.373094 0.039016 0.278678
0.637163 0.028749 0.272993
0.849866 0.018459 0.261991
0.911027 0.015150 0.257874
0.000000 0.032081 0.254872
0.000000 0.032081 0.254872
0.000000 0.032323 0.254694
0.028593 0.037522 0.254532
0.159233 0.048906 0.266008
0.379270 0.048337 0.274517
0.645452 0.036763 0.270343
0.857758 0.026712 0.261146
0.918107 0.023445 0.257454
0.000000 0.069245 0.240020
0.000000 0.069245 0.240020
0.000000 0.069020 0.239379
0.029654 0.069863 0.233177
0.171217 0.083786 0.249977
0.396456 0.078560 0.259403
0.670278 0.063350 0.261008
0.881734 0.054986 0.258141
0.939204 0.051922 0.255731
0.000000 0.148331 0.221533
0.000000 0.148331 0.221533
0.000389 0.146965 0.220252
0.037509 0.128931 0.199806
0.170288 0.130541 0.205771
0.411393 0.132158 0.224156
0.706967 0.114498 0.242761
0.919487 0.112261 0.252086
0.970510 0.109817 0.251256
0.022744 0.286460 0.209557
0.022744 0.286460 0.209557
0.025103 0.284204 0.208296
0.066341 0.251833 0.191081
0.165982 0.222218 0.180496
0.386592 0.200535 0.179130
0.739832 0.197885 0.227201
0.958630 0.206212 0.243100
0.997838 0.206567 0.241805
0.058413 0.478093 0.205177
0.058413 0.478093 0.205177
0.061019 0.475466 0.203962
0.103401 0.434016 0.184824
0.190368 0.364329 0.149755
0.374272 0.333545 0.142251
0.767618 0.326955 0.217792
0.980525 0.342351 0.229631
1.000000 0.351878 0.224699
0.098563 0.691408 0.206371
0.098563 0.691408 0.206371
0.101472 0.689284 0.205317
0.147837 0.656245 0.188124
0.247970 0.598377 0.151722
0.418149 0.567646 0.137124
0.787992 0.539994 0.196607
0.995410 0.547991 0.202218
1.000000 0.555582 0.198467
0.138615 0.875177 0.210491
0.138615 0.875177 0.210491
0.142128 0.873949 0.209796
0.199007 0.855081 0.198401
0.331469 0.821245 0.172683
0.535215 0.797821 0.151073
0.827978 0.781757 0.163371
0.999913 0.776743 0.170166
1.000000 0.776784 0.171586
0.169571 0.987515 0.213917
0.169571 0.987515 0.213917
0.173694 0.986994 0.213527
0.241049 0.978970 0.207039
0.400864 0.963988 0.191080
0.628400 0.951874 0.170314
0.871923 0.944841 0.156824
1.000000 0.939975 0.155248
1.000000 0.937524 0.157496
0.000000 0.030572 0.456277
0.000000 0.030572 0.456277
0.000000 0.030907 0.456197
0.020573 0.036339 0.456206
0.124139 0.045682 0.461151
0.317275 0.045151 0.463449
0.567442 0.032651 0.454191
0.778935 0.019410 0.442107
0.841417 0.015054 0.438052
0.000000 0.041666 0.450452
0.000000 0.041666 0.450452
0.000000 0.041942 0.450262
0.019905 0.046891 0.449065
0.126521 0.056486 0.454580
0.324672 0.055164 0.458406
0.578504 0.041523 0.450294
0.789738 0.027934 0.440013
0.851315 0.023376 0.436536
0.000000 0.079435 0.433604
0.000000 0.079435 0.433604
0.000000 0.079412 0.433008
0.017544 0.081218 0.426692
0.131600 0.090913 0.432696
0.345654 0.087811 0.441410
0.612769 0.071300 0.436333
0.823121 0.057253 0.432563
0.881303 0.052007 0.431120
0.000000 0.156434 0.410947
0.000000 0.156434 0.410947
0.000000 0.155614 0.409736
0.016418 0.145849 0.393278
0.129820 0.148742 0.391850
0.369966 0.147840 0.410449
0.668971 0.129321 0.405839
0.877726 0.116854 0.416594
0.927622 0.110210 0.419435
0.008045 0.286285 0.393621
0.008045 0.286285 0.393621
0.009784 0.284445 0.392233
0.040639 0.257279 0.372669
0.126850 0.219945 0.351406
0.373110 0.235912 0.372316
0.727396 0.219977 0.358325
0.938413 0.213271 0.390000
0.973031 0.206428 0.399303
0.036052 0.468386 0.385166
0.036052 0.468386 0.385166
0.038452 0.465935 0.383799
0.079996 0.426711 0.362013
0.180955 0.361905 0.323232
0.360433 0.355665 0.302900
0.756707 0.334628 0.313731
0.970444 0.341202 0.359813
0.997549 0.348993 0.371123
0.066669 0.677725 0.384011
0.066669 0.677725 0.384011
0.069455 0.675680 0.382871
0.115257 0.643728 0.363769
0.219471 0.590332 0.316632
0.387201 0.575583 0.251511
0.797416 0.550568 0.263699
0.996598 0.547466 0.324573
1.000000 0.555680 0.337600
0.096025 0.864309 0.386804
0.096025 0.864309 0.386804
0.099294 0.863154 0.386109
0.152729 0.845674 0.374380
0.279563 0.817297 0.343761
0.481422 0.805369 0.293610
0.816812 0.798426 0.260811
1.000000 0.790566 0.289022
1.000000 0.786147 0.310507
0.118806 0.982159 0.389347
0.118806 0.982159 0.389347
0.122614 0.981679 0.389010
0.185334 0.974488 0.383179
0.338259 0.962676 0.366476
0.569867 0.957200 0.334717
0.847480 0.959139 0.297526
1.000000 0.956066 0.295655
1.000000 0.949186 0.306964
0.000000 0.032579 0.681100
0.000000 0.032579 0.681100
0.000000 0.032772 0.680984
0.008090 0.035822 0.679823
0.081364 0.040854 0.680315
0.243571 0.039536 0.679541
0.478480 0.028564 0.669780
0.690025 0.015422 0.656913
0.754409 0.010867 0.652600
0.000000 0.044365 0.676426
0.000000 0.044365 0.676426
0.000000 0.044512 0.676253
0.006808 0.047000 0.674426
0.082020 0.051572 0.675151
0.249900 0.049894 0.676221
0.490111 0.038255 0.667574
0.702511 0.024429 0.655298
0.766304 0.019527 0.651184
0.000000 0.084164 0.662706
0.000000 0.084164 0.662706
0.000000 0.084115 0.662336
0.002856 0.084125 0.657986
0.082187 0.086647 0.658654
0.268008 0.084541 0.666045
0.526354 0.071433 0.660668
0.741369 0.055794 0.649769
0.802813 0.049727 0.646248
0.000000 0.163309 0.643062
0.000000 0.163309 0.643062
0.000000 0.162769 0.642379
0.000832 0.155840 0.633200
0.076684 0.151250 0.629986
0.291760 0.151624 0.649779
0.587208 0.138508 0.649973
0.806202 0.121045 0.638578
0.861371 0.112646 0.635894
0.000000 0.292158 0.625326
0.000000 0.292158 0.625326
0.000000 0.290835 0.624446
0.010058 0.271078 0.611835
0.068238 0.244936 0.598531
0.302714 0.251449 0.625696
0.661302 0.247237 0.642096
0.884191 0.231061 0.619844
0.925393 0.219637 0.618036
0.012236 0.470046 0.614473
0.012236 0.470046 0.614473
0.013875 0.468164 0.613589
0.042633 0.438043 0.600129
0.122481 0.383332 0.579750
0.282233 0.364421 0.581105
0.719702 0.388862 0.635842
0.948247 0.383888 0.589506
0.971145 0.377458 0.592583
0.035515 0.675047 0.610521
0.035515 0.675047 0.610521
0.037863 0.673437 0.609856
0.077561 0.648450 0.599532
0.179631 0.608880 0.583773
0.367312 0.617205 0.573269
0.770540 0.593704 0.567669
0.975414 0.588503 0.554483
0.995552 0.591061 0.564068
0.057815 0.860137 0.610168
0.057815 0.860137 0.610168
0.060780 0.859233 0.609850
0.110129 0.845805 0.604821
0.233977 0.826558 0.594359
0.438776 0.825517 0.576060
0.787065 0.839252 0.503102
1.000000 0.832060 0.511040
1.000000 0.820105 0.545640
0.074763 0.979270 0.610068
0.074763 0.979270 0.610068
0.078272 0.978902 0.610005
0.136758 0.973573 0.608866
0.284600 0.966402 0.604574
0.519705 0.968055 0.589355
0.821520 0.983745 0.550185
1.000000 0.985289 0.537408
1.000000 0.971464 0.552973
0.000000 0.027625 0.878474
0.000000 0.027625 0.878474
0.000000 0.027658 0.878356
0.000233 0.028156 0.876809
0.043257 0.028656 0.875159
0.174070 0.026023 0.873129
0.392090 0.017627 0.865225
0.603304 0.006807 0.853586
0.669617 0.002872 0.849394
0.000000 0.039985 0.875492
0.000000 0.039985 0.875492
0.000000 0.039975 0.875354
0.000088 0.039867 0.873614
0.043708 0.039457 0.872333
0.179284 0.036288 0.871901
0.402812 0.027487 0.865185
0.616071 0.015988 0.853408
0.682338 0.011718 0.849033
0.000000 0.081702 0.866620
0.000000 0.081702 0.866620
0.000000 0.081541 0.866423
0.000000 0.079263 0.864042
0.044361 0.075683 0.863816
0.194394 0.071155 0.868760
0.436009 0.061756 0.866058
0.655827 0.048410 0.853148
0.721711 0.043089 0.847937
0.000000 0.164189 0.853365
0.000000 0.164189 0.853365
0.000000 0.163717 0.853085
0.000000 0.156840 0.849754
0.043645 0.146403 0.851066
0.215325 0.140525 0.866335
0.490930 0.132946 0.872165
0.722400 0.117471 0.853976
0.786542 0.110390 0.846176
0.000000 0.296418 0.840174
0.000000 0.296418 0.840174
0.000000 0.295505 0.839864
0.000000 0.281783 0.836348
0.045114 0.259504 0.840343
0.231631 0.251774 0.870166
0.557421 0.253990 0.893845
0.804547 0.237547 0.858238
0.863381 0.228764 0.844039
0.000000 0.475218 0.830745
0.000000 0.475218 0.830745
0.000000 0.474014 0.830519
0.012051 0.455522 0.828420
0.070529 0.423653 0.838070
0.244763 0.409419 0.881195
0.621552 0.430861 0.939667
0.883155 0.413021 0.867510
0.931559 0.405225 0.842028
0.009588 0.677706 0.825432
0.009588 0.677706 0.825432
0.011373 0.676658 0.825387
0.042192 0.660830 0.825973
0.129061 0.635709 0.839541
0.308712 0.629054 0.885050
0.695710 0.661847 0.955700
0.943846 0.639174 0.879918
0.979001 0.632025 0.841123
0.027300 0.859727 0.821972
0.027300 0.859727 0.821972
0.029904 0.859114 0.822115
0.074115 0.850176 0.825175
0.192571 0.838244 0.838493
0.400549 0.843008 0.874363
0.734840 0.873071 0.920760
0.995532 0.884098 0.875629
1.000000 0.856623 0.843079
0.041075 0.977830 0.818986
0.041075 0.977830 0.818986
0.044297 0.977576 0.819239
0.098758 0.974032 0.823609
0.242180 0.970515 0.835242
0.481085 0.977794 0.851778
0.797550 0.997651 0.864934
0.996907 0.998780 0.868877
1.000000 0.984029 0.847370
0.000000 0.022396 0.988444
0.000000 0.022396 0.988444
0.000000 0.022335 0.988342
0.000000 0.021380 0.986899
0.022410 0.019220 0.984795
0.134065 0.015470 0.982584
0.340594 0.008592 0.976443
0.550879 0.000189 0.966705
0.618247 0.000000 0.962982
0.000000 0.035046 0.986622
0.000000 0.035046 0.986622
0.000000 0.034946 0.986517
0.000000 0.033388 0.985073
0.023130 0.030150 0.983404
0.138892 0.025629 0.982458
0.350565 0.018338 0.977355
0.563445 0.008882 0.967403
0.631111 0.005283 0.963417
0.000000 0.077807 0.981112
0.000000 0.077807 0.981112
0.000000 0.077577 0.980999
0.000000 0.074058 0.979614
0.025238 0.067367 0.979444
0.153431 0.060656 0.982776
0.381489 0.052598 0.981145
0.602610 0.041497 0.970152
0.671106 0.037017 0.965131
0.000000 0.162397 0.972565
0.000000 0.162397 0.972565
0.000000 0.161939 0.972457
0.000000 0.154943 0.971471
0.029099 0.142223 0.974409
0.176549 0.132645 0.986043
0.433186 0.125281 0.991245
0.668515 0.112330 0.977000
0.737909 0.106471 0.969378
0.000000 0.297365 0.963494
0.000000 0.297365 0.963494
0.000000 0.296638 0.963446
0.000000 0.285545 0.963712
0.038651 0.265758 0.971823
0.206024 0.254503 0.994801
0.499179 0.252337 0.999961
0.751773 0.238752 0.990617
0.820561 0.231392 0.977698
0.000000 0.477830 0.956224
0.000000 0.477830 0.956224
0.000000 0.476959 0.956305
0.001993 0.463698 0.958802
0.064411 0.440670 0.973302
0.247594 0.431876 0.999420
0.574137 0.440684 1.000000
0.838699 0.428310 0.999511
0.902299 0.419493 0.990104
0.000000 0.679590 0.950878
0.000000 0.679590 0.950878
0.000132 0.678837 0.951118
0.025242 0.667562 0.956066
0.113103 0.649784 0.975192
0.313878 0.650620 0.999971
0.658800 0.674725 1.000000
0.919070 0.667868 1.000000
0.968312 0.654705 0.997220
0.010826 0.859823 0.946020
0.010826 0.859823 0.946020
0.013225 0.859365 0.946380
0.054702 0.852752 0.952894
0.172269 0.844516 0.972703
0.396093 0.854548 0.998906
0.738010 0.891410 1.000000
0.978964 0.900899 1.000000
1.000000 0.871535 0.999350
0.023028 0.977026 0.941596
0.023028 0.977026 0.941596
0.026076 0.976831 0.942005
0.078141 0.974163 0.948964
0.219646 0.972334 0.966921
0.465791 0.982580 0.991517
0.790992 0.999318 0.999834
0.989106 0.997060 1.000000
1.000000 0.979411 0.998798
