luts/silbersalz-250d_v2-paired_33.cube
TITLE "silbersalz-250d_v2-paired_33"
# Generated by saltgate on 2026-08-25
# Input:  Silbersalz flat-scan code values [0,1] (Display P3 tagged)
# Output: graded display code values (Display P3)
# pairs: 22
LUT_3D_SIZE 33
DOMAIN_MIN 0.0 0.0 0.0
DOMAIN_MAX 1.0 1.0 1.0
0.012446 0.019573 0.014428
0.017239 0.020077 0.013934
0.021783 0.020586 0.014444
0.018424 0.013516 0.014701
0.018487 0.008975 0.016355
0.024247 0.008555 0.016027
0.034037 0.008544 0.015461
0.048003 0.008892 0.015037
0.065778 0.009287 0.014830
0.087250 0.009561 0.014837
0.112637 0.009683 0.015033
0.142427 0.009680 0.015390
0.177226 0.009586 0.015889
0.217587 0.009426 0.016523
0.263880 0.009216 0.017295
0.316170 0.008966 0.018216
0.374165 0.008686 0.019301
0.437139 0.008386 0.020572
0.503928 0.008076 0.022049
0.572949 0.007765 0.023749
0.642240 0.007464 0.025684
0.709618 0.007179 0.027857
0.773004 0.006917 0.030262
0.830521 0.006679 0.032884
0.880715 0.006467 0.035693
0.922816 0.006281 0.038641
0.956828 0.006120 0.041654
0.983317 0.005981 0.044634
1.000000 0.005865 0.047458
1.000000 0.005770 0.049986
1.000000 0.005698 0.052072
1.000000 0.005649 0.053573
1.000000 0.005624 0.054363
0.011879 0.021519 0.013971
0.013419 0.018747 0.013383
0.021226 0.022675 0.014079
0.022071 0.017557 0.013749
0.020963 0.011267 0.015507
0.025026 0.011199 0.015172
0.034681 0.011028 0.015036
0.048350 0.011125 0.014838
0.065710 0.011264 0.014707
0.086705 0.011312 0.014706
0.111594 0.011248 0.014845
0.140896 0.011097 0.015119
0.175229 0.010881 0.015520
0.215164 0.010614 0.016048
0.261066 0.010305 0.016710
0.313010 0.009962 0.017519
0.370706 0.009593 0.018493
0.433433 0.009207 0.019654
0.500051 0.008817 0.021019
0.569000 0.008433 0.022607
0.638322 0.008064 0.024427
0.705855 0.007718 0.026482
0.769512 0.007401 0.028769
0.827397 0.007115 0.031273
0.878046 0.006861 0.033963
0.920624 0.006637 0.036790
0.955095 0.006444 0.039685
0.981995 0.006277 0.042551
1.000000 0.006137 0.045270
1.000000 0.006023 0.047706
1.000000 0.005936 0.049718
1.000000 0.005877 0.051163
1.000000 0.005847 0.051923
0.016378 0.026599 0.015184
0.014814 0.021519 0.013070
0.020426 0.024552 0.014142
0.025424 0.024444 0.013775
0.027710 0.021881 0.013776
0.030025 0.018119 0.014422
0.037384 0.016280 0.014696
0.049558 0.015548 0.014697
0.065797 0.015117 0.014618
0.085761 0.014721 0.014555
0.109640 0.014312 0.014562
0.137980 0.013888 0.014666
0.171416 0.013443 0.014877
0.210530 0.012972 0.015203
0.255684 0.012472 0.015658
0.306957 0.011945 0.016256
0.364071 0.011399 0.017019
0.426323 0.010845 0.017969
0.492613 0.010297 0.019124
0.561411 0.009766 0.020499
0.630791 0.009263 0.022102
0.698616 0.008797 0.023937
0.762783 0.008372 0.026000
0.821364 0.007991 0.028276
0.872857 0.007654 0.030737
0.916345 0.007358 0.033338
0.951700 0.007100 0.036011
0.979398 0.006879 0.038666
1.000000 0.006693 0.041190
1.000000 0.006542 0.043455
1.000000 0.006426 0.045324
1.000000 0.006347 0.046667
1.000000 0.006307 0.047371
0.019416 0.031651 0.013938
0.019764 0.029536 0.014046
0.021721 0.028207 0.015335
0.024556 0.025938 0.014615
0.029915 0.026414 0.013620
0.035140 0.025210 0.014306
0.040876 0.022833 0.014643
0.051287 0.021495 0.014807
0.066032 0.020466 0.014707
0.084537 0.019555 0.014494
0.106965 0.018729 0.014291
0.133922 0.017960 0.014158
0.166085 0.017213 0.014114
0.204038 0.016459 0.014168
0.248130 0.015683 0.014337
0.298449 0.014889 0.014644
0.354727 0.014085 0.015116
0.416299 0.013284 0.015775
0.482111 0.012504 0.016641
0.550670 0.011759 0.017721
0.620107 0.011061 0.019025
0.688330 0.010418 0.020555
0.753191 0.009837 0.022307
0.812731 0.009318 0.024267
0.865397 0.008859 0.026411
0.910162 0.008457 0.028698
0.946768 0.008107 0.031064
0.975609 0.007806 0.033427
0.997488 0.007553 0.035682
1.000000 0.007346 0.037711
1.000000 0.007188 0.039388
1.000000 0.007080 0.040594
1.000000 0.007026 0.041226
0.020879 0.035439 0.014322
0.021735 0.034259 0.014151
0.023516 0.032690 0.014281
0.026140 0.031700 0.013596
0.031483 0.031338 0.014409
0.037376 0.030320 0.015474
0.043143 0.028687 0.015187
0.052684 0.027940 0.015307
0.066234 0.026752 0.014989
0.083131 0.025479 0.014508
0.103803 0.024287 0.014050
0.129052 0.023168 0.013671
0.159640 0.022078 0.013362
0.196146 0.020984 0.013122
0.238916 0.019869 0.012970
0.288032 0.018737 0.012942
0.343249 0.017602 0.013071
0.403955 0.016485 0.013385
0.469138 0.015408 0.013901
0.537368 0.014390 0.014629
0.606847 0.013442 0.015573
0.675504 0.012575 0.016735
0.741169 0.011795 0.018109
0.801868 0.011100 0.019686
0.855956 0.010487 0.021445
0.902292 0.009951 0.023351
0.940459 0.009484 0.025348
0.970739 0.009082 0.027358
0.993863 0.008742 0.029291
1.000000 0.008465 0.031037
1.000000 0.008253 0.032485
1.000000 0.008108 0.033526
1.000000 0.008035 0.034072
0.021107 0.038782 0.014103
0.022093 0.038183 0.013957
0.024160 0.037391 0.014006
0.027493 0.036941 0.014223
0.032091 0.036489 0.015228
0.037115 0.035485 0.015444
0.043812 0.034836 0.015032
0.053421 0.034723 0.015178
0.066442 0.033657 0.014936
0.081734 0.032212 0.014290
0.100478 0.030769 0.013698
0.123802 0.029339 0.013190
0.152591 0.027896 0.012697
0.187422 0.026424 0.012203
0.228638 0.024919 0.011744
0.276326 0.023393 0.011376
0.330277 0.021869 0.011150
0.389933 0.020380 0.011099
0.454334 0.018953 0.011242
0.522129 0.017614 0.011586
0.591592 0.016376 0.012133
0.660676 0.015249 0.012882
0.727211 0.014238 0.013833
0.789185 0.013340 0.014980
0.844859 0.012548 0.016308
0.892981 0.011855 0.017788
0.932949 0.011252 0.019370
0.964910 0.010731 0.020988
0.989503 0.010290 0.022561
1.000000 0.009930 0.023994
1.000000 0.009654 0.025188
1.000000 0.009466 0.026049
1.000000 0.009370 0.026502
0.020629 0.042370 0.013238
0.021683 0.042143 0.013227
0.023857 0.041888 0.013414
0.027208 0.041812 0.013887
0.031551 0.041716 0.014602
0.036796 0.041391 0.014805
0.044005 0.041341 0.014541
0.053771 0.041471 0.014263
0.066295 0.040651 0.014016
0.080418 0.039382 0.013505
0.097350 0.037886 0.013061
0.118681 0.036222 0.012651
0.145524 0.034445 0.012127
0.178492 0.032593 0.011479
0.217946 0.030681 0.010778
0.263995 0.028735 0.010114
0.316476 0.026793 0.009563
0.374890 0.024900 0.009168
0.438344 0.023092 0.008948
0.505575 0.021400 0.008908
0.574924 0.019842 0.009047
0.644383 0.018428 0.009368
0.711794 0.017161 0.009875
0.775093 0.016036 0.010566
0.832445 0.015045 0.011433
0.882480 0.014178 0.012456
0.924423 0.013422 0.013595
0.958254 0.012771 0.014795
0.984496 0.012221 0.015989
1.000000 0.011771 0.017090
1.000000 0.011426 0.018016
1.000000 0.011190 0.018689
1.000000 0.011070 0.019044
0.019612 0.046403 0.011966
0.020679 0.046381 0.012056
0.022846 0.046428 0.012335
0.026138 0.046622 0.012834
0.030523 0.046880 0.013406
0.036198 0.047120 0.013676
0.043864 0.047480 0.013552
0.053902 0.047783 0.013164
0.066047 0.047465 0.012751
0.079373 0.046615 0.012381
0.094733 0.045215 0.012218
0.114139 0.043418 0.012060
0.138967 0.041389 0.011635
0.169926 0.039218 0.010945
0.207441 0.036943 0.010104
0.251663 0.034606 0.009235
0.302485 0.032262 0.008436
0.359468 0.029971 0.007758
0.421803 0.027782 0.007222
0.488312 0.025732 0.006829
0.557404 0.023844 0.006581
0.627134 0.022129 0.006483
0.695371 0.020591 0.006546
0.759973 0.019225 0.006777
0.819026 0.018020 0.007176
0.871043 0.016963 0.007733
0.915071 0.016043 0.008419
0.950901 0.015249 0.009190
0.978928 0.014577 0.009990
0.999892 0.014028 0.010751
1.000000 0.013606 0.011403
1.000000 0.013319 0.011884
1.000000 0.013172 0.012141
0.018205 0.051042 0.010530
0.019263 0.051117 0.010666
0.021407 0.051310 0.010972
0.024691 0.051658 0.011431
0.029206 0.052125 0.011914
0.035215 0.052660 0.012206
0.043156 0.053235 0.012195
0.053189 0.053679 0.011931
0.064933 0.053704 0.011623
0.077747 0.053220 0.011450
0.092209 0.052097 0.011469
0.110147 0.050396 0.011483
0.133110 0.048313 0.011180
0.162060 0.045978 0.010542
0.197557 0.043460 0.009682
0.239838 0.040826 0.008734
0.288857 0.038155 0.007802
0.344245 0.035523 0.006941
0.405293 0.032992 0.006168
0.470905 0.030609 0.005486
0.539576 0.028404 0.004898
0.609438 0.026394 0.004417
0.678371 0.024585 0.004061
0.744183 0.022973 0.003849
0.804900 0.021546 0.003794
0.858901 0.020291 0.003893
0.905065 0.019195 0.004131
0.942978 0.018247 0.004476
0.972885 0.017443 0.004885
0.995427 0.016785 0.005307
1.000000 0.016278 0.005688
1.000000 0.015932 0.005975
1.000000 0.015756 0.006131
0.016563 0.056477 0.009127
0.017602 0.056578 0.009271
0.019721 0.056809 0.009560
0.023000 0.057190 0.009958
0.027585 0.057704 0.010368
0.033710 0.058302 0.010656
0.041630 0.058908 0.010745
0.051364 0.059378 0.010670
0.062593 0.059534 0.010579
0.074984 0.059247 0.010613
0.089006 0.058376 0.010771
0.106071 0.056903 0.010884
0.127649 0.054953 0.010703
0.154877 0.052635 0.010194
0.188484 0.050038 0.009440
0.228845 0.047254 0.008553
0.276004 0.044379 0.007623
0.329690 0.041506 0.006698
0.389304 0.038710 0.005793
0.453846 0.036051 0.004909
0.521918 0.033570 0.004054
0.591735 0.031290 0.003248
0.661193 0.029225 0.002522
0.728080 0.027374 0.001909
0.790361 0.025727 0.001431
0.846280 0.024271 0.001101
0.894572 0.022992 0.000913
0.934600 0.021882 0.000850
0.966443 0.020936 0.000883
0.990626 0.020159 0.000975
1.000000 0.019559 0.001090
1.000000 0.019148 0.001190
1.000000 0.018939 0.001248
0.014811 0.062888 0.007899
0.015820 0.062972 0.008032
0.017886 0.063163 0.008284
0.021106 0.063476 0.008617
0.025629 0.063902 0.008962
0.031641 0.064399 0.009237
0.039294 0.064890 0.009403
0.048557 0.065260 0.009488
0.059236 0.065380 0.009591
0.071242 0.065135 0.009790
0.085014 0.064403 0.010056
0.101611 0.063132 0.010252
0.122295 0.061368 0.010208
0.148218 0.059176 0.009885
0.180221 0.056641 0.009332
0.218816 0.053855 0.008622
0.264162 0.050918 0.007814
0.316113 0.047927 0.006943
0.374189 0.044968 0.006015
0.437513 0.042113 0.005029
0.504810 0.039413 0.003997
0.574381 0.036907 0.002947
0.644167 0.034615 0.001923
0.711963 0.032543 0.000969
0.775660 0.030686 0.000123
0.833388 0.029032 0.000000
0.883736 0.027571 0.000000
0.925866 0.026293 0.000000
0.959666 0.025198 0.000000
0.985525 0.024293 0.000000
1.000000 0.023592 0.000000
1.000000 0.023110 0.000000
1.000000 0.022864 0.000000
0.013041 0.070442 0.006942
0.014000 0.070480 0.007054
0.015968 0.070574 0.007262
0.019045 0.070744 0.007535
0.023369 0.070986 0.007823
0.029089 0.071273 0.008080
0.036313 0.071545 0.008290
0.045036 0.071717 0.008481
0.055185 0.071692 0.008711
0.066837 0.071374 0.009019
0.080421 0.070665 0.009368
0.096760 0.069502 0.009652
0.116898 0.067884 0.009759
0.141895 0.065843 0.009650
0.172621 0.063441 0.009342
0.209684 0.060755 0.008872
0.253356 0.057870 0.008267
0.303618 0.054873 0.007541
0.360122 0.051853 0.006689
0.422130 0.048886 0.005703
0.488497 0.046038 0.004593
0.557624 0.043357 0.003394
0.627530 0.040876 0.002159
0.696043 0.038610 0.000946
0.760977 0.036561 0.000000
0.820368 0.034720 0.000000
0.872672 0.033079 0.000000
0.916856 0.031633 0.000000
0.952601 0.030384 0.000000
0.980148 0.029346 0.000000
1.000000 0.028536 0.000000
1.000000 0.027978 0.000000
1.000000 0.027693 0.000000
0.011320 0.079325 0.006305
0.012206 0.079294 0.006395
0.014029 0.079254 0.006561
0.016883 0.079227 0.006778
0.020897 0.079223 0.007015
0.026206 0.079232 0.007247
0.032914 0.079217 0.007472
0.041075 0.079121 0.007714
0.050719 0.078875 0.008010
0.062027 0.078401 0.008377
0.075424 0.077619 0.008783
0.091586 0.076470 0.009152
0.111376 0.074930 0.009406
0.135717 0.073010 0.009505
0.165451 0.070751 0.009443
0.201227 0.068206 0.009228
0.243415 0.065436 0.008861
0.292106 0.062511 0.008338
0.347076 0.059507 0.007637
0.407736 0.056503 0.006741
0.473065 0.053569 0.005652
0.541587 0.050765 0.004404
0.611427 0.048138 0.003056
0.680444 0.045711 0.001675
0.746410 0.043491 0.000321
0.807306 0.041479 0.000000
0.861442 0.039667 0.000000
0.907608 0.038055 0.000000
0.945268 0.036652 0.000000
0.974498 0.035476 0.000000
0.995724 0.034555 0.000000
1.000000 0.033916 0.000000
1.000000 0.033589 0.000000
0.009701 0.089747 0.006004
0.010495 0.089636 0.006073
0.012132 0.089439 0.006199
0.014705 0.089185 0.006367
0.018338 0.088899 0.006556
0.023168 0.088589 0.006756
0.029322 0.088243 0.006971
0.036914 0.087832 0.007222
0.046062 0.087308 0.007535
0.057008 0.086615 0.007920
0.070186 0.085689 0.008355
0.086177 0.084473 0.008788
0.105699 0.082939 0.009161
0.129542 0.081085 0.009434
0.158484 0.078934 0.009588
0.193179 0.076518 0.009608
0.234069 0.073872 0.009483
0.281334 0.071046 0.009188
0.334863 0.068101 0.008688
0.394197 0.065107 0.007949
0.458437 0.062137 0.006963
0.526245 0.059259 0.005758
0.595862 0.056524 0.004393
0.665193 0.053969 0.002941
0.732011 0.051606 0.001467
0.794240 0.049439 0.000028
0.850067 0.047469 0.000000
0.898127 0.045699 0.000000
0.937654 0.044143 0.000000
0.968552 0.042831 0.000000
0.991117 0.041796 0.000000
1.000000 0.041077 0.000000
1.000000 0.040706 0.000000
0.008228 0.101986 0.006026
0.008917 0.101786 0.006075
0.010344 0.101413 0.006166
0.012601 0.100910 0.006289
0.015816 0.100316 0.006432
0.020137 0.099660 0.006593
0.025726 0.098956 0.006779
0.032750 0.098195 0.007009
0.041399 0.097354 0.007304
0.051957 0.096393 0.007674
0.064860 0.095262 0.008105
0.080634 0.093915 0.008566
0.099883 0.092320 0.009013
0.123285 0.090467 0.009412
0.151550 0.088365 0.009732
0.185307 0.086029 0.009953
0.225046 0.083476 0.010049
0.271018 0.080735 0.009981
0.323209 0.077849 0.009699
0.381267 0.074879 0.009156
0.444414 0.071897 0.008330
0.511447 0.068969 0.007242
0.580723 0.066154 0.005944
0.650217 0.063492 0.004508
0.717732 0.061004 0.003004
0.781142 0.058699 0.001492
0.838525 0.056583 0.000022
0.888373 0.054666 0.000000
0.929716 0.052968 0.000000
0.962262 0.051526 0.000000
0.986166 0.050383 0.000000
1.000000 0.049584 0.000000
1.000000 0.049171 0.000000
0.006940 0.116399 0.006337
0.007518 0.116102 0.006369
0.008724 0.115541 0.006429
0.010653 0.114771 0.006511
0.013439 0.113848 0.006609
0.017249 0.112822 0.006726
0.022274 0.111728 0.006870
0.028734 0.110581 0.007058
0.036874 0.109378 0.007311
0.047008 0.108098 0.007638
0.059568 0.106704 0.008036
0.075045 0.105160 0.008486
0.093964 0.103436 0.008961
0.116916 0.101516 0.009429
0.144539 0.099395 0.009862
0.177434 0.097076 0.010235
0.216115 0.094559 0.010511
0.260889 0.091859 0.010644
0.311827 0.089005 0.010570
0.368666 0.086045 0.010231
0.430739 0.083044 0.009594
0.496969 0.080068 0.008669
0.565818 0.077177 0.007500
0.635359 0.074414 0.006153
0.703451 0.071806 0.004696
0.767908 0.069367 0.003189
0.826726 0.067109 0.001687
0.878273 0.065050 0.000240
0.921383 0.063216 0.000000
0.955558 0.061649 0.000000
0.980800 0.060400 0.000000
0.997368 0.059524 0.000000
1.000000 0.059069 0.000000
0.005863 0.133381 0.006893
0.006331 0.132981 0.006910
0.007317 0.132223 0.006943
0.008922 0.131172 0.006987
0.011287 0.129902 0.007042
0.014598 0.128483 0.007111
0.019074 0.126970 0.007205
0.024974 0.125400 0.007340
0.032590 0.123789 0.007534
0.042256 0.122132 0.007800
0.054396 0.120412 0.008140
0.069479 0.118600 0.008548
0.087983 0.116670 0.009006
0.110433 0.114601 0.009493
0.137397 0.112380 0.009985
0.169450 0.109996 0.010453
0.207112 0.107442 0.010858
0.250742 0.104718 0.011145
0.300478 0.101843 0.011245
0.356137 0.098855 0.011092
0.417162 0.095809 0.010646
0.482573 0.092766 0.009904
0.550942 0.089783 0.008900
0.620452 0.086907 0.007691
0.689006 0.084169 0.006338
0.754387 0.081587 0.004901
0.814545 0.079180 0.003432
0.867715 0.076972 0.001987
0.912556 0.074996 0.000625
0.948348 0.073301 0.000000
0.974933 0.071945 0.000000
0.992453 0.070991 0.000000
1.000000 0.070495 0.000000
0.005012 0.153394 0.007642
0.005375 0.152884 0.007647
0.006152 0.151915 0.007654
0.007446 0.150564 0.007664
0.009411 0.148922 0.007678
0.012244 0.147075 0.007700
0.016191 0.145103 0.007741
0.021538 0.143063 0.007817
0.028611 0.140992 0.007943
0.037760 0.138902 0.008135
0.049400 0.136788 0.008402
0.063995 0.134634 0.008743
0.081994 0.132415 0.009152
0.103866 0.130111 0.009615
0.130123 0.127701 0.010115
0.161313 0.125165 0.010623
0.197954 0.122489 0.011099
0.240452 0.119665 0.011485
0.289003 0.116701 0.011710
0.343501 0.113626 0.011706
0.403482 0.110484 0.011428
0.468056 0.107329 0.010864
0.535908 0.104217 0.010037
0.605323 0.101193 0.008990
0.674244 0.098292 0.007778
0.740461 0.095541 0.006453
0.801873 0.092963 0.005067
0.856593 0.090587 0.003677
0.903131 0.088455 0.002344
0.940536 0.086621 0.001142
0.968473 0.085151 0.000149
0.986960 0.084115 0.000000
0.996145 0.083576 0.000000
0.004392 0.176880 0.008533
0.004656 0.176255 0.008526
0.005237 0.175061 0.008512
0.006242 0.173391 0.008491
0.007830 0.171350 0.008466
0.010213 0.169045 0.008443
0.013651 0.166575 0.008432
0.018453 0.164018 0.008446
0.024966 0.161430 0.008502
0.033555 0.158842 0.008616
0.044631 0.156260 0.008799
0.058653 0.153677 0.009059
0.076055 0.151077 0.009395
0.097265 0.148439 0.009802
0.122751 0.145742 0.010267
0.153036 0.142961 0.010765
0.188633 0.140075 0.011255
0.229986 0.137070 0.011683
0.277337 0.133943 0.011979
0.330662 0.130711 0.012078
0.389579 0.127411 0.011932
0.453286 0.124089 0.011522
0.520579 0.120793 0.010860
0.589832 0.117570 0.009977
0.659043 0.114459 0.008918
0.726022 0.111493 0.007728
0.788616 0.108701 0.006455
0.844826 0.106121 0.005155
0.893016 0.103801 0.003891
0.932028 0.101801 0.002738
0.961333 0.100197 0.001776
0.980802 0.099066 0.001082
0.990500 0.098479 0.000718
0.003992 0.204246 0.009514
0.004165 0.203494 0.009498
0.004566 0.202059 0.009465
0.005305 0.200044 0.009418
0.006544 0.197576 0.009358
0.008503 0.194782 0.009293
0.011454 0.191779 0.009232
0.015719 0.188663 0.009187
0.021660 0.185506 0.009174
0.029658 0.182355 0.009209
0.040119 0.179232 0.009306
0.053495 0.176139 0.009476
0.070215 0.173067 0.009725
0.090682 0.170002 0.010052
0.115332 0.166921 0.010448
0.144666 0.163798 0.010894
0.179187 0.160607 0.011351
0.219366 0.157327 0.011769
0.265490 0.153948 0.012085
0.317609 0.150477 0.012238
0.375420 0.146942 0.012181
0.438216 0.143380 0.011890
0.504893 0.139837 0.011366
0.573907 0.136356 0.010631
0.643328 0.132980 0.009718
0.711001 0.129745 0.008666
0.774701 0.126689 0.007519
0.832339 0.123857 0.006328
0.882144 0.121306 0.005157
0.922758 0.119106 0.004077
0.953439 0.117341 0.003171
0.973907 0.116098 0.002514
0.984127 0.115453 0.002169
0.003792 0.235805 0.010541
0.003884 0.234920 0.010517
0.004122 0.233229 0.010469
0.004617 0.230853 0.010398
0.005534 0.227935 0.010308
0.007097 0.224622 0.010205
0.009583 0.221050 0.010098
0.013321 0.217329 0.009998
0.018684 0.213549 0.009920
0.026067 0.209774 0.009880
0.035874 0.206038 0.009892
0.048546 0.202358 0.009970
0.064514 0.198734 0.010123
0.084170 0.195155 0.010355
0.107933 0.191598 0.010661
0.136270 0.188040 0.011023
0.169684 0.184451 0.011410
0.208655 0.180804 0.011778
0.253519 0.177084 0.012070
0.304389 0.173289 0.012233
0.361043 0.169438 0.012220
0.422876 0.165562 0.012006
0.488868 0.161700 0.011586
0.557561 0.157892 0.010970
0.627110 0.154182 0.010184
0.695381 0.150610 0.009259
0.760095 0.147225 0.008235
0.819099 0.144082 0.007158
0.870476 0.141250 0.006090
0.912679 0.138809 0.005098
0.944743 0.136855 0.004261
0.966224 0.135481 0.003653
0.976975 0.134769 0.003332
0.003767 0.271710 0.011576
0.003785 0.270689 0.011545
0.003876 0.268736 0.011484
0.004150 0.265987 0.011393
0.004771 0.262603 0.011278
0.005964 0.258750 0.011142
0.008008 0.254579 0.010994
0.011236 0.250221 0.010845
0.016024 0.245778 0.010708
0.022778 0.241330 0.010597
0.031899 0.236927 0.010529
0.043823 0.232596 0.010516
0.058988 0.228346 0.010572
0.077787 0.224172 0.010701
0.100621 0.220054 0.010901
0.127931 0.215968 0.011160
0.160210 0.211886 0.011452
0.197943 0.207780 0.011739
0.241515 0.203629 0.011974
0.291096 0.199428 0.012108
0.346544 0.195185 0.012101
0.407352 0.190918 0.011926
0.472581 0.186664 0.011571
0.540871 0.182459 0.011042
0.610454 0.178346 0.010356
0.679215 0.174373 0.009538
0.744853 0.170597 0.008623
0.805143 0.167085 0.007655
0.858026 0.163920 0.006688
0.901793 0.161196 0.005788
0.935236 0.159017 0.005027
0.957734 0.157486 0.004473
0.969023 0.156692 0.004180
0.003884 0.311940 0.012587
0.003836 0.310780 0.012550
0.003795 0.308559 0.012478
0.003869 0.305428 0.012372
0.004219 0.301566 0.012235
0.005069 0.297154 0.012071
0.006696 0.292365 0.011888
0.009432 0.287345 0.011696
0.013655 0.282214 0.011506
0.019775 0.277063 0.011332
0.028197 0.271954 0.011189
0.039351 0.266926 0.011092
0.053683 0.261994 0.011051
0.071597 0.257161 0.011075
0.093472 0.252412 0.011165
0.119731 0.247723 0.011311
0.150859 0.243070 0.011493
0.187340 0.238424 0.011680
0.229599 0.233762 0.011832
0.277857 0.229073 0.011910
0.332056 0.224355 0.011877
0.391775 0.219622 0.011705
0.456163 0.214899 0.011382
0.523962 0.210224 0.010908
0.593475 0.205640 0.010293
0.662616 0.201204 0.009558
0.729080 0.196981 0.008735
0.790564 0.193051 0.007862
0.844878 0.189507 0.006990
0.890148 0.186459 0.006178
0.924948 0.184022 0.005491
0.948462 0.182311 0.004992
0.960291 0.181424 0.004728
0.004110 0.356194 0.013547
0.004004 0.354896 0.013507
0.003845 0.352406 0.013426
0.003738 0.348894 0.013307
0.003842 0.344553 0.013153
0.004374 0.339581 0.012966
0.005609 0.334171 0.012754
0.007876 0.328485 0.012525
0.011550 0.322654 0.012290
0.017042 0.316785 0.012061
0.024767 0.310948 0.011851
0.035149 0.305190 0.011675
0.048639 0.299537 0.011544
0.065647 0.293998 0.011467
0.086549 0.288563 0.011446
0.111751 0.283216 0.011477
0.141727 0.277931 0.011542
0.176958 0.272681 0.011619
0.217898 0.267441 0.011676
0.264815 0.262193 0.011678
0.317731 0.256933 0.011594
0.376307 0.251665 0.011400
0.439788 0.246409 0.011080
0.507006 0.241204 0.010631
0.576336 0.236094 0.010062
0.645741 0.231141 0.009388
0.712927 0.226421 0.008638
0.775497 0.222024 0.007845
0.831146 0.218057 0.007056
0.877850 0.214644 0.006324
0.913971 0.211917 0.005707
0.938484 0.210002 0.005259
0.950849 0.209010 0.005023
0.004413 0.403873 0.014439
0.004255 0.402437 0.014396
0.003991 0.399682 0.014309
0.003721 0.395792 0.014180
0.003602 0.390981 0.014012
0.003843 0.385464 0.013808
0.004714 0.379446 0.013572
0.006536 0.373103 0.013313
0.009684 0.366582 0.013040
0.014566 0.359998 0.012763
0.021609 0.353433 0.012495
0.031231 0.346940 0.012248
0.043882 0.340552 0.012035
0.059982 0.334285 0.011864
0.079912 0.328139 0.011739
0.104070 0.322097 0.011657
0.132908 0.316139 0.011608
0.166910 0.310236 0.011572
0.206542 0.304363 0.011527
0.252123 0.298500 0.011442
0.303741 0.292639 0.011293
0.361139 0.286781 0.011057
0.423661 0.280945 0.010719
0.490220 0.275164 0.010275
0.559263 0.269486 0.009730
0.628819 0.263977 0.009098
0.696597 0.258723 0.008402
0.760119 0.253825 0.007675
0.816998 0.249404 0.006958
0.865052 0.245599 0.006296
0.902446 0.242558 0.005741
0.927933 0.240424 0.005340
0.940823 0.239319 0.005129
0.004760 0.454021 0.015249
0.004557 0.452452 0.015203
0.004200 0.449444 0.015112
0.003786 0.445197 0.014976
0.003466 0.439938 0.014798
0.003443 0.433898 0.014580
0.003978 0.427299 0.014326
0.005388 0.420327 0.014043
0.008040 0.413140 0.013738
0.012343 0.405862 0.013421
0.018726 0.398585 0.013103
0.027609 0.391371 0.012796
0.039437 0.384259 0.012510
0.054648 0.377271 0.012255
0.073630 0.370409 0.012034
0.096774 0.363662 0.011848
0.124510 0.357014 0.011691
0.157321 0.350436 0.011547
0.195677 0.343902 0.011400
0.239948 0.337393 0.011226
0.290278 0.330898 0.011003
0.346489 0.324418 0.010714
0.408019 0.317969 0.010344
0.473853 0.311583 0.009890
0.542524 0.305309 0.009354
0.612121 0.299217 0.008749
0.680353 0.293402 0.008095
0.744702 0.287980 0.007421
0.802691 0.283086 0.006763
0.851986 0.278875 0.006162
0.890586 0.275511 0.005661
0.917007 0.273150 0.005301
0.930406 0.271927 0.005112
0.005124 0.505261 0.015966
0.004882 0.503575 0.015919
0.004443 0.500339 0.015825
0.003903 0.495764 0.015684
0.003404 0.490093 0.015499
0.003144 0.483576 0.015271
0.003376 0.476445 0.015004
0.004408 0.468895 0.014702
0.006602 0.461090 0.014373
0.010363 0.453164 0.014024
0.016122 0.445218 0.013665
0.024304 0.437320 0.013306
0.035348 0.429516 0.012958
0.049708 0.421833 0.012628
0.067787 0.414275 0.012324
0.089962 0.406838 0.012045
0.116650 0.399504 0.011789
0.148329 0.392252 0.011546
0.185471 0.385056 0.011302
0.228484 0.377895 0.011041
0.277562 0.370761 0.010745
