luts/silbersalz-250d_v2-paired_33.cube
TITLE "silbersalz-250d_v2-paired_33"
# Generated by saltgate on 2026-08-25
# Input:  Silbersalz flat-scan code values [0,1] (Display P3 tagged)
# Output: graded display code values (Display P3)
# pairs: 22
LUT_3D_SIZE 5
DOMAIN_MIN 0.0 0.0 0.0
DOMAIN_MAX 1.0 1.0 1.0
0.012446 0.019573 0.014428
0.065778 0.009287 0.014830
0.374165 0.008686 0.019301
0.880715 0.006467 0.035693
1.000000 0.005624 0.054363
0.018205 0.051042 0.010530
0.064933 0.053704 0.011623
0.288857 0.038155 0.007802
0.804900 0.021546 0.003794
1.000000 0.015756 0.006131
0.005863 0.133381 0.006893
0.032590 0.123789 0.007534
0.207112 0.107442 0.010858
0.689006 0.084169 0.006338
1.000000 0.070495 0.000000
0.004413 0.403873 0.014439
0.009684 0.366582 0.013040
0.132908 0.316139 0.011608
0.559263 0.269486 0.009730
0.940823 0.239319 0.005129
0.006539 0.719056 0.018141
0.002129 0.665136 0.016399
0.088876 0.585386 0.012302
0.466234 0.509112 0.007819
0.876230 0.459345 0.004677
0.012753 0.030926 0.108978
0.086338 0.017719 0.143344
0.416029 0.012576 0.226166
0.907988 0.010809 0.314925
1.000000 0.008572 0.376559
0.016057 0.071633 0.043245
0.057628 0.048934 0.025788
0.297623 0.053781 0.086622
0.823872 0.038959 0.160974
1.000000 0.029647 0.203248
0.008763 0.185158 0.000833
0.052873 0.172231 0.006430
0.221051 0.170117 0.034174
0.718149 0.144464 0.108477
1.000000 0.130132 0.105279
0.004925 0.518315 0.001105
0.018050 0.477181 0.002220
0.157948 0.433752 0.016543
0.619316 0.397222 0.054372
0.970695 0.349843 0.047308
0.005526 0.849609 0.006567
0.005036 0.801424 0.003987
0.110191 0.728738 0.001961
0.517436 0.656201 0.004971
0.913783 0.597726 0.000000
0.011144 0.034448 0.644273
0.113782 0.028715 0.706376
0.490434 0.023269 0.806887
0.945915 0.018517 0.892499
1.000000 0.015001 0.936782
0.006147 0.095344 0.391662
0.075002 0.080162 0.403018
0.366135 0.070400 0.483345
0.872816 0.056596 0.641650
1.000000 0.049110 0.740789
0.004045 0.278932 0.130787
0.049028 0.223642 0.142158
0.247511 0.197624 0.154863
0.764287 0.171564 0.225005
1.000000 0.186748 0.397947
0.004525 0.692954 0.013981
0.031923 0.638228 0.032634
0.220756 0.590876 0.071863
0.785548 0.629723 0.216861
1.000000 0.524230 0.170582
0.004136 0.983631 0.000000
0.011832 0.955422 0.000000
0.154977 0.917405 0.002916
0.626803 0.890656 0.048236
0.968905 0.826518 0.041264
0.019190 0.060653 1.000000
0.146333 0.052141 1.000000
0.565067 0.042086 1.000000
0.975257 0.033200 1.000000
1.000000 0.027541 1.000000
0.008309 0.148793 0.919659
0.097266 0.125502 0.928177
0.449637 0.105716 0.942736
0.924693 0.091630 0.984650
1.000000 0.081531 1.000000
0.000000 0.415217 0.649707
0.015617 0.303104 0.661451
0.210593 0.247593 0.671518
0.805910 0.249704 0.754358
1.000000 0.249404 0.865268
0.002841 0.848147 0.307959
0.027229 0.780483 0.367632
0.203627 0.696312 0.488927
0.797495 0.722529 0.557443
1.000000 0.674837 0.601111
0.003692 1.000000 0.118597
0.018158 1.000000 0.162689
0.181460 1.000000 0.267780
0.725545 1.000000 0.426889
0.987736 1.000000 0.436974
0.027173 0.088835 1.000000
0.169976 0.078224 1.000000
0.614031 0.063967 1.000000
0.990811 0.050456 1.000000
1.000000 0.041957 1.000000
0.014844 0.200357 1.000000
0.126267 0.177943 1.000000
0.517498 0.150966 1.000000
0.955606 0.128585 1.000000
1.000000 0.113909 1.000000
0.005321 0.534125 0.999297
0.065956 0.473295 1.000000
0.354903 0.399123 1.000000
0.865880 0.353441 1.000000
1.000000 0.328675 1.000000
0.004719 0.936635 0.743860
0.037782 0.897170 0.810444
0.241049 0.834431 0.929501
0.787891 0.802826 1.000000
1.000000 0.775661 1.000000
0.004246 1.000000 0.426729
0.024677 1.000000 0.524505
0.208455 1.000000 0.716346
0.777244 1.000000 0.971782
0.991816 0.991815 0.988051
