luts/silbersalz-250d_v4-jxl_33.cube
TITLE "silbersalz-250d_v4-jxl_33"
# Generated by saltgate on 2026-08-26
# Input:  Silbersalz flat-scan code values [0,1] (Display P3 tagged)
# Output: graded display code values (Display P3)
# pairs: 22
LUT_3D_SIZE 33
DOMAIN_MIN 0.0 0.0 0.0
DOMAIN_MAX 1.0 1.0 1.0
0.017948 0.025413 0.015400
0.070446 0.051603 0.017279
0.073978 0.053139 0.017702
0.077317 0.055248 0.018149
0.081473 0.056849 0.017163
0.088749 0.057233 0.016194
0.092770 0.057417 0.018342
0.098938 0.056257 0.021838
0.106962 0.056180 0.022985
0.119177 0.052686 0.022228
0.136339 0.047621 0.021583
0.158760 0.042387 0.021453
0.187182 0.037428 0.021818
0.222393 0.032824 0.022497
0.264977 0.028527 0.023265
0.315107 0.024481 0.023939
0.372407 0.020665 0.024425
0.435933 0.017088 0.024716
0.504183 0.013786 0.024880
0.575181 0.010802 0.025030
0.646545 0.008177 0.025297
0.715772 0.005937 0.025796
0.780517 0.004091 0.026616
0.838714 0.002625 0.027805
0.888898 0.001510 0.029368
0.930372 0.000700 0.031267
0.963294 0.000142 0.033428
0.988429 0.000000 0.035738
1.000000 0.000000 0.038054
1.000000 0.000000 0.040213
1.000000 0.000000 0.042043
1.000000 0.000000 0.043381
1.000000 0.000000 0.044090
0.018810 0.028961 0.014974
0.030344 0.031226 0.014749
0.040123 0.035533 0.016317
0.054272 0.042511 0.018555
0.061690 0.048642 0.017887
0.082822 0.060052 0.018017
0.093974 0.063659 0.018992
0.100496 0.062446 0.020159
0.108649 0.059861 0.021070
0.119509 0.055150 0.021306
0.135604 0.049864 0.021226
0.157257 0.044681 0.021448
0.184974 0.039832 0.022092
0.219539 0.035303 0.022992
0.261597 0.030992 0.023886
0.311354 0.026843 0.024576
0.368425 0.022855 0.024975
0.431836 0.019064 0.025096
0.500074 0.015525 0.025029
0.571160 0.012301 0.024914
0.642700 0.009445 0.024900
0.712188 0.006995 0.025122
0.777278 0.004965 0.025680
0.835897 0.003344 0.026628
0.886555 0.002100 0.027976
0.928498 0.001185 0.029684
0.961851 0.000543 0.031674
0.987358 0.000116 0.033832
1.000000 0.000000 0.036015
1.000000 0.000000 0.038062
1.000000 0.000000 0.039805
1.000000 0.000000 0.041082
1.000000 0.000000 0.041760
0.022171 0.030185 0.015372
0.025378 0.030470 0.015030
0.028837 0.029762 0.015191
0.040738 0.030517 0.018006
0.059027 0.044700 0.018722
0.081969 0.061805 0.018531
0.093326 0.066121 0.019538
0.100445 0.065613 0.020004
0.109429 0.063297 0.020540
0.118920 0.058938 0.020824
0.133825 0.053966 0.021077
0.154333 0.049108 0.021698
0.180730 0.044572 0.022819
0.213999 0.040243 0.024160
0.255024 0.035911 0.025309
0.304074 0.031548 0.026029
0.360722 0.027212 0.026251
0.423928 0.022990 0.026027
0.492152 0.018980 0.025496
0.563408 0.015278 0.024849
0.635299 0.011967 0.024280
0.705307 0.009104 0.023959
0.771064 0.006713 0.024007
0.830481 0.004786 0.024491
0.882020 0.003289 0.025421
0.924851 0.002168 0.026757
0.959030 0.001362 0.028419
0.985259 0.000807 0.030290
1.000000 0.000440 0.032225
1.000000 0.000210 0.034064
1.000000 0.000074 0.035642
1.000000 0.000000 0.036804
1.000000 0.000000 0.037422
0.021400 0.036486 0.015942
0.024203 0.036093 0.015092
0.027454 0.034767 0.015157
0.035813 0.034008 0.016788
0.056469 0.043959 0.018917
0.080435 0.060622 0.019734
0.091714 0.067577 0.020928
0.097632 0.069191 0.021435
0.108956 0.066989 0.021445
0.118115 0.063789 0.021378
0.131640 0.059657 0.021486
0.150562 0.055437 0.022376
0.174879 0.051504 0.024188
0.206084 0.047587 0.026267
0.245587 0.043223 0.027817
0.293662 0.038517 0.028575
0.349754 0.033653 0.028522
0.412709 0.028792 0.027773
0.480938 0.024087 0.026542
0.552431 0.019683 0.025099
0.624812 0.015705 0.023711
0.695553 0.012238 0.022596
0.762243 0.009322 0.021907
0.822769 0.006953 0.021725
0.875526 0.005092 0.022062
0.919601 0.003676 0.022875
0.954948 0.002635 0.024077
0.982208 0.001893 0.025545
1.000000 0.001381 0.027135
1.000000 0.001041 0.028687
1.000000 0.000825 0.030039
1.000000 0.000699 0.031045
1.000000 0.000641 0.031582
0.019272 0.040246 0.013813
0.021549 0.040021 0.013665
0.025473 0.039828 0.014077
0.033338 0.040786 0.015507
0.049857 0.046746 0.017999
0.073330 0.058243 0.020577
0.090284 0.067348 0.022987
0.097407 0.071345 0.022132
0.107938 0.070911 0.023003
0.117824 0.069370 0.023030
0.130589 0.066577 0.022176
0.146943 0.063208 0.023286
0.168088 0.060272 0.026214
0.196218 0.057157 0.029542
0.233765 0.052705 0.031649
0.280707 0.047512 0.032447
0.336181 0.041966 0.032030
0.398867 0.036296 0.030581
0.467108 0.030707 0.028418
0.538877 0.025407 0.025927
0.611825 0.020578 0.023472
0.683436 0.016345 0.021340
0.751250 0.012766 0.019721
0.813112 0.009842 0.018707
0.867345 0.007524 0.018310
0.912950 0.005741 0.018480
0.949750 0.004405 0.019119
0.978305 0.003430 0.020099
0.999611 0.002736 0.021271
1.000000 0.002256 0.022476
1.000000 0.001938 0.023558
1.000000 0.001745 0.024375
1.000000 0.001654 0.024815
0.016255 0.043115 0.010923
0.018360 0.043283 0.011124
0.022735 0.043995 0.011847
0.030776 0.045971 0.013356
0.044791 0.050588 0.015661
0.064377 0.058221 0.018342
0.083435 0.066106 0.021039
0.096769 0.071758 0.021689
0.107085 0.074385 0.022907
0.117562 0.074434 0.024570
0.130750 0.073337 0.022520
0.143962 0.071285 0.023860
0.161188 0.069961 0.028542
0.185082 0.068379 0.033966
0.220418 0.063709 0.036735
0.266145 0.057980 0.037629
0.320942 0.051732 0.036835
0.383295 0.045185 0.034558
0.451493 0.038595 0.031257
0.523513 0.032260 0.027492
0.597037 0.026444 0.023764
0.669545 0.021324 0.020440
0.738558 0.016985 0.017747
0.801894 0.013427 0.015784
0.857785 0.010592 0.014558
0.905126 0.008392 0.014004
0.943601 0.006722 0.014013
0.973663 0.005481 0.014447
0.996251 0.004577 0.015153
1.000000 0.003936 0.015972
1.000000 0.003499 0.016753
1.000000 0.003226 0.017362
1.000000 0.003096 0.017696
0.013291 0.046219 0.008182
0.015367 0.046667 0.008468
0.019850 0.047838 0.009207
0.027617 0.050139 0.010540
0.039741 0.054023 0.012413
0.055984 0.059460 0.014523
0.073725 0.065340 0.016468
0.090734 0.070636 0.017476
0.106488 0.075554 0.018356
0.116953 0.076948 0.022423
0.128943 0.077962 0.022321
0.141457 0.078032 0.023405
0.156064 0.078358 0.029849
0.175278 0.078764 0.038235
0.207581 0.074562 0.042075
0.251591 0.068874 0.043565
0.305371 0.062272 0.042661
0.367109 0.054981 0.039541
0.435052 0.047390 0.034963
0.507171 0.039964 0.029768
0.581169 0.033096 0.024634
0.654512 0.027037 0.020021
0.724708 0.021896 0.016184
0.789544 0.017673 0.013223
0.847176 0.014297 0.011129
0.896382 0.011658 0.009820
0.936680 0.009635 0.009170
0.968408 0.008111 0.009032
0.992425 0.006981 0.009247
1.000000 0.006164 0.009660
1.000000 0.005596 0.010125
1.000000 0.005238 0.010516
1.000000 0.005063 0.010737
0.010718 0.050097 0.005870
0.012769 0.050657 0.006142
0.017163 0.051947 0.006781
0.024461 0.054177 0.007874
0.035211 0.057470 0.009388
0.049294 0.061665 0.011154
0.065571 0.066226 0.012982
0.082929 0.070796 0.014818
0.100808 0.075682 0.017350
0.116104 0.079684 0.021602
0.129566 0.082709 0.023309
0.142264 0.083007 0.022976
0.156168 0.083517 0.028293
0.173131 0.084531 0.037851
0.199390 0.082898 0.045017
0.239509 0.078927 0.049129
0.291165 0.072806 0.048860
0.351592 0.065118 0.045015
0.418830 0.056642 0.039122
0.490735 0.048168 0.032463
0.564965 0.040278 0.025927
0.638974 0.033309 0.020053
0.710247 0.027396 0.015110
0.776522 0.022534 0.011188
0.835880 0.018636 0.008256
0.886979 0.015571 0.006211
0.929177 0.013201 0.004914
0.962668 0.011392 0.004210
0.988218 0.010033 0.003936
1.000000 0.009034 0.003941
1.000000 0.008331 0.004087
1.000000 0.007881 0.004257
1.000000 0.007660 0.004366
0.008548 0.055019 0.004008
0.010548 0.055572 0.004248
0.014768 0.056776 0.004791
0.021587 0.058742 0.005706
0.031335 0.061491 0.007010
0.043980 0.064874 0.008667
0.058974 0.068608 0.010675
0.075586 0.072562 0.013202
0.093145 0.076893 0.016702
0.110336 0.081306 0.021388
0.126985 0.085403 0.025480
0.143293 0.087203 0.026869
0.158751 0.088343 0.026239
0.174324 0.089713 0.034359
0.197427 0.089043 0.045515
0.232933 0.087391 0.053931
0.279908 0.082803 0.054536
0.337911 0.075072 0.050021
0.403843 0.065866 0.042934
0.475087 0.056481 0.035002
0.549169 0.047709 0.027280
0.623543 0.039963 0.020348
0.695675 0.033391 0.014474
0.763231 0.027979 0.009729
0.824220 0.023624 0.006064
0.877165 0.020178 0.003362
0.921271 0.017488 0.001474
0.956570 0.015411 0.000238
0.983714 0.013829 0.000000
1.000000 0.012650 0.000000
1.000000 0.011808 0.000000
1.000000 0.011265 0.000000
1.000000 0.010997 0.000000
0.006680 0.061158 0.002546
0.008599 0.061631 0.002763
0.012603 0.062641 0.003241
0.018960 0.064255 0.004044
0.027900 0.066476 0.005226
0.039442 0.069208 0.006831
0.053293 0.072302 0.008938
0.068950 0.075705 0.011726
0.085908 0.079501 0.015439
0.103622 0.083660 0.020090
0.122004 0.087954 0.024935
0.140903 0.091644 0.028535
0.158173 0.094685 0.026405
0.175232 0.096486 0.030270
0.197315 0.096355 0.041768
0.228357 0.095684 0.053877
0.271014 0.092503 0.057332
0.326646 0.084447 0.052899
0.390909 0.074579 0.045234
0.460995 0.064519 0.036607
0.534441 0.055138 0.028201
0.608759 0.046858 0.020620
0.681423 0.039822 0.014132
0.750019 0.034009 0.008805
0.812463 0.029303 0.004585
0.867147 0.025550 0.001356
0.913121 0.022588 0.000000
0.950228 0.020272 0.000000
0.978992 0.018482 0.000000
1.000000 0.017129 0.000000
1.000000 0.016151 0.000000
1.000000 0.015512 0.000000
1.000000 0.015196 0.000000
0.005000 0.068606 0.001433
0.006812 0.068969 0.001632
0.010560 0.069741 0.002066
0.016446 0.070972 0.002790
0.024650 0.072675 0.003869
0.035223 0.074809 0.005379
0.048016 0.077309 0.007416
0.062715 0.080166 0.010117
0.079000 0.083449 0.013613
0.096635 0.087209 0.017885
0.115522 0.091382 0.022600
0.135474 0.095695 0.027110
0.155660 0.099868 0.030244
0.174577 0.103167 0.032368
0.198160 0.104793 0.037032
0.226659 0.104610 0.050010
0.265945 0.101045 0.055781
0.318868 0.092403 0.052120
0.380775 0.082223 0.044945
0.449020 0.071964 0.036586
0.521248 0.062404 0.028253
0.595033 0.053935 0.020593
0.667824 0.046698 0.013915
0.737145 0.040674 0.008318
0.800824 0.035753 0.003774
0.857100 0.031784 0.000186
0.904857 0.028612 0.000000
0.943739 0.026095 0.000000
0.974119 0.024120 0.000000
0.996803 0.022603 0.000000
1.000000 0.021493 0.000000
1.000000 0.020760 0.000000
1.000000 0.020394 0.000000
0.003431 0.077477 0.000636
0.005109 0.077713 0.000818
0.008562 0.078225 0.001209
0.013951 0.079060 0.001856
0.021433 0.080252 0.002820
0.031089 0.081804 0.004174
0.042876 0.083711 0.006008
0.056645 0.085999 0.008419
0.072222 0.088744 0.011485
0.089535 0.092033 0.015191
0.108526 0.095903 0.019381
0.129109 0.100293 0.023766
0.150999 0.105020 0.027910
0.174070 0.109312 0.030898
0.200370 0.110958 0.032118
0.228543 0.109900 0.041957
0.265777 0.105693 0.047902
0.314828 0.097909 0.046868
0.373433 0.088478 0.041726
0.439165 0.078752 0.034732
0.509663 0.069539 0.027269
0.582491 0.061267 0.020121
0.655049 0.054109 0.013693
0.724794 0.048077 0.008156
0.789464 0.043084 0.003535
0.847158 0.039001 0.000000
0.896589 0.035686 0.000000
0.937184 0.033013 0.000000
0.969153 0.030878 0.000000
0.993191 0.029212 0.000000
1.000000 0.027974 0.000000
1.000000 0.027148 0.000000
1.000000 0.026734 0.000000
0.001939 0.087949 0.000136
0.003461 0.088053 0.000297
0.006588 0.088298 0.000640
0.011458 0.088736 0.001200
0.018221 0.089422 0.002027
0.026992 0.090395 0.003184
0.037814 0.091693 0.004743
0.050671 0.093369 0.006775
0.065507 0.095505 0.009330
0.082355 0.098190 0.012399
0.101218 0.101472 0.015882
0.122118 0.105306 0.019575
0.145035 0.109428 0.023148
0.170051 0.113050 0.026148
0.197538 0.114609 0.028996
0.227533 0.113235 0.035334
0.264661 0.109072 0.039908
0.311463 0.102316 0.040164
0.367362 0.094049 0.036918
0.430670 0.085305 0.031624
0.499315 0.076828 0.025466
0.570977 0.069063 0.019236
0.643075 0.062222 0.013404
0.713026 0.056360 0.008210
0.778480 0.051427 0.003742
0.837420 0.047324 0.000000
0.888390 0.043935 0.000000
0.930616 0.041150 0.000000
0.964131 0.038884 0.000000
0.989503 0.037085 0.000000
1.000000 0.035728 0.000000
1.000000 0.034812 0.000000
1.000000 0.034349 0.000000
0.000530 0.100274 0.000000
0.001885 0.100242 0.000059
0.004669 0.100218 0.000346
0.009010 0.100264 0.000809
0.015064 0.100453 0.001487
0.022979 0.100850 0.002430
0.032874 0.101524 0.003693
0.044831 0.102547 0.005331
0.058887 0.103996 0.007383
0.075142 0.105941 0.009846
0.093647 0.108405 0.012661
0.114462 0.111303 0.015697
0.137633 0.114334 0.018780
0.163276 0.116830 0.021797
0.191600 0.117749 0.025099
0.223319 0.116333 0.029522
0.261158 0.112614 0.032891
0.307078 0.106890 0.033623
0.361249 0.099844 0.031738
0.422660 0.092230 0.027987
0.489667 0.084671 0.023207
0.560173 0.077593 0.018070
0.631725 0.071231 0.013038
0.701758 0.065673 0.008386
0.767849 0.060906 0.004248
0.827892 0.056865 0.000661
0.880276 0.053459 0.000000
0.924050 0.050606 0.000000
0.959060 0.048239 0.000000
0.985740 0.046326 0.000000
1.000000 0.044861 0.000000
1.000000 0.043861 0.000000
1.000000 0.043352 0.000000
0.000000 0.114837 0.000000
0.000422 0.114665 0.000093
0.002859 0.114368 0.000319
0.006678 0.114020 0.000682
0.012045 0.113709 0.001210
0.019142 0.113524 0.001942
0.028145 0.113554 0.002921
0.039212 0.113880 0.004193
0.052456 0.114574 0.005791
0.068022 0.115687 0.007727
0.085996 0.117209 0.009972
0.106452 0.119032 0.012464
0.129469 0.120872 0.015128
0.155246 0.122221 0.017938
0.184138 0.122394 0.021007
0.217015 0.120869 0.024343
0.255587 0.117576 0.026921
0.301266 0.112722 0.027823
0.354433 0.106749 0.026853
0.414508 0.100193 0.024340
0.480217 0.093552 0.020805
0.549718 0.087201 0.016756
0.620743 0.081374 0.012593
0.690806 0.076178 0.008590
0.757448 0.071631 0.004903
0.818488 0.067697 0.001600
0.872190 0.064316 0.000000
0.917448 0.061427 0.000000
0.953912 0.058990 0.000000
0.981879 0.056988 0.000000
1.000000 0.055437 0.000000
1.000000 0.054368 0.000000
1.000000 0.053820 0.000000
0.000000 0.132107 0.000300
0.000000 0.131794 0.000380
0.001219 0.131221 0.000546
0.004538 0.130476 0.000812
0.009253 0.129661 0.001199
0.015574 0.128883 0.001738
0.023724 0.128244 0.002463
0.033919 0.127835 0.003413
0.046337 0.127724 0.004622
0.061152 0.127949 0.006110
0.078498 0.128486 0.007877
0.098457 0.129224 0.009900
0.121149 0.129928 0.012147
0.146846 0.130230 0.014598
0.176025 0.129683 0.017228
0.209532 0.127938 0.019858
0.248574 0.124894 0.021930
0.294172 0.120660 0.022894
0.346721 0.115514 0.022532
0.405866 0.109830 0.020951
0.470592 0.103986 0.018451
0.539287 0.098296 0.015383
0.609876 0.092971 0.012065
0.679958 0.088126 0.008739
0.747092 0.083797 0.005563
0.809067 0.079975 0.002622
0.864031 0.076624 0.000000
0.910729 0.073709 0.000000
0.948627 0.071210 0.000000
0.977872 0.069130 0.000000
0.998995 0.067501 0.000000
1.000000 0.066369 0.000000
1.000000 0.065787 0.000000
0.000000 0.152649 0.000841
0.000000 0.152189 0.000893
0.000000 0.151332 0.001003
0.002649 0.150176 0.001181
0.006755 0.148839 0.001442
0.012350 0.147443 0.001811
0.019693 0.146107 0.002317
0.029046 0.144929 0.002995
0.040647 0.143982 0.003877
0.054688 0.143299 0.004991
0.071358 0.142855 0.006351
0.090755 0.142553 0.007956
0.113037 0.142211 0.009793
0.138515 0.141568 0.011832
0.167724 0.140332 0.014001
0.201447 0.138265 0.016117
0.240638 0.135269 0.017835
0.286086 0.131389 0.018806
0.338149 0.126793 0.018836
0.396586 0.121736 0.017930
0.460548 0.116498 0.016242
0.528609 0.111325 0.014002
0.598861 0.106400 0.011443
0.668996 0.101833 0.008766
0.736610 0.097674 0.006111
0.799482 0.093928 0.003567
0.855674 0.090584 0.001187
0.903797 0.087628 0.000000
0.943124 0.085056 0.000000
0.973652 0.082893 0.000000
0.995809 0.081182 0.000000
1.000000 0.079987 0.000000
1.000000 0.079368 0.000000
0.000000 0.177027 0.001570
0.000000 0.176416 0.001599
0.000000 0.175264 0.001659
0.001050 0.173683 0.001759
0.004594 0.171807 0.001912
0.009519 0.169774 0.002137
0.016109 0.167714 0.002460
0.024665 0.165742 0.002911
0.035469 0.163935 0.003522
0.048742 0.162331 0.004323
0.064709 0.160915 0.005336
0.083501 0.159614 0.006569
0.105307 0.158292 0.008019
0.130445 0.156771 0.009654
0.159467 0.154853 0.011399
0.193094 0.152375 0.013105
0.232148 0.149252 0.014542
0.277290 0.145489 0.015474
0.328852 0.141184 0.015741
0.386658 0.136504 0.015301
0.449964 0.131649 0.014222
0.517495 0.126809 0.012642
0.587489 0.122135 0.010727
0.657727 0.117727 0.008629
0.725848 0.113641 0.006465
0.789612 0.109896 0.004319
0.847017 0.106499 0.002247
0.896551 0.103452 0.000293
0.937314 0.100772 0.000000
0.969144 0.098497 0.000000
0.992354 0.096689 0.000000
1.000000 0.095421 0.000000
1.000000 0.094763 0.000000
0.000000 0.205789 0.002446
0.000000 0.205019 0.002454
0.000000 0.203558 0.002472
0.000000 0.201532 0.002506
0.002785 0.199094 0.002569
0.007094 0.196401 0.002675
0.012987 0.193600 0.002848
0.020793 0.190814 0.003113
0.030828 0.188133 0.003501
0.043344 0.185605 0.004042
0.058597 0.183230 0.004759
0.076752 0.180960 0.005667
0.098018 0.178700 0.006767
0.122711 0.176331 0.008032
0.151372 0.173717 0.009401
0.184668 0.170742 0.010760
0.223353 0.167333 0.011951
0.268022 0.163477 0.012804
0.318998 0.159224 0.013190
0.376152 0.154679 0.013051
0.438828 0.149984 0.012405
0.505875 0.145281 0.011328
0.575639 0.140691 0.009929
0.646011 0.136305 0.008318
0.714665 0.132175 0.006588
0.779328 0.128333 0.004812
0.837950 0.124796 0.003043
0.888895 0.121586 0.001330
0.931110 0.118736 0.000000
0.964268 0.116302 0.000000
0.988559 0.114360 0.000000
1.000000 0.112996 0.000000
1.000000 0.112289 0.000000
0.000000 0.239391 0.003424
0.000000 0.238457 0.003415
0.000000 0.236677 0.003398
0.000000 0.234193 0.003380
0.001316 0.231179 0.003369
0.005062 0.227811 0.003379
0.010309 0.224252 0.003430
0.017407 0.220639 0.003545
0.026701 0.217072 0.003750
0.038473 0.213613 0.004075
0.053006 0.210280 0.004543
0.070500 0.207052 0.005171
0.091172 0.203873 0.005964
0.115331 0.200660 0.006903
0.143493 0.197320 0.007942
0.176289 0.193768 0.008999
0.214424 0.189942 0.009960
0.258466 0.185817 0.010701
0.308744 0.181412 0.011120
0.365178 0.176791 0.011155
0.427199 0.172050 0.010796
0.493753 0.167293 0.010080
0.563280 0.162618 0.009073
0.633774 0.158100 0.007850
0.702963 0.153792 0.006482
0.768530 0.149731 0.005027
0.828368 0.145949 0.003535
0.880732 0.142486 0.002056
0.924428 0.139393 0.000644
0.958950 0.136744 0.000000
0.984357 0.134629 0.000000
1.000000 0.133143 0.000000
1.000000 0.132373 0.000000
0.000000 0.278136 0.004462
0.000000 0.277032 0.004439
0.000000 0.274926 0.004394
0.000000 0.271980 0.004334
0.000159 0.268388 0.004265
0.003389 0.264341 0.004199
0.008036 0.260021 0.004153
0.014465 0.255576 0.004147
0.023043 0.251121 0.004205
0.034086 0.246733 0.004352
0.047892 0.242449 0.004613
0.064707 0.238273 0.005004
0.084744 0.234177 0.005532
0.108305 0.230110 0.006189
0.135866 0.226005 0.006940
0.168035 0.221797 0.007728
0.205476 0.217433 0.008472
0.248762 0.212883 0.009079
0.298232 0.208150 0.009468
0.353866 0.203269 0.009581
0.415176 0.198301 0.009395
0.481196 0.193321 0.008920
0.550455 0.188402 0.008193
0.621044 0.183608 0.007262
0.690722 0.178991 0.006177
0.757160 0.174595 0.004987
0.818208 0.170464 0.003734
0.872002 0.166656 0.002464
0.917207 0.163241 0.001234
0.953131 0.160312 0.000109
0.979694 0.157971 0.000000
0.997136 0.156327 0.000000
1.000000 0.155476 0.000000
0.000000 0.322146 0.005518
0.000000 0.320872 0.005485
0.000000 0.318443 0.005420
0.000000 0.315037 0.005327
0.000000 0.310867 0.005213
0.002032 0.306145 0.005088
0.006122 0.301066 0.004966
0.011919 0.295792 0.004864
0.019807 0.290455 0.004804
0.030142 0.285149 0.004808
0.043225 0.279929 0.004898
0.059345 0.274820 0.005090
0.078717 0.269814 0.005396
0.101629 0.264881 0.005810
0.128518 0.259975 0.006312
0.159965 0.255045 0.006861
0.196609 0.250047 0.007400
0.239033 0.244948 0.007860
0.287599 0.239743 0.008177
0.342349 0.234446 0.008299
0.402878 0.229096 0.008198
0.468301 0.223739 0.007868
0.537240 0.218431 0.007325
0.607874 0.213224 0.006600
0.677988 0.208172 0.005726
0.745254 0.203328 0.004741
0.807477 0.198751 0.003682
0.862697 0.194513 0.002593
0.909430 0.190705 0.001524
0.946789 0.187434 0.000540
0.974541 0.184820 0.000000
0.992824 0.182985 0.000000
1.000000 0.182035 0.000000
0.000000 0.371243 0.006560
0.000000 0.369808 0.006519
0.000000 0.367066 0.006438
0.000000 0.363215 0.006322
0.000000 0.358487 0.006174
0.000945 0.353111 0.006005
0.004520 0.347298 0.005825
0.009726 0.341222 0.005649
0.016963 0.335030 0.005496
0.026610 0.328833 0.005385
0.038982 0.322701 0.005335
0.054396 0.316677 0.005364
0.073074 0.310769 0.005483
0.095299 0.304962 0.005692
0.121463 0.299225 0.005979
0.152126 0.293521 0.006317
0.187903 0.287814 0.006666
0.229389 0.282075 0.006975
0.276976 0.276289 0.007194
0.330769 0.270457 0.007277
0.390445 0.264597 0.007196
0.455196 0.258738 0.006938
0.523743 0.252920 0.006505
0.594354 0.247189 0.005913
0.664852 0.241598 0.005187
0.732904 0.236212 0.004354
0.796265 0.231104 0.003447
0.852882 0.226363 0.002505
0.901131 0.222094 0.001575
0.939936 0.218422 0.000716
0.968901 0.215484 0.000000
0.988047 0.213420 0.000000
0.997552 0.212351 0.000000
0.000000 0.424950 0.007557
0.000000 0.423361 0.007511
0.000000 0.420322 0.007420
0.000000 0.416051 0.007287
0.000000 0.410797 0.007116
0.000080 0.404801 0.006914
0.003182 0.398291 0.006691
0.007838 0.391459 0.006459
0.014460 0.384461 0.006234
0.023444 0.377420 0.006032
0.035121 0.370420 0.005872
0.049825 0.363518 0.005768
0.067794 0.356735 0.005732
0.089303 0.350068 0.005769
0.114712 0.343496 0.005874
0.144555 0.336994 0.006027
0.179424 0.330534 0.006203
0.219928 0.324088 0.006364
0.266489 0.317639 0.006470
0.319270 0.311179 0.006485
0.378027 0.304709 0.006381
0.442039 0.298246 0.006142
0.510125 0.291821 0.005762
0.580630 0.285478 0.005249
0.651444 0.279274 0.004619
0.720230 0.273279 0.003893
0.784677 0.267579 0.003101
0.842650 0.262276 0.002275
0.892381 0.257494 0.001461
0.932625 0.253376 0.000709
0.962810 0.250078 0.000076
0.982830 0.247758 0.000000
0.992789 0.246555 0.000000
0.000000 0.482383 0.008489
0.000000 0.480655 0.008440
0.000000 0.477351 0.008342
0.000000 0.472705 0.008198
0.000000 0.466977 0.008011
0.000000 0.460420 0.007787
0.002061 0.453276 0.007533
0.006206 0.445748 0.007260
0.012246 0.438007 0.006981
0.020592 0.430186 0.006710
0.031593 0.422381 0.006462
0.045593 0.414656 0.006252
0.062853 0.407039 0.006091
0.083636 0.399543 0.005986
0.108279 0.392156 0.005936
0.137287 0.384861 0.005930
0.171240 0.377634 0.005951
0.210745 0.370452 0.005972
0.256256 0.363296 0.005963
0.307991 0.356151 0.005894
0.365785 0.349012 0.005740
0.429008 0.341882 0.005484
0.496572 0.334791 0.005118
0.566891 0.327781 0.004645
0.637933 0.320911 0.004073
0.707379 0.314259 0.003420
0.772844 0.307922 0.002712
0.832110 0.302016 0.001978
0.883276 0.296680 0.001258
0.924941 0.292082 0.000596
0.956340 0.288399 0.000041
0.977238 0.285809 0.000000
0.987655 0.284467 0.000000
0.000000 0.542221 0.009338
0.000000 0.540377 0.009287
0.000000 0.536849 0.009185
0.000000 0.531880 0.009035
0.000000 0.525745 0.008838
0.000000 0.518708 0.008600
0.001116 0.511018 0.008326
0.004786 0.502888 0.008025
0.010279 0.494496 0.007706
0.018014 0.485987 0.007383
0.028363 0.477464 0.007068
0.041674 0.468997 0.006774
0.058238 0.460617 0.006513
0.078306 0.452349 0.006293
0.102196 0.444188 0.006114
0.130380 0.436128 0.005974
0.163425 0.428149 0.005860
0.201933 0.420232 0.005753
0.246398 0.412358 0.005633
0.297082 0.404505 0.005474
0.353897 0.396667 0.005257
0.416305 0.388845 0.004964
0.483300 0.381064 0.004588
0.553371 0.373364 0.004126
0.624560 0.365808 0.003587
0.694557 0.358483 0.002983
0.760939 0.351494 0.002337
0.821420 0.344972 0.001674
0.873962 0.339071 0.001030
0.917009 0.333981 0.000443
0.949606 0.329902 0.000000
0.971375 0.327034 0.000000
0.982248 0.325547 0.000000
0.000000 0.602707 0.010092
0.000000 0.600776 0.010041
0.000000 0.597076 0.009938
0.000000 0.591857 0.009785
0.000000 0.585401 0.009583
0.000000 0.577980 0.009337
0.000316 0.569848 0.009050
0.003551 0.561223 0.008730
0.008534 0.552291 0.008384
0.015693 0.543201 0.008023
0.025427 0.534062 0.007658
0.038078 0.524950 0.007300
0.053973 0.515905 0.006961
0.073352 0.506953 0.006648
0.096521 0.498097 0.006366
0.123911 0.489335 0.006113
0.156080 0.480658 0.005884
0.193622 0.472048 0.005666
0.237067 0.463484 0.005443
0.286718 0.454940 0.005197
0.342563 0.446413 0.004912
