luts/silbersalz-500t_v1-paired_33.cube
TITLE "silbersalz-500t_v1-paired_33"
# Generated by saltgate on 2026-08-23
# Input:  Silbersalz flat-scan code values [0,1] (Display P3 tagged)
# Output: graded display code values (Display P3)
# pairs: 5
LUT_3D_SIZE 9
DOMAIN_MIN 0.0 0.0 0.0
DOMAIN_MAX 1.0 1.0 1.0
0.084674 0.041363 0.005697
0.126259 0.041857 0.008160
0.234490 0.042900 0.016052
0.401100 0.044113 0.031521
0.598632 0.045256 0.054304
0.785303 0.046419 0.081027
0.923751 0.047827 0.106579
0.998684 0.049231 0.125548
1.000000 0.049937 0.133573
0.079372 0.047806 0.000123
0.119315 0.048404 0.001700
0.224653 0.049766 0.007806
0.389521 0.051641 0.021627
0.587519 0.053747 0.043322
0.776591 0.056026 0.069206
0.918412 0.058596 0.093935
0.996405 0.060971 0.112192
1.000000 0.062119 0.119883
0.070419 0.072405 0.000000
0.107111 0.073260 0.000000
0.206291 0.075431 0.000000
0.366606 0.078939 0.003629
0.564416 0.083361 0.022313
0.757892 0.088296 0.045575
0.906727 0.093646 0.067718
0.991312 0.098345 0.083827
1.000000 0.100551 0.090540
0.065434 0.131995 0.000000
0.099423 0.133369 0.000000
0.192494 0.136976 0.000000
0.346178 0.142852 0.000000
0.541044 0.150311 0.005199
0.737474 0.158695 0.023498
0.893380 0.167675 0.040744
0.985294 0.175417 0.052942
1.000000 0.179004 0.057918
0.066316 0.240852 0.000000
0.099039 0.243136 0.000000
0.188225 0.248899 0.000000
0.335714 0.257588 0.000000
0.525780 0.268130 0.000000
0.722181 0.279848 0.011596
0.882515 0.292215 0.022382
0.980127 0.302707 0.029498
1.000000 0.307522 0.032243
0.069189 0.395954 0.004106
0.101377 0.399329 0.002517
0.188519 0.407523 0.000000
0.332088 0.419150 0.000000
0.518165 0.432650 0.003125
0.713012 0.447187 0.008721
0.875128 0.461922 0.013389
0.976226 0.474028 0.015795
1.000000 0.479498 0.016483
0.070620 0.568653 0.017370
0.102463 0.572967 0.015694
0.188485 0.583251 0.012409
0.330003 0.597471 0.009655
0.513685 0.613566 0.008852
0.707080 0.630238 0.009356
0.869780 0.646193 0.009446
0.972995 0.658692 0.008602
1.000000 0.664208 0.007928
0.070355 0.710598 0.027104
0.101935 0.715515 0.025309
0.187272 0.727169 0.021362
0.327701 0.743154 0.016806
0.510091 0.761017 0.012978
0.702616 0.778971 0.010032
0.865644 0.795332 0.007268
0.970295 0.807586 0.004648
1.000000 0.812862 0.003306
0.069885 0.773874 0.031042
0.101343 0.779021 0.029182
0.186387 0.791203 0.024934
0.326388 0.807882 0.019618
0.508288 0.826435 0.014544
0.700495 0.844846 0.010193
0.863695 0.861267 0.006311
0.968993 0.873308 0.003060
1.000000 0.878428 0.001506
0.078922 0.042710 0.033666
0.118898 0.043435 0.037111
0.224457 0.044760 0.047764
0.389820 0.045924 0.067966
0.588296 0.046618 0.096962
0.777520 0.047251 0.130361
0.919161 0.048452 0.161936
0.996837 0.049965 0.185196
1.000000 0.050787 0.194991
0.072966 0.049181 0.023683
0.110466 0.049971 0.025886
0.211830 0.051445 0.034154
0.375464 0.053141 0.052665
0.575184 0.054736 0.081054
0.767656 0.056427 0.114255
0.913290 0.058881 0.145649
0.994328 0.061539 0.168667
1.000000 0.062901 0.178322
0.063283 0.073659 0.005410
0.095898 0.074438 0.004996
0.188027 0.076075 0.007953
0.346888 0.079130 0.022742
0.547728 0.083053 0.049368
0.746479 0.087395 0.081247
0.900582 0.092959 0.111239
0.988848 0.098447 0.132956
1.000000 0.101134 0.141980
0.059026 0.133212 0.000000
0.088825 0.134014 0.000000
0.173937 0.136268 0.000000
0.324112 0.141251 0.000000
0.521079 0.148116 0.021560
0.724059 0.155896 0.049065
0.886629 0.165612 0.074569
0.982765 0.174909 0.092672
1.000000 0.179371 0.100089
0.061642 0.242964 0.000000
0.091490 0.244521 0.000000
0.174664 0.248785 0.000000
0.317274 0.256087 0.000000
0.507396 0.265315 0.009327
0.709531 0.276089 0.029548
0.876536 0.289472 0.047680
0.978223 0.302098 0.059914
1.000000 0.308097 0.064751
0.065975 0.399889 0.000000
0.096245 0.402656 0.000000
0.179201 0.409564 0.000000
0.318819 0.419657 0.000000
0.504568 0.431455 0.007482
0.703692 0.444879 0.020278
0.871185 0.460451 0.031239
0.975431 0.474562 0.037669
1.000000 0.481172 0.039888
0.068433 0.574529 0.009890
0.098897 0.578393 0.008362
0.182003 0.587676 0.005742
0.320928 0.600592 0.004955
0.504633 0.615291 0.008256
0.701131 0.631123 0.014524
0.867619 0.647569 0.019991
0.972908 0.661384 0.022506
1.000000 0.667676 0.023029
0.068887 0.717847 0.017524
0.099396 0.722430 0.015918
0.182557 0.733327 0.012599
0.321189 0.748340 0.009549
0.503705 0.765266 0.008702
0.698426 0.782714 0.010120
0.864069 0.799315 0.011766
0.970149 0.812257 0.012110
1.000000 0.817950 0.011863
0.068731 0.781664 0.020590
0.099235 0.786524 0.018931
0.182368 0.798059 0.015293
0.320818 0.813930 0.011308
0.502793 0.831761 0.008749
0.696770 0.849808 0.008096
0.862106 0.866372 0.008100
0.968633 0.878843 0.007614
1.000000 0.884227 0.007130
0.069061 0.046106 0.111647
0.105713 0.047613 0.117233
0.205373 0.050022 0.133819
0.367300 0.051198 0.163751
0.566813 0.050527 0.205071
0.760882 0.049491 0.251633
0.909166 0.049950 0.295221
0.992758 0.051624 0.327133
1.000000 0.052700 0.340521
0.062569 0.052676 0.091476
0.095063 0.054418 0.095090
0.187342 0.056901 0.108015
0.347783 0.058345 0.135970
0.550019 0.058125 0.177487
0.749016 0.057661 0.225355
0.902483 0.059481 0.270538
0.989909 0.062724 0.303563
1.000000 0.064585 0.317373
0.052839 0.076724 0.051244
0.076629 0.078127 0.049895
0.147360 0.079282 0.052425
0.306650 0.081841 0.077296
0.513088 0.083585 0.119109
0.723301 0.085096 0.169147
0.888415 0.090802 0.216754
0.984063 0.098248 0.251278
1.000000 0.102153 0.265604
0.050394 0.135748 0.016255
0.071854 0.135153 0.011251
0.134347 0.133530 0.005208
0.276818 0.137034 0.023861
0.475674 0.142770 0.064350
0.696578 0.147429 0.111776
0.874211 0.159056 0.156874
0.978589 0.172739 0.189495
1.000000 0.179583 0.202956
0.054961 0.247393 0.000806
0.079449 0.246943 0.000000
0.149024 0.247187 0.000000
0.277617 0.251295 0.006389
0.464951 0.256998 0.037621
0.683148 0.263418 0.076191
0.866656 0.279954 0.111098
0.976446 0.299191 0.135827
1.000000 0.308617 0.145926
0.060438 0.408668 0.000000
0.086682 0.409802 0.000000
0.160039 0.413446 0.000000
0.289332 0.419895 0.001904
0.473829 0.426954 0.023079
0.685229 0.436142 0.053524
0.866819 0.454209 0.079516
0.977135 0.474643 0.095098
1.000000 0.484622 0.100789
0.064012 0.588056 0.000349
0.091268 0.590786 0.000000
0.167430 0.597674 0.000000
0.300140 0.607604 0.000000
0.484730 0.618861 0.011796
0.690569 0.632283 0.032356
0.867181 0.650122 0.051656
0.976131 0.667777 0.062028
1.000000 0.676251 0.065065
0.065659 0.734756 0.001861
0.093573 0.738558 0.000778
0.171463 0.747770 0.000000
0.305923 0.760750 0.000000
0.489532 0.775765 0.004097
0.690865 0.792229 0.015829
0.863434 0.809613 0.028569
0.972122 0.824398 0.036147
1.000000 0.831157 0.038389
0.066121 0.799907 0.002365
0.094289 0.804127 0.001324
0.172769 0.814287 0.000000
0.307604 0.828583 0.000000
0.490345 0.845138 0.001006
0.689524 0.862697 0.008823
0.860450 0.879829 0.018231
0.969402 0.893409 0.024472
1.000000 0.899417 0.026519
0.063024 0.050693 0.246897
0.096499 0.053484 0.254726
0.189522 0.058088 0.277753
0.345667 0.059738 0.317250
0.543930 0.056878 0.369015
0.741971 0.053049 0.426141
0.897320 0.052152 0.479587
0.987776 0.053890 0.518856
1.000000 0.055265 0.535364
0.057652 0.057431 0.213954
0.086829 0.060959 0.218539
0.170806 0.067173 0.237606
0.324368 0.069236 0.275527
0.525340 0.065029 0.327596
0.729344 0.060211 0.387519
0.890530 0.060485 0.445041
0.984888 0.064296 0.487531
1.000000 0.066787 0.505374
0.050985 0.080840 0.145217
0.073779 0.083627 0.139374
0.129819 0.095593 0.153626
0.281286 0.097058 0.183921
0.483588 0.089069 0.232261
0.703009 0.082875 0.299509
0.877408 0.087690 0.366612
0.979655 0.097681 0.416035
1.000000 0.103267 0.436616
0.050375 0.139029 0.081045
0.073613 0.135768 0.069038
0.124264 0.132052 0.070065
0.248054 0.141036 0.093922
0.432554 0.139693 0.130993
0.678107 0.133596 0.200508
0.866935 0.148293 0.273752
0.976760 0.168847 0.327595
1.000000 0.179279 0.349777
0.052959 0.253053 0.044854
0.075461 0.249094 0.039327
0.135489 0.243039 0.036764
0.240941 0.244285 0.045743
0.416084 0.246572 0.090071
0.662415 0.238570 0.146143
0.865228 0.262259 0.202715
0.980188 0.293575 0.247739
1.000000 0.308621 0.266510
0.056054 0.420126 0.025565
0.078187 0.418502 0.023274
0.140304 0.417248 0.020822
0.254619 0.419771 0.025613
0.437662 0.420034 0.055327
0.671905 0.418254 0.112546
0.876001 0.440718 0.159575
0.988531 0.473814 0.186500
1.000000 0.489573 0.196965
0.059142 0.606100 0.012095
0.082108 0.607146 0.011471
0.148670 0.610886 0.010619
0.272811 0.617712 0.012995
0.461532 0.625087 0.029510
0.686403 0.634800 0.069657
0.880601 0.654634 0.112547
0.989275 0.678663 0.132814
1.000000 0.690480 0.138035
0.061701 0.757542 0.002038
0.085890 0.760373 0.002231
0.156132 0.767776 0.002777
0.284734 0.779177 0.005245
0.471577 0.793134 0.015427
0.685924 0.809333 0.039066
0.870241 0.828176 0.068041
0.979883 0.845543 0.085711
1.000000 0.853593 0.090756
0.062842 0.824559 0.000000
0.087613 0.828073 0.000000
0.159267 0.836959 0.000000
0.288890 0.850349 0.002146
0.473607 0.866809 0.010466
0.682292 0.885026 0.027532
0.862390 0.903476 0.048781
0.973446 0.918479 0.063830
1.000000 0.925085 0.069018
0.062999 0.054953 0.435498
0.094213 0.058662 0.444676
0.181572 0.065217 0.471290
0.330773 0.067756 0.514548
0.525313 0.063282 0.567500
0.724992 0.057066 0.624093
0.885951 0.054980 0.677197
0.982755 0.056822 0.716718
1.000000 0.058501 0.733469
0.058617 0.062336 0.394100
0.086290 0.066836 0.399071
0.165183 0.076608 0.422411
0.310081 0.081012 0.466857
0.507055 0.073338 0.519758
0.713009 0.064078 0.578676
0.879691 0.062533 0.637016
0.980032 0.066752 0.681463
1.000000 0.069821 0.700402
0.053125 0.086708 0.304633
0.076210 0.089435 0.293522
0.132301 0.105379 0.301796
0.266052 0.119740 0.357179
0.468111 0.101557 0.404224
0.690838 0.084451 0.468521
0.869553 0.086544 0.541312
0.976068 0.098451 0.598358
1.000000 0.105564 0.622561
0.051504 0.145711 0.213646
0.074746 0.140587 0.191517
0.138022 0.133270 0.152385
0.230694 0.171068 0.219792
0.428341 0.152280 0.250625
0.680558 0.125606 0.320297
0.867198 0.140131 0.415785
0.977029 0.166692 0.489421
1.000000 0.180576 0.519631
0.051184 0.261842 0.151713
0.072594 0.253276 0.141642
0.135099 0.236678 0.127414
0.221427 0.246863 0.137753
0.421304 0.236586 0.152649
0.679242 0.225423 0.207680
0.875647 0.248566 0.305939
0.987712 0.290123 0.384283
1.000000 0.310847 0.415084
0.051630 0.434225 0.108094
0.069599 0.428855 0.106519
0.121058 0.420926 0.104046
0.220486 0.422400 0.097662
0.414959 0.418036 0.100181
0.679102 0.411086 0.178143
0.907457 0.430290 0.253749
1.000000 0.476628 0.303232
1.000000 0.498551 0.323054
0.054255 0.626716 0.071410
0.072330 0.625845 0.073591
0.127576 0.626615 0.077060
0.240610 0.633042 0.075684
0.437568 0.641290 0.075989
0.696519 0.650634 0.120735
0.918505 0.669442 0.204521
1.000000 0.698600 0.235580
1.000000 0.712887 0.242209
0.057878 0.782916 0.043189
0.077688 0.784962 0.046859
0.138544 0.791560 0.054177
0.258940 0.804171 0.061034
0.449088 0.821332 0.069814
0.683255 0.840305 0.094908
0.885705 0.860389 0.138672
0.991243 0.879498 0.167754
1.000000 0.887397 0.174918
0.059789 0.851789 0.030758
0.080537 0.854889 0.034909
0.143772 0.863628 0.043903
0.266052 0.878638 0.054756
0.451862 0.898605 0.067994
0.672939 0.920358 0.088538
0.866026 0.940834 0.115729
0.978345 0.956289 0.136574
1.000000 0.962139 0.143769
0.066475 0.057807 0.650310
0.096100 0.061378 0.659410
0.179172 0.067829 0.684198
0.321972 0.070600 0.721680
0.511560 0.066343 0.764254
0.710791 0.060152 0.807590
0.875615 0.058317 0.848175
0.977826 0.060710 0.878894
1.000000 0.062740 0.892069
0.061619 0.066830 0.610400
0.087984 0.071037 0.617353
0.163885 0.080132 0.641351
0.301907 0.084847 0.681090
0.493419 0.077647 0.723433
0.698901 0.067855 0.767094
0.869366 0.066151 0.811718
0.974957 0.070951 0.847367
1.000000 0.074471 0.862931
0.053220 0.095287 0.521084
0.072982 0.098760 0.520812
0.130736 0.113130 0.540885
0.255254 0.126910 0.590566
0.453004 0.110724 0.627063
0.677210 0.089833 0.666254
0.860175 0.090334 0.721674
0.971320 0.103137 0.770631
1.000000 0.111082 0.792254
0.047135 0.158518 0.417742
0.062261 0.154928 0.409459
0.102651 0.160150 0.412299
0.198981 0.202569 0.491838
0.406267 0.171661 0.500212
0.670049 0.129417 0.514654
0.862751 0.141981 0.593093
0.974494 0.171612 0.664087
1.000000 0.187357 0.694009
0.044688 0.277280 0.329336
0.058268 0.266190 0.325664
0.100192 0.242375 0.324186
0.196717 0.255646 0.329970
0.370190 0.267308 0.369381
0.699505 0.201710 0.333286
0.881990 0.245078 0.458798
0.988836 0.295993 0.551627
1.000000 0.320318 0.586753
0.045491 0.453036 0.255144
0.057640 0.444648 0.261062
0.096744 0.429065 0.277644
0.176903 0.428589 0.287729
0.360729 0.436652 0.252651
0.683578 0.433391 0.271802
0.902761 0.435128 0.357767
1.000000 0.487783 0.450241
1.000000 0.514749 0.481784
0.049723 0.649587 0.188540
0.062883 0.647336 0.198620
0.106725 0.646553 0.220939
0.204665 0.658099 0.236269
0.394269 0.680115 0.216747
0.694490 0.697399 0.193615
0.962590 0.696866 0.275869
1.000000 0.725884 0.359185
1.000000 0.742785 0.381018
0.055109 0.808746 0.136905
0.070655 0.810495 0.147944
0.121832 0.817879 0.172375
0.230879 0.835669 0.198046
0.414561 0.862954 0.213032
0.660998 0.890007 0.222494
0.894365 0.907967 0.248147
0.993933 0.927529 0.286954
1.000000 0.929069 0.299101
0.057904 0.878743 0.114224
0.074709 0.881866 0.125461
0.129168 0.891821 0.151086
0.241716 0.911312 0.182494
0.422992 0.939160 0.211009
0.652434 0.968250 0.232945
0.862230 0.990759 0.249231
0.977418 1.000000 0.260222
1.000000 1.000000 0.263876
0.071195 0.059004 0.844195
0.099833 0.061588 0.851117
0.180002 0.066204 0.868620
0.317786 0.068267 0.892891
0.502381 0.065520 0.918022
0.699771 0.061766 0.941658
0.866822 0.061871 0.963302
0.973249 0.065381 0.979834
1.000000 0.067818 0.986977
0.065860 0.070039 0.812721
0.091681 0.072781 0.819551
0.165970 0.078318 0.838474
0.299186 0.081032 0.865602
0.484604 0.076467 0.891570
0.687239 0.070487 0.915277
0.859730 0.071082 0.939364
0.969735 0.076890 0.959478
1.000000 0.080732 0.968493
0.055075 0.103892 0.738344
0.074446 0.105694 0.744577
0.134169 0.112022 0.766946
0.255016 0.117766 0.803441
0.443703 0.109004 0.830168
0.662408 0.096627 0.850082
0.848150 0.099604 0.879207
0.964731 0.112535 0.908080
1.000000 0.120391 0.921523
0.044816 0.174328 0.639930
0.056999 0.171221 0.645738
0.097931 0.170495 0.670753
0.197140 0.182820 0.725828
0.391316 0.172283 0.754467
0.644671 0.148789 0.757721
0.847969 0.159956 0.793219
0.967160 0.186837 0.834054
1.000000 0.201452 0.852614
0.039750 0.298293 0.536781
0.047724 0.289074 0.546917
0.076835 0.270478 0.578218
0.152398 0.270405 0.636212
0.338201 0.275042 0.685322
0.656538 0.246748 0.665861
0.873052 0.274835 0.707277
0.983495 0.318791 0.753461
1.000000 0.340378 0.772749
0.041137 0.476078 0.435549
0.048752 0.468075 0.453601
0.078662 0.452128 0.504815
0.152650 0.445391 0.593877
0.313623 0.448892 0.627709
0.702146 0.458911 0.616460
0.911048 0.475593 0.647300
1.000000 0.517268 0.671741
1.000000 0.540466 0.685395
0.047289 0.673240 0.339689
0.056969 0.670926 0.360997
0.093424 0.670548 0.414914
0.182764 0.687125 0.486760
0.356359 0.729918 0.529063
0.569020 0.762991 0.542401
0.938673 0.737981 0.524707
1.000000 0.757513 0.564856
1.000000 0.772436 0.585571
0.054297 0.832584 0.264807
0.066748 0.834419 0.285991
0.110917 0.842989 0.337239
0.210705 0.865758 0.405271
0.381667 0.904539 0.468814
0.611598 0.946445 0.507909
0.884583 0.971652 0.493167
0.990349 0.976219 0.493952
1.000000 0.956814 0.493958
0.057793 0.902599 0.231925
0.071636 0.905891 0.252767
0.119370 0.917131 0.303216
0.223611 0.940780 0.372670
0.398062 0.976453 0.444791
0.629251 1.000000 0.498012
0.854973 1.000000 0.507686
0.972669 1.000000 0.476515
1.000000 1.000000 0.459952
0.075358 0.059156 0.974280
0.103490 0.060700 0.977863
0.181991 0.063367 0.986228
0.316543 0.064546 0.996397
0.497361 0.063349 1.000000
0.692705 0.062479 1.000000
0.860687 0.064925 1.000000
0.969823 0.069628 1.000000
1.000000 0.072427 1.000000
0.070118 0.071836 0.952654
0.095866 0.073123 0.957200
0.169446 0.075424 0.968231
0.299816 0.076087 0.981879
0.480470 0.073798 0.992770
0.679668 0.072268 1.000000
0.852591 0.075849 1.000000
0.965510 0.082727 1.000000
1.000000 0.086771 1.000000
0.058874 0.110291 0.896465
0.079026 0.110326 0.903524
0.140689 0.110797 0.921870
0.260669 0.110205 0.945865
0.441866 0.105743 0.963232
0.652445 0.103044 0.972605
0.837742 0.110173 0.982309
0.958386 0.122995 0.992405
1.000000 0.130288 0.997376
0.046996 0.187646 0.810587
0.060245 0.184578 0.821959
0.106197 0.179634 0.852468
0.210924 0.176471 0.895604
0.394552 0.171173 0.927214
0.627296 0.169364 0.939187
0.830974 0.183750 0.949619
0.957955 0.205786 0.961195
1.000000 0.217644 0.966882
0.040137 0.317349 0.704741
0.048214 0.311019 0.723081
0.081340 0.298774 0.771784
0.169974 0.290214 0.843240
0.355477 0.288821 0.904538
0.623463 0.296771 0.927905
0.848576 0.320707 0.931382
0.973169 0.349416 0.931488
1.000000 0.364023 0.931468
0.040931 0.496667 0.587791
0.047641 0.491032 0.613816
0.077495 0.480806 0.682962
0.160238 0.476905 0.789600
0.343521 0.488663 0.900985
0.645199 0.517248 0.967198
0.892129 0.540390 0.949178
1.000000 0.558454 0.910536
1.000000 0.568301 0.894834
0.047543 0.692596 0.471974
0.056002 0.691031 0.501648
0.090953 0.691689 0.578253
0.181593 0.705544 0.694268
0.360203 0.740792 0.830843
0.632163 0.789153 0.970776
0.910618 0.810724 0.984110
1.000000 0.799815 0.886444
1.000000 0.792042 0.852289
0.055155 0.850459 0.380613
0.066173 0.852398 0.410415
0.107654 0.861094 0.485663
0.205760 0.883793 0.597828
0.379906 0.923804 0.730642
0.621787 0.973352 0.859497
0.890793 1.000000 0.931734
0.998517 0.983288 0.863128
1.000000 0.952330 0.800875
0.058927 0.919819 0.340401
0.071246 0.923102 0.369792
0.115857 0.934466 0.443649
0.217418 0.958734 0.553668
0.392334 0.995821 0.683348
0.627931 1.000000 0.802949
0.858913 1.000000 0.865012
0.973485 1.000000 0.828268
0.998880 1.000000 0.776615
0.077274 0.059079 1.000000
0.105236 0.060145 1.000000
0.183129 0.061926 1.000000
0.316420 0.062694 1.000000
0.495641 0.062214 1.000000
0.689978 0.062744 1.000000
0.858185 0.066358 1.000000
0.968368 0.071647 1.000000
1.000000 0.074615 1.000000
0.072215 0.072492 1.000000
0.097991 0.073147 1.000000
0.171373 0.074107 1.000000
0.300678 0.073928 1.000000
0.479309 0.072598 1.000000
0.676793 0.073120 1.000000
0.849612 0.078179 1.000000
0.963641 0.085583 1.000000
1.000000 0.089708 1.000000
0.061154 0.113023 0.961059
0.081798 0.112337 0.967553
0.144444 0.110734 0.982865
0.264280 0.108106 1.000000
0.442343 0.105163 1.000000
0.648849 0.106359 1.000000
0.833159 0.115511 1.000000
0.955342 0.128302 1.000000
1.000000 0.135270 1.000000
0.049060 0.193585 0.882710
0.063265 0.190495 0.895118
0.112008 0.184308 0.925656
0.219340 0.178164 0.965248
0.398657 0.174804 0.996524
0.621569 0.179477 1.000000
0.822733 0.195583 1.000000
0.952899 0.215544 1.000000
1.000000 0.225967 1.000000
0.041617 0.326082 0.777793
0.050642 0.320946 0.798279
0.087690 0.310895 0.850071
0.183820 0.303036 0.922423
0.366726 0.304092 0.988855
0.612472 0.317869 1.000000
0.832793 0.341463 1.000000
0.965280 0.364777 1.000000
1.000000 0.376076 1.000000
0.041905 0.506154 0.655647
0.049085 0.501767 0.684086
0.081918 0.494420 0.757276
0.173730 0.493427 0.866177
0.359589 0.507671 0.983007
0.623899 0.536071 1.000000
0.861529 0.562254 1.000000
0.990069 0.576438 1.000000
1.000000 0.581277 1.000000
0.048340 0.701256 0.532221
0.056788 0.700149 0.564969
0.092799 0.701420 0.649256
0.187631 0.714123 0.778374
0.370866 0.745158 0.932893
0.631488 0.787614 1.000000
0.880566 0.813943 1.000000
1.000000 0.807346 1.000000
1.000000 0.797240 1.000000
0.055958 0.858122 0.434352
0.066658 0.860075 0.467839
0.107917 0.868508 0.553397
0.207347 0.889897 0.684671
0.386052 0.926928 0.846156
0.631912 0.970137 1.000000
0.875602 0.991570 1.000000
0.998305 0.967093 1.000000
1.000000 0.946994 1.000000
0.059753 0.927041 0.391208
0.071640 0.930243 0.424452
0.115587 0.941284 0.509085
0.217416 0.964707 0.638504
0.394707 0.999950 0.796996
0.632211 1.000000 0.952516
0.859457 1.000000 1.000000
0.978382 1.000000 1.000000
1.000000 0.999920 1.000000
