luts/silbersalz-500t_v1-paired_33.cube
TITLE "silbersalz-500t_v1-paired_33"
# Generated by saltgate on 2026-08-23
# Input:  Silbersalz flat-scan code values [0,1] (Display P3 tagged)
# Output: graded display code values (Display P3)
# pairs: 5
LUT_3D_SIZE 5
DOMAIN_MIN 0.0 0.0 0.0
DOMAIN_MAX 1.0 1.0 1.0
0.084674 0.041363 0.005697
0.234490 0.042900 0.016052
0.598632 0.045256 0.054304
0.923751 0.047827 0.106579
1.000000 0.049937 0.133573
0.070419 0.072405 0.000000
0.206291 0.075431 0.000000
0.564416 0.083361 0.022313
0.906727 0.093646 0.067718
1.000000 0.100551 0.090540
0.066316 0.240852 0.000000
0.188225 0.248899 0.000000
0.525780 0.268130 0.000000
0.882515 0.292215 0.022382
1.000000 0.307522 0.032243
0.070620 0.568653 0.017370
0.188485 0.583251 0.012409
0.513685 0.613566 0.008852
0.869780 0.646193 0.009446
1.000000 0.664208 0.007928
0.069885 0.773874 0.031042
0.186387 0.791203 0.024934
0.508288 0.826435 0.014544
0.863695 0.861267 0.006311
1.000000 0.878428 0.001506
0.069061 0.046106 0.111647
0.205373 0.050022 0.133819
0.566813 0.050527 0.205071
0.909166 0.049950 0.295221
1.000000 0.052700 0.340521
0.052839 0.076724 0.051244
0.147360 0.079282 0.052425
0.513088 0.083585 0.119109
0.888415 0.090802 0.216754
1.000000 0.102153 0.265604
0.054961 0.247393 0.000806
0.149024 0.247187 0.000000
0.464951 0.256998 0.037621
0.866656 0.279954 0.111098
1.000000 0.308617 0.145926
0.064012 0.588056 0.000349
0.167430 0.597674 0.000000
0.484730 0.618861 0.011796
0.867181 0.650122 0.051656
1.000000 0.676251 0.065065
0.066121 0.799907 0.002365
0.172769 0.814287 0.000000
0.490345 0.845138 0.001006
0.860450 0.879829 0.018231
1.000000 0.899417 0.026519
0.062999 0.054953 0.435498
0.181572 0.065217 0.471290
0.525313 0.063282 0.567500
0.885951 0.054980 0.677197
1.000000 0.058501 0.733469
0.053125 0.086708 0.304633
0.132301 0.105379 0.301796
0.468111 0.101557 0.404224
0.869553 0.086544 0.541312
1.000000 0.105564 0.622561
0.051184 0.261842 0.151713
0.135099 0.236678 0.127414
0.421304 0.236586 0.152649
0.875647 0.248566 0.305939
1.000000 0.310847 0.415084
0.054255 0.626716 0.071410
0.127576 0.626615 0.077060
0.437568 0.641290 0.075989
0.918505 0.669442 0.204521
1.000000 0.712887 0.242209
0.059789 0.851789 0.030758
0.143772 0.863628 0.043903
0.451862 0.898605 0.067994
0.866026 0.940834 0.115729
1.000000 0.962139 0.143769
0.071195 0.059004 0.844195
0.180002 0.066204 0.868620
0.502381 0.065520 0.918022
0.866822 0.061871 0.963302
1.000000 0.067818 0.986977
0.055075 0.103892 0.738344
0.134169 0.112022 0.766946
0.443703 0.109004 0.830168
0.848150 0.099604 0.879207
1.000000 0.120391 0.921523
0.039750 0.298293 0.536781
0.076835 0.270478 0.578218
0.338201 0.275042 0.685322
0.873052 0.274835 0.707277
1.000000 0.340378 0.772749
0.047289 0.673240 0.339689
0.093424 0.670548 0.414914
0.356359 0.729918 0.529063
0.938673 0.737981 0.524707
1.000000 0.772436 0.585571
0.057793 0.902599 0.231925
0.119370 0.917131 0.303216
0.398062 0.976453 0.444791
0.854973 1.000000 0.507686
1.000000 1.000000 0.459952
0.077274 0.059079 1.000000
0.183129 0.061926 1.000000
0.495641 0.062214 1.000000
0.858185 0.066358 1.000000
1.000000 0.074615 1.000000
0.061154 0.113023 0.961059
0.144444 0.110734 0.982865
0.442343 0.105163 1.000000
0.833159 0.115511 1.000000
1.000000 0.135270 1.000000
0.041617 0.326082 0.777793
0.087690 0.310895 0.850071
0.366726 0.304092 0.988855
0.832793 0.341463 1.000000
1.000000 0.376076 1.000000
0.048340 0.701256 0.532221
0.092799 0.701420 0.649256
0.370866 0.745158 0.932893
0.880566 0.813943 1.000000
1.000000 0.797240 1.000000
0.059753 0.927041 0.391208
0.115587 0.941284 0.509085
0.394707 0.999950 0.796996
0.859457 1.000000 1.000000
1.000000 0.999920 1.000000
