luts/silbersalz-500t_v1.1-paired_33.cube
TITLE "500t_stageC_holdout"
# Generated by saltgate on 2026-08-24
# Input:  Silbersalz flat-scan code values [0,1] (Display P3 tagged)
# Output: graded display code values (Display P3)
# pairs: 5
LUT_3D_SIZE 5
DOMAIN_MIN 0.0 0.0 0.0
DOMAIN_MAX 1.0 1.0 1.0
0.080831 0.042180 0.005543
0.232151 0.044408 0.016318
0.599129 0.046088 0.053547
0.924605 0.047665 0.104159
1.000000 0.049725 0.130759
0.068332 0.074252 0.000000
0.205636 0.078623 0.000000
0.565465 0.084953 0.023634
0.907689 0.092921 0.066099
1.000000 0.099269 0.087728
0.066341 0.240274 0.000000
0.188968 0.249889 0.000000
0.527027 0.268626 0.003264
0.883735 0.290689 0.022583
1.000000 0.305235 0.030459
0.069692 0.567344 0.018902
0.187214 0.582714 0.014407
0.513517 0.613533 0.010896
0.870734 0.645854 0.010074
1.000000 0.663581 0.007418
0.068489 0.774475 0.031913
0.184145 0.792069 0.025814
0.506979 0.827635 0.015305
0.864098 0.862576 0.006598
1.000000 0.879689 0.001360
0.066666 0.049563 0.110114
0.205078 0.054823 0.134521
0.568944 0.053150 0.205858
0.910450 0.050066 0.295015
1.000000 0.052498 0.340369
0.055111 0.082306 0.050728
0.152067 0.087242 0.054293
0.516945 0.088632 0.121730
0.890480 0.091317 0.217055
1.000000 0.101664 0.265106
0.059697 0.249152 0.002911
0.156329 0.252667 0.002721
0.470336 0.262380 0.045939
0.869890 0.281709 0.114165
1.000000 0.308733 0.146098
0.064352 0.587974 0.001447
0.168018 0.599304 0.000000
0.487359 0.621889 0.015276
0.869909 0.652743 0.054056
1.000000 0.677857 0.065529
0.064965 0.800956 0.002449
0.171081 0.815997 0.000000
0.489937 0.847728 0.001500
0.861285 0.882513 0.018545
1.000000 0.901739 0.026238
0.062944 0.058893 0.431945
0.183016 0.071756 0.472821
0.528764 0.066203 0.570455
0.887782 0.054858 0.680104
1.000000 0.058181 0.736959
0.060447 0.090961 0.294352
0.138831 0.120604 0.307124
0.478387 0.106141 0.404723
0.873882 0.087672 0.543399
1.000000 0.106064 0.625561
0.059090 0.263410 0.148938
0.142395 0.245358 0.134494
0.437562 0.247804 0.159019
0.881662 0.256458 0.310435
1.000000 0.314826 0.418481
0.055978 0.627935 0.070700
0.130905 0.631397 0.078581
0.445300 0.649749 0.081237
0.923809 0.676974 0.209893
1.000000 0.717823 0.245455
0.059290 0.853447 0.028357
0.143330 0.866653 0.041995
0.452490 0.903036 0.068498
0.866773 0.944530 0.117800
1.000000 0.964963 0.145666
0.070011 0.059687 0.844453
0.179129 0.068089 0.871208
0.503255 0.065878 0.920482
0.867869 0.061177 0.964945
1.000000 0.067382 0.988691
0.056285 0.104911 0.737805
0.136692 0.116786 0.772190
0.449803 0.110458 0.832468
0.851513 0.099710 0.880475
1.000000 0.120718 0.923628
0.042681 0.298174 0.537920
0.082614 0.275063 0.585902
0.354482 0.278409 0.687622
0.880961 0.281697 0.710574
1.000000 0.344382 0.775464
0.048652 0.674065 0.339305
0.097205 0.675164 0.416813
0.362626 0.737844 0.533080
0.946927 0.745804 0.529349
1.000000 0.776413 0.589878
0.057699 0.904159 0.228553
0.119560 0.919952 0.300018
0.399210 0.979257 0.443968
0.856842 1.000000 0.510607
1.000000 1.000000 0.464213
0.075401 0.057986 1.000000
0.180835 0.061241 1.000000
0.494610 0.061287 1.000000
0.858464 0.065565 1.000000
1.000000 0.074222 1.000000
0.060172 0.111756 0.963212
0.143695 0.110461 0.985620
0.443821 0.104729 1.000000
0.834620 0.115219 1.000000
1.000000 0.135249 1.000000
0.042107 0.324679 0.781541
0.089824 0.311814 0.855370
0.374237 0.308042 0.992146
0.837023 0.345609 1.000000
1.000000 0.378554 1.000000
0.048912 0.701367 0.532988
0.095067 0.703785 0.650373
0.378664 0.750762 0.932819
0.884496 0.818046 1.000000
1.000000 0.799571 1.000000
0.059575 0.928250 0.388718
0.115794 0.943212 0.505891
0.398234 1.000000 0.792916
0.862837 1.000000 1.000000
1.000000 0.999635 1.000000
