luts/silbersalz-50d_v0-statistical_33.cube
TITLE "silbersalz-50d_v0-statistical_33"
# Generated by saltgate on 2026-08-23
# Input:  Silbersalz flat-scan code values [0,1] (Display P3 tagged)
# Output: graded display code values (Display P3)
# track: v0-statistical
LUT_3D_SIZE 33
DOMAIN_MIN 0.0 0.0 0.0
DOMAIN_MAX 1.0 1.0 1.0
0.007488 0.009980 0.019777
0.007489 0.009980 0.019777
0.007494 0.009980 0.019777
0.007520 0.009977 0.019775
0.007654 0.009961 0.019764
0.007735 0.009953 0.019758
0.007784 0.009947 0.019754
0.007813 0.009944 0.019752
0.007830 0.009942 0.019751
0.007847 0.009941 0.019750
0.007885 0.009938 0.019748
0.008008 0.009933 0.019744
0.008517 0.009918 0.019733
0.010911 0.009865 0.019692
0.022671 0.009647 0.019523
0.081260 0.008709 0.018781
0.118570 0.008233 0.018373
0.143093 0.007963 0.018124
0.182630 0.007579 0.017747
0.240136 0.007085 0.017227
0.317022 0.006516 0.016578
0.410244 0.005934 0.015852
0.518631 0.005373 0.015081
0.633387 0.004880 0.014340
0.741547 0.004489 0.013703
0.841801 0.004177 0.013159
0.909971 0.003987 0.012811
0.933772 0.003923 0.012692
0.940277 0.003906 0.012660
0.943052 0.003899 0.012646
0.947131 0.003888 0.012625
0.957601 0.003858 0.012566
0.983778 0.003771 0.012396
0.007475 0.010363 0.019681
0.007476 0.010363 0.019681
0.007481 0.010362 0.019680
0.007507 0.010359 0.019678
0.007641 0.010343 0.019668
0.007722 0.010333 0.019662
0.007771 0.010327 0.019658
0.007799 0.010324 0.019656
0.007816 0.010322 0.019655
0.007833 0.010320 0.019654
0.007871 0.010318 0.019652
0.007994 0.010312 0.019648
0.008503 0.010296 0.019637
0.010895 0.010240 0.019596
0.022645 0.010009 0.019428
0.081178 0.008998 0.018693
0.118480 0.008491 0.018288
0.143002 0.008205 0.018041
0.182539 0.007799 0.017667
0.240044 0.007277 0.017152
0.316931 0.006677 0.016508
0.410152 0.006068 0.015788
0.518539 0.005483 0.015024
0.633296 0.004970 0.014289
0.741455 0.004565 0.013656
0.841710 0.004243 0.013116
0.909880 0.004046 0.012770
0.933681 0.003981 0.012652
0.940186 0.003963 0.012620
0.942961 0.003956 0.012606
0.947041 0.003945 0.012584
0.957519 0.003914 0.012526
0.983751 0.003824 0.012358
0.007470 0.010512 0.019645
0.007471 0.010512 0.019644
0.007476 0.010511 0.019644
0.007502 0.010508 0.019642
0.007636 0.010491 0.019632
0.007716 0.010481 0.019625
0.007765 0.010475 0.019622
0.007794 0.010472 0.019620
0.007811 0.010470 0.019618
0.007828 0.010468 0.019617
0.007865 0.010465 0.019616
0.007989 0.010459 0.019612
0.008497 0.010443 0.019601
0.010888 0.010385 0.019560
0.022633 0.010148 0.019392
0.081149 0.009111 0.018659
0.118446 0.008591 0.018256
0.142968 0.008299 0.018010
0.182504 0.007884 0.017637
0.240010 0.007351 0.017124
0.316896 0.006740 0.016482
0.410118 0.006120 0.015764
0.518505 0.005525 0.015002
0.633261 0.005005 0.014269
0.741421 0.004594 0.013638
0.841676 0.004268 0.013099
0.909845 0.004069 0.012754
0.933646 0.004003 0.012636
0.940152 0.003985 0.012604
0.942926 0.003978 0.012590
0.947008 0.003966 0.012569
0.957489 0.003935 0.012511
0.983738 0.003844 0.012343
0.007468 0.010592 0.019626
0.007469 0.010592 0.019625
0.007474 0.010592 0.019625
0.007500 0.010588 0.019623
0.007633 0.010571 0.019613
0.007714 0.010561 0.019606
0.007763 0.010555 0.019603
0.007791 0.010552 0.019601
0.007808 0.010550 0.019599
0.007825 0.010548 0.019598
0.007862 0.010545 0.019597
0.007986 0.010539 0.019593
0.008494 0.010523 0.019582
0.010884 0.010464 0.019541
0.022627 0.010223 0.019374
0.081133 0.009172 0.018642
0.118429 0.008645 0.018239
0.142950 0.008349 0.017994
0.182486 0.007929 0.017622
0.239992 0.007390 0.017109
0.316878 0.006773 0.016468
0.410100 0.006147 0.015752
0.518487 0.005547 0.014991
0.633243 0.005023 0.014258
0.741403 0.004610 0.013628
0.841658 0.004281 0.013090
0.909827 0.004081 0.012746
0.933628 0.004015 0.012628
0.940134 0.003997 0.012596
0.942908 0.003989 0.012582
0.946990 0.003978 0.012561
0.957474 0.003946 0.012503
0.983732 0.003855 0.012335
0.007466 0.010641 0.019614
0.007467 0.010641 0.019614
0.007472 0.010641 0.019614
0.007498 0.010637 0.019612
0.007632 0.010620 0.019601
0.007712 0.010610 0.019595
0.007761 0.010604 0.019591
0.007789 0.010600 0.019589
0.007806 0.010598 0.019588
0.007823 0.010597 0.019587
0.007861 0.010594 0.019585
0.007984 0.010588 0.019581
0.008492 0.010571 0.019570
0.010882 0.010512 0.019530
0.022624 0.010268 0.019363
0.081124 0.009209 0.018631
0.118418 0.008678 0.018229
0.142939 0.008380 0.017984
0.182475 0.007957 0.017612
0.239981 0.007414 0.017100
0.316868 0.006793 0.016460
0.410089 0.006164 0.015744
0.518476 0.005561 0.014984
0.633232 0.005034 0.014252
0.741392 0.004619 0.013623
0.841647 0.004289 0.013085
0.909816 0.004089 0.012741
0.933617 0.004022 0.012623
0.940123 0.004004 0.012591
0.942898 0.003996 0.012578
0.946980 0.003985 0.012556
0.957465 0.003953 0.012498
0.983728 0.003862 0.012331
0.007465 0.010671 0.019607
0.007466 0.010671 0.019607
0.007471 0.010670 0.019607
0.007497 0.010667 0.019605
0.007631 0.010650 0.019594
0.007711 0.010640 0.019588
0.007760 0.010633 0.019585
0.007788 0.010630 0.019583
0.007805 0.010628 0.019581
0.007822 0.010626 0.019580
0.007860 0.010623 0.019579
0.007983 0.010617 0.019575
0.008491 0.010601 0.019564
0.010881 0.010541 0.019523
0.022622 0.010296 0.019356
0.081118 0.009232 0.018625
0.118412 0.008698 0.018223
0.142933 0.008398 0.017978
0.182469 0.007973 0.017607
0.239974 0.007429 0.017095
0.316861 0.006805 0.016455
0.410083 0.006174 0.015740
0.518469 0.005569 0.014980
0.633226 0.005041 0.014249
0.741386 0.004625 0.013619
0.841640 0.004294 0.013082
0.909810 0.004093 0.012738
0.933611 0.004026 0.012621
0.940116 0.004008 0.012588
0.942891 0.004000 0.012575
0.946973 0.003989 0.012554
0.957459 0.003957 0.012495
0.983726 0.003866 0.012328
0.007465 0.010689 0.019603
0.007466 0.010689 0.019603
0.007471 0.010688 0.019603
0.007497 0.010685 0.019601
0.007630 0.010668 0.019590
0.007711 0.010658 0.019584
0.007760 0.010651 0.019581
0.007788 0.010648 0.019578
0.007805 0.010646 0.019577
0.007822 0.010644 0.019576
0.007859 0.010641 0.019574
0.007982 0.010635 0.019571
0.008491 0.010618 0.019560
0.010880 0.010559 0.019519
0.022621 0.010313 0.019352
0.081115 0.009245 0.018621
0.118408 0.008710 0.018220
0.142929 0.008410 0.017974
0.182465 0.007983 0.017603
0.239971 0.007438 0.017092
0.316857 0.006813 0.016452
0.410079 0.006180 0.015737
0.518465 0.005574 0.014977
0.633222 0.005045 0.014246
0.741382 0.004628 0.013617
0.841636 0.004297 0.013080
0.909806 0.004096 0.012737
0.933607 0.004029 0.012619
0.940112 0.004011 0.012587
0.942887 0.004003 0.012573
0.946969 0.003991 0.012552
0.957456 0.003960 0.012494
0.983725 0.003868 0.012326
0.007464 0.010703 0.019600
0.007465 0.010703 0.019600
0.007470 0.010702 0.019600
0.007496 0.010699 0.019598
0.007630 0.010681 0.019587
0.007710 0.010671 0.019581
0.007759 0.010665 0.019578
0.007787 0.010661 0.019575
0.007804 0.010659 0.019574
0.007821 0.010658 0.019573
0.007859 0.010655 0.019571
0.007982 0.010648 0.019568
0.008490 0.010632 0.019557
0.010880 0.010572 0.019516
0.022620 0.010326 0.019349
0.081113 0.009256 0.018618
0.118406 0.008719 0.018217
0.142926 0.008418 0.017972
0.182462 0.007991 0.017601
0.239968 0.007444 0.017089
0.316854 0.006818 0.016450
0.410076 0.006185 0.015735
0.518462 0.005578 0.014976
0.633219 0.005048 0.014245
0.741379 0.004631 0.013616
0.841633 0.004299 0.013079
0.909803 0.004098 0.012735
0.933604 0.004031 0.012618
0.940110 0.004013 0.012585
0.942884 0.004005 0.012572
0.946967 0.003993 0.012551
0.957453 0.003962 0.012492
0.983724 0.003870 0.012325
0.007464 0.010719 0.019597
0.007465 0.010719 0.019597
0.007470 0.010718 0.019596
0.007496 0.010714 0.019594
0.007629 0.010697 0.019584
0.007710 0.010687 0.019578
0.007759 0.010681 0.019574
0.007787 0.010677 0.019572
0.007804 0.010675 0.019571
0.007821 0.010673 0.019570
0.007858 0.010671 0.019568
0.007981 0.010664 0.019564
0.008490 0.010647 0.019553
0.010879 0.010587 0.019513
0.022619 0.010340 0.019345
0.081110 0.009268 0.018615
0.118402 0.008730 0.018214
0.142922 0.008428 0.017969
0.182459 0.008000 0.017598
0.239964 0.007452 0.017087
0.316851 0.006825 0.016447
0.410072 0.006190 0.015732
0.518459 0.005582 0.014974
0.633216 0.005052 0.014243
0.741376 0.004634 0.013614
0.841630 0.004302 0.013077
0.909800 0.004100 0.012734
0.933601 0.004033 0.012616
0.940106 0.004015 0.012584
0.942881 0.004007 0.012570
0.946963 0.003996 0.012549
0.957450 0.003964 0.012491
0.983723 0.003872 0.012324
0.007463 0.010746 0.019591
0.007464 0.010746 0.019591
0.007469 0.010745 0.019591
0.007495 0.010742 0.019589
0.007628 0.010724 0.019578
0.007709 0.010714 0.019572
0.007758 0.010708 0.019568
0.007786 0.010704 0.019566
0.007803 0.010702 0.019565
0.007820 0.010701 0.019564
0.007857 0.010698 0.019562
0.007981 0.010692 0.019558
0.008489 0.010675 0.019547
0.010878 0.010614 0.019507
0.022617 0.010366 0.019340
0.081105 0.009289 0.018610
0.118397 0.008749 0.018209
0.142917 0.008446 0.017964
0.182453 0.008016 0.017593
0.239959 0.007467 0.017082
0.316845 0.006837 0.016443
0.410067 0.006201 0.015729
0.518454 0.005591 0.014970
0.633210 0.005059 0.014240
0.741370 0.004640 0.013611
0.841625 0.004307 0.013075
0.909794 0.004105 0.012731
0.933595 0.004037 0.012614
0.940101 0.004019 0.012582
0.942876 0.004012 0.012568
0.946958 0.004000 0.012547
0.957446 0.003968 0.012489
0.983721 0.003876 0.012321
0.007462 0.010803 0.019581
0.007463 0.010802 0.019581
0.007468 0.010802 0.019581
0.007494 0.010798 0.019579
0.007627 0.010781 0.019568
0.007707 0.010770 0.019562
0.007756 0.010764 0.019558
0.007785 0.010761 0.019556
0.007802 0.010758 0.019555
0.007819 0.010757 0.019554
0.007856 0.010754 0.019552
0.007979 0.010748 0.019548
0.008487 0.010730 0.019537
0.010876 0.010669 0.019497
0.022614 0.010419 0.019330
0.081097 0.009334 0.018601
0.118388 0.008791 0.018200
0.142907 0.008485 0.017955
0.182444 0.008053 0.017585
0.239949 0.007499 0.017074
0.316836 0.006866 0.016436
0.410057 0.006225 0.015722
0.518444 0.005612 0.014964
0.633200 0.005077 0.014234
0.741360 0.004655 0.013606
0.841615 0.004321 0.013070
0.909785 0.004117 0.012727
0.933586 0.004049 0.012609
0.940091 0.004030 0.012577
0.942866 0.004022 0.012564
0.946949 0.004011 0.012543
0.957437 0.003978 0.012484
0.983717 0.003886 0.012317
0.007459 0.010949 0.019562
0.007460 0.010949 0.019562
0.007465 0.010948 0.019562
0.007491 0.010944 0.019560
0.007624 0.010927 0.019549
0.007705 0.010916 0.019543
0.007754 0.010910 0.019539
0.007782 0.010906 0.019537
0.007799 0.010904 0.019536
0.007816 0.010902 0.019535
0.007853 0.010899 0.019533
0.007976 0.010893 0.019529
0.008484 0.010875 0.019519
0.010872 0.010813 0.019478
0.022607 0.010559 0.019312
0.081081 0.009460 0.018583
0.118369 0.008908 0.018183
0.142888 0.008598 0.017939
0.182424 0.008159 0.017569
0.239930 0.007598 0.017060
0.316816 0.006955 0.016422
0.410038 0.006304 0.015710
0.518425 0.005681 0.014953
0.633181 0.005137 0.014224
0.741341 0.004706 0.013597
0.841596 0.004365 0.013061
0.909765 0.004156 0.012719
0.933566 0.004086 0.012601
0.940072 0.004066 0.012569
0.942847 0.004058 0.012556
0.946930 0.004045 0.012534
0.957421 0.004012 0.012476
0.983709 0.003919 0.012309
0.007453 0.011467 0.019516
0.007454 0.011467 0.019516
0.007459 0.011466 0.019516
0.007484 0.011462 0.019514
0.007617 0.011444 0.019503
0.007698 0.011433 0.019497
0.007747 0.011426 0.019493
0.007775 0.011423 0.019491
0.007792 0.011421 0.019490
0.007809 0.011419 0.019489
0.007846 0.011416 0.019487
0.007969 0.011409 0.019483
0.008476 0.011390 0.019473
0.010861 0.011325 0.019433
0.022588 0.011060 0.019267
0.081042 0.009930 0.018541
0.118323 0.009359 0.018142
0.142840 0.009034 0.017899
0.182375 0.008577 0.017531
0.239880 0.007992 0.017024
0.316767 0.007319 0.016389
0.409988 0.006634 0.015679
0.518375 0.005973 0.014925
0.633132 0.005391 0.014198
0.741292 0.004925 0.013573
0.841546 0.004552 0.013040
0.909716 0.004322 0.012698
0.933517 0.004241 0.012581
0.940022 0.004218 0.012549
0.942798 0.004207 0.012535
0.946883 0.004192 0.012515
0.957380 0.004155 0.012457
0.983687 0.004055 0.012290
0.007430 0.013767 0.019359
0.007430 0.013767 0.019359
0.007435 0.013766 0.019359
0.007461 0.013762 0.019357
0.007593 0.013742 0.019346
0.007673 0.013730 0.019340
0.007722 0.013723 0.019337
0.007750 0.013719 0.019335
0.007767 0.013716 0.019334
0.007783 0.013714 0.019333
0.007820 0.013711 0.019331
0.007942 0.013703 0.019327
0.008447 0.013682 0.019316
0.010824 0.013605 0.019277
0.022522 0.013305 0.019114
0.080900 0.012073 0.018397
0.118154 0.011432 0.018004
0.142663 0.011056 0.017765
0.182196 0.010530 0.017402
0.239701 0.009848 0.016901
0.316587 0.009050 0.016274
0.409809 0.008214 0.015573
0.518196 0.007380 0.014828
0.632952 0.006616 0.014110
0.741112 0.005978 0.013492
0.841367 0.005452 0.012964
0.909536 0.005115 0.012626
0.933337 0.004985 0.012511
0.939844 0.004944 0.012480
0.942621 0.004925 0.012466
0.946713 0.004900 0.012446
0.957234 0.004841 0.012388
0.983607 0.004704 0.012223
0.007332 0.024866 0.018714
0.007333 0.024866 0.018714
0.007337 0.024865 0.018713
0.007362 0.024859 0.018711
0.007492 0.024833 0.018702
0.007569 0.024818 0.018696
0.007616 0.024808 0.018693
0.007644 0.024803 0.018691
0.007660 0.024800 0.018690
0.007676 0.024797 0.018689
0.007713 0.024792 0.018687
0.007833 0.024782 0.018684
0.008330 0.024751 0.018674
0.010677 0.024642 0.018638
0.022259 0.024211 0.018486
0.080263 0.022532 0.017805
0.117410 0.021600 0.017435
0.141894 0.021021 0.017211
0.181422 0.020194 0.016869
0.238926 0.019073 0.016395
0.315812 0.017683 0.015802
0.409034 0.016118 0.015137
0.517420 0.014430 0.014429
0.632177 0.012754 0.013746
0.740337 0.011240 0.013157
0.840591 0.009914 0.012653
0.908761 0.009027 0.012330
0.932562 0.008679 0.012220
0.939069 0.008570 0.012190
0.941851 0.008522 0.012178
0.945966 0.008455 0.012158
0.956585 0.008288 0.012103
0.983289 0.007914 0.011944
0.006871 0.080345 0.015763
0.006871 0.080344 0.015763
0.006876 0.080343 0.015763
0.006898 0.080332 0.015761
0.007011 0.080277 0.015755
0.007079 0.080245 0.015751
0.007120 0.080226 0.015748
0.007144 0.080215 0.015747
0.007158 0.080209 0.015746
0.007173 0.080204 0.015745
0.007206 0.080195 0.015744
0.007320 0.080176 0.015741
0.007796 0.080122 0.015734
0.010059 0.079924 0.015706
0.021227 0.079063 0.015593
0.077021 0.075014 0.015110
0.113802 0.072772 0.014840
0.138224 0.071387 0.014674
0.177741 0.069152 0.014422
0.235243 0.065911 0.014073
0.312129 0.061592 0.013633
0.405350 0.056378 0.013133
0.513737 0.050329 0.012596
0.628493 0.043940 0.012072
0.736653 0.037942 0.011614
0.836908 0.032366 0.011220
0.905078 0.028586 0.010965
0.928879 0.027308 0.010877
0.935388 0.026972 0.010853
0.938180 0.026826 0.010842
0.942352 0.026594 0.010826
0.953306 0.025939 0.010783
0.982057 0.023986 0.010658
0.006562 0.123250 0.014036
0.006563 0.123249 0.014036
0.006567 0.123247 0.014036
0.006587 0.123236 0.014035
0.006690 0.123176 0.014030
0.006752 0.123141 0.014026
0.006789 0.123120 0.014024
0.006811 0.123108 0.014023
0.006824 0.123101 0.014023
0.006838 0.123095 0.014022
0.006869 0.123085 0.014021
0.006977 0.123063 0.014019
0.007438 0.123002 0.014013
0.009631 0.122773 0.013991
0.020473 0.121793 0.013901
0.074690 0.117360 0.013517
0.111175 0.114853 0.013302
0.135541 0.113278 0.013169
0.175047 0.110761 0.012966
0.232547 0.107104 0.012685
0.309433 0.102217 0.012327
0.402654 0.096295 0.011918
0.511041 0.089411 0.011475
0.625797 0.082124 0.011040
0.733957 0.075261 0.010657
0.834212 0.068893 0.010325
0.902382 0.064567 0.010110
0.926184 0.063072 0.010035
0.932694 0.062669 0.010015
0.935495 0.062493 0.010006
0.939716 0.062216 0.009993
0.950928 0.061433 0.009955
0.981048 0.059103 0.009849
0.006414 0.145606 0.013278
0.006415 0.145605 0.013278
0.006419 0.145603 0.013278
0.006438 0.145591 0.013277
0.006536 0.145531 0.013272
0.006595 0.145495 0.013269
0.006631 0.145473 0.013267
0.006652 0.145461 0.013266
0.006664 0.145454 0.013266
0.006677 0.145448 0.013265
0.006707 0.145438 0.013264
0.006812 0.145415 0.013262
0.007262 0.145351 0.013257
0.009409 0.145114 0.013238
0.020061 0.144108 0.013159
0.073530 0.139610 0.012812
0.109836 0.137051 0.012620
0.134163 0.135434 0.012502
0.173662 0.132860 0.012320
0.231160 0.129121 0.012066
0.308045 0.124123 0.011742
0.401266 0.118065 0.011372
0.509653 0.111020 0.010969
0.624409 0.103562 0.010571
0.732569 0.096534 0.010220
0.832824 0.090017 0.009915
0.900994 0.085587 0.009717
0.924796 0.084044 0.009648
0.931308 0.083624 0.009630
0.934116 0.083440 0.009622
0.938369 0.083151 0.009609
0.949727 0.082340 0.009575
0.980456 0.079954 0.009476
0.006232 0.175517 0.012442
0.006233 0.175517 0.012442
0.006236 0.175515 0.012442
0.006254 0.175503 0.012441
0.006347 0.175442 0.012437
0.006403 0.175406 0.012435
0.006436 0.175385 0.012433
0.006456 0.175372 0.012432
0.006468 0.175365 0.012432
0.006480 0.175359 0.012431
0.006509 0.175349 0.012430
0.006610 0.175326 0.012429
0.007047 0.175261 0.012424
0.009141 0.175022 0.012408
0.019558 0.174010 0.012338
0.071962 0.169501 0.012032
0.108048 0.166932 0.011863
0.132330 0.165306 0.011758
0.171819 0.162720 0.011597
0.229315 0.158966 0.011372
0.306200 0.153947 0.011083
0.399421 0.147861 0.010753
0.507808 0.140786 0.010391
0.622564 0.133295 0.010033
0.730724 0.126235 0.009717
0.830979 0.119691 0.009440
0.899149 0.115241 0.009260
0.922951 0.113688 0.009198
0.929464 0.113263 0.009182
0.932280 0.113077 0.009174
0.936567 0.112786 0.009163
0.948095 0.111969 0.009132
0.979654 0.109574 0.009042
0.005973 0.221424 0.011360
0.005973 0.221423 0.011360
0.005977 0.221421 0.011360
0.005993 0.221409 0.011359
0.006078 0.221348 0.011355
0.006129 0.221312 0.011353
0.006160 0.221291 0.011352
0.006178 0.221279 0.011351
0.006189 0.221271 0.011351
0.006200 0.221265 0.011350
0.006228 0.221255 0.011350
0.006324 0.221232 0.011348
0.006743 0.221167 0.011345
0.008762 0.220927 0.011330
0.018826 0.219914 0.011272
0.069545 0.215403 0.011016
0.105300 0.212833 0.010873
0.129516 0.211205 0.010785
0.168992 0.208617 0.010650
0.226486 0.204859 0.010459
0.303370 0.199836 0.010214
0.396591 0.193745 0.009932
0.504978 0.186664 0.009622
0.619734 0.179167 0.009314
0.727894 0.172101 0.009040
0.828149 0.165551 0.008800
0.896319 0.161097 0.008644
0.920122 0.159542 0.008590
0.926637 0.159117 0.008575
0.929461 0.158930 0.008569
0.933793 0.158638 0.008559
0.945557 0.157821 0.008531
0.978346 0.155424 0.008453
0.005650 0.284360 0.010145
0.005651 0.284359 0.010145
0.005653 0.284357 0.010145
0.005668 0.284345 0.010144
0.005744 0.284284 0.010141
0.005790 0.284248 0.010140
0.005818 0.284227 0.010139
0.005834 0.284214 0.010138
0.005843 0.284207 0.010138
0.005854 0.284201 0.010137
0.005879 0.284191 0.010137
0.005970 0.284168 0.010136
0.006366 0.284103 0.010133
0.008284 0.283863 0.010121
0.017867 0.282850 0.010075
0.066233 0.278338 0.009869
0.101531 0.275767 0.009755
0.125659 0.274139 0.009683
0.165118 0.271551 0.009573
0.222608 0.267792 0.009419
0.299492 0.262768 0.009219
0.392713 0.256677 0.008988
0.501099 0.249595 0.008733
0.615856 0.242096 0.008478
0.724016 0.235029 0.008251
0.824270 0.228478 0.008050
0.892440 0.224024 0.007919
0.916243 0.222468 0.007873
0.922760 0.222042 0.007861
0.925594 0.221856 0.007856
0.929978 0.221564 0.007847
0.942022 0.220746 0.007824
0.976316 0.218349 0.007758
0.005295 0.362305 0.008953
0.005296 0.362305 0.008953
0.005298 0.362303 0.008953
0.005311 0.362291 0.008952
0.005378 0.362230 0.008950
0.005418 0.362194 0.008949
0.005442 0.362172 0.008948
0.005456 0.362160 0.008947
0.005465 0.362153 0.008947
0.005474 0.362147 0.008947
0.005497 0.362137 0.008947
0.005580 0.362114 0.008946
0.005950 0.362049 0.008943
0.007744 0.361809 0.008934
0.016726 0.360796 0.008898
0.062143 0.356284 0.008737
0.096866 0.353713 0.008647
0.120882 0.352085 0.008591
0.160319 0.349496 0.008504
0.217805 0.345738 0.008381
0.294688 0.340713 0.008223
0.387909 0.334622 0.008038
0.496295 0.327540 0.007833
0.611052 0.320041 0.007627
0.719212 0.312973 0.007443
0.819466 0.306422 0.007279
0.887637 0.301968 0.007171
0.911440 0.300412 0.007134
0.917958 0.299986 0.007124
0.920801 0.299800 0.007119
0.925233 0.299508 0.007113
0.937537 0.298690 0.007094
0.973258 0.296293 0.007039
0.004925 0.455341 0.007848
0.004926 0.455340 0.007848
0.004928 0.455338 0.007848
0.004939 0.455326 0.007847
0.004997 0.455265 0.007845
0.005032 0.455229 0.007844
0.005052 0.455208 0.007844
0.005064 0.455196 0.007843
0.005072 0.455189 0.007843
0.005080 0.455182 0.007843
0.005100 0.455172 0.007843
0.005176 0.455149 0.007842
0.005514 0.455084 0.007840
0.007161 0.454844 0.007833
0.015424 0.453831 0.007805
0.057272 0.449320 0.007681
0.091300 0.446749 0.007611
0.115181 0.445121 0.007568
0.154591 0.442533 0.007500
0.212073 0.438775 0.007404
0.288954 0.433750 0.007280
0.382175 0.427659 0.007135
0.490561 0.420577 0.006973
0.605318 0.413078 0.006809
0.713478 0.406010 0.006661
0.813733 0.399459 0.006530
0.881903 0.395005 0.006443
0.905706 0.393449 0.006413
0.912226 0.393023 0.006405
0.915074 0.392837 0.006401
0.919537 0.392544 0.006396
0.931997 0.391727 0.006380
0.968536 0.389330 0.006336
0.004549 0.564968 0.006845
0.004550 0.564967 0.006845
0.004552 0.564965 0.006845
0.004561 0.564953 0.006845
0.004610 0.564892 0.006844
0.004640 0.564856 0.006843
0.004658 0.564835 0.006842
0.004668 0.564823 0.006842
0.004674 0.564816 0.006842
0.004681 0.564809 0.006842
0.004699 0.564799 0.006842
0.004767 0.564776 0.006841
0.005069 0.564712 0.006840
0.006547 0.564472 0.006834
0.013963 0.563460 0.006813
0.051535 0.558951 0.006718
0.084740 0.556381 0.006665
0.108461 0.554754 0.006631
0.147842 0.552167 0.006579
0.205317 0.548409 0.006505
0.282198 0.543386 0.006409
0.375418 0.537295 0.006296
0.483805 0.530213 0.006170
0.598561 0.522714 0.006041
0.706721 0.515647 0.005925
0.806976 0.509095 0.005820
0.875146 0.504641 0.005751
0.898950 0.503086 0.005727
0.905470 0.502659 0.005721
0.908320 0.502473 0.005718
0.912793 0.502181 0.005713
0.925294 0.501363 0.005701
0.961952 0.498966 0.005666
0.004196 0.685195 0.005995
0.004196 0.685194 0.005995
0.004198 0.685192 0.005995
0.004206 0.685180 0.005995
0.004247 0.685120 0.005994
0.004272 0.685084 0.005993
0.004288 0.685062 0.005993
0.004296 0.685050 0.005993
0.004302 0.685043 0.005993
0.004308 0.685037 0.005993
0.004323 0.685027 0.005992
0.004382 0.685004 0.005992
0.004648 0.684940 0.005991
0.005943 0.684703 0.005987
0.012435 0.683696 0.005970
0.045241 0.679196 0.005897
0.077540 0.676634 0.005856
0.101090 0.675013 0.005831
0.140437 0.672431 0.005790
0.197906 0.668678 0.005733
0.274785 0.663657 0.005658
0.368006 0.657568 0.005570
0.476392 0.650487 0.005471
0.591148 0.642989 0.005370
0.699308 0.635922 0.005277
0.799563 0.629371 0.005195
0.867733 0.624916 0.005140
0.891537 0.623361 0.005121
0.898057 0.622935 0.005115
0.900909 0.622748 0.005113
0.905384 0.622456 0.005110
0.917894 0.621638 0.005100
0.954570 0.619241 0.005072
0.003905 0.799492 0.005355
0.003905 0.799491 0.005355
0.003906 0.799489 0.005355
0.003913 0.799478 0.005355
0.003949 0.799418 0.005354
0.003971 0.799383 0.005354
0.003984 0.799362 0.005353
0.003992 0.799350 0.005353
0.003996 0.799343 0.005353
0.004001 0.799337 0.005353
0.004015 0.799327 0.005353
0.004066 0.799305 0.005353
0.004296 0.799244 0.005352
0.005415 0.799014 0.005348
0.011013 0.798031 0.005335
0.039269 0.793588 0.005277
0.070690 0.791068 0.005244
0.094070 0.789473 0.005224
0.133385 0.786917 0.005191
0.190848 0.783188 0.005145
0.267726 0.778183 0.005085
0.360946 0.772105 0.005014
0.469333 0.765028 0.004934
0.584089 0.757532 0.004851
0.692249 0.750465 0.004776
0.792504 0.743914 0.004708
0.860674 0.739460 0.004663
0.884478 0.737904 0.004648
0.890998 0.737478 0.004643
0.893850 0.737292 0.004641
0.898326 0.737000 0.004638
0.910837 0.736182 0.004630
0.947516 0.733785 0.004607
0.003660 0.907856 0.004855
0.003660 0.907855 0.004855
0.003662 0.907853 0.004855
0.003668 0.907843 0.004855
0.003699 0.907789 0.004855
0.003718 0.907757 0.004854
0.003730 0.907738 0.004854
0.003736 0.907727 0.004854
0.003740 0.907721 0.004854
0.003745 0.907716 0.004854
0.003757 0.907707 0.004854
0.003801 0.907688 0.004853
0.004000 0.907634 0.004853
0.004960 0.907434 0.004850
0.009723 0.906561 0.004839
0.033526 0.902461 0.004791
0.064122 0.900148 0.004764
0.087349 0.898677 0.004747
0.126635 0.896258 0.004721
0.184092 0.892655 0.004683
