luts/silbersalz-250d_v1-paired_33.cube
TITLE "silbersalz-250d_v1-paired_33"
# Generated by saltgate on 2026-08-25
# Input:  Silbersalz flat-scan code values [0,1] (Display P3 tagged)
# Output: graded display code values (Display P3)
# pairs: 6
LUT_3D_SIZE 9
DOMAIN_MIN 0.0 0.0 0.0
DOMAIN_MAX 1.0 1.0 1.0
0.005056 0.011943 0.005038
0.007904 0.011851 0.005105
0.025207 0.012218 0.004726
0.074036 0.013408 0.004113
0.175645 0.015271 0.003808
0.366097 0.017217 0.003860
0.641303 0.018705 0.004618
0.891517 0.019612 0.006066
0.996778 0.019957 0.007061
0.005469 0.018367 0.005880
0.009613 0.016803 0.006206
0.030722 0.014977 0.005695
0.083733 0.013849 0.004369
0.191525 0.013872 0.003398
0.390910 0.014668 0.002737
0.668888 0.015295 0.002658
0.908606 0.015550 0.003264
1.000000 0.015597 0.003809
0.006412 0.056797 0.007510
0.013495 0.050123 0.008218
0.041776 0.039525 0.007755
0.102448 0.029414 0.005560
0.223099 0.022260 0.003717
0.439802 0.017738 0.002169
0.720046 0.014142 0.000803
0.938472 0.011215 0.000000
1.000000 0.009798 0.000000
0.007074 0.169631 0.008671
0.017468 0.154056 0.009093
0.052413 0.125343 0.008519
0.122905 0.096332 0.006609
0.260926 0.073211 0.005156
0.496621 0.055429 0.004058
0.773891 0.040692 0.002325
0.965704 0.028955 0.000193
1.000000 0.023302 0.000000
0.007427 0.397745 0.009557
0.021101 0.369928 0.009458
0.063373 0.317260 0.008654
0.146901 0.261257 0.007438
0.305526 0.212086 0.006922
0.557561 0.171327 0.006939
0.823897 0.136894 0.005877
0.986126 0.109427 0.003584
1.000000 0.096096 0.002086
0.009082 0.706609 0.010961
0.026783 0.675642 0.010641
0.077986 0.614052 0.009740
0.177346 0.542782 0.008665
0.358322 0.472421 0.008221
0.622275 0.406917 0.008356
0.869724 0.347249 0.007726
1.000000 0.298005 0.005922
1.000000 0.273742 0.004618
0.013009 0.936084 0.012618
0.035252 0.919580 0.012267
0.096190 0.883436 0.011348
0.212820 0.836007 0.010082
0.416177 0.781294 0.008986
0.687074 0.721017 0.008211
0.910371 0.657493 0.007121
1.000000 0.599208 0.005500
1.000000 0.568407 0.004466
0.018329 1.000000 0.013889
0.044721 1.000000 0.013559
0.114395 1.000000 0.012655
0.246822 0.997368 0.011211
0.469442 0.978715 0.009494
0.742509 0.952714 0.007757
0.941941 0.918885 0.005938
1.000000 0.882987 0.004163
1.000000 0.862591 0.003231
0.021608 1.000000 0.014415
0.050157 1.000000 0.014099
0.124264 1.000000 0.013210
0.264936 1.000000 0.011700
0.497364 1.000000 0.009728
0.770097 1.000000 0.007571
0.956480 1.000000 0.005405
1.000000 1.000000 0.003527
1.000000 0.989653 0.002619
0.004894 0.011442 0.008480
0.006358 0.010915 0.009060
0.020269 0.010587 0.009902
0.065543 0.012042 0.011851
0.161644 0.014801 0.014837
0.342930 0.017265 0.018115
0.612185 0.018823 0.022043
0.869639 0.019644 0.026359
0.983189 0.019936 0.028892
0.005383 0.017355 0.008085
0.007698 0.015155 0.009058
0.025313 0.012914 0.009029
0.075162 0.012152 0.009774
0.176841 0.013513 0.012149
0.366787 0.015123 0.014462
0.639930 0.015804 0.017200
0.888320 0.015883 0.020291
0.993489 0.015828 0.022157
0.006476 0.054458 0.008011
0.011720 0.046175 0.010234
0.039706 0.037552 0.010590
0.094117 0.027382 0.008811
0.205186 0.022061 0.009726
0.412560 0.018858 0.010862
0.690973 0.015421 0.011801
0.920500 0.012285 0.012535
1.000000 0.010707 0.013030
0.006858 0.165514 0.007457
0.016103 0.149361 0.008961
0.048318 0.119316 0.008987
0.110855 0.089181 0.007347
0.235049 0.069071 0.008999
0.462500 0.054116 0.012386
0.743206 0.041265 0.013444
0.948943 0.030378 0.012156
1.000000 0.024827 0.011041
0.006571 0.390952 0.006959
0.018521 0.362261 0.007145
0.056576 0.306717 0.006454
0.130917 0.246969 0.006282
0.273903 0.197447 0.009461
0.517564 0.161179 0.015917
0.792093 0.132460 0.019563
0.970126 0.108739 0.018454
1.000000 0.096525 0.016348
0.007619 0.699596 0.007887
0.023281 0.667451 0.007633
0.069919 0.602834 0.006838
0.159929 0.527105 0.006597
0.325620 0.453899 0.009305
0.581291 0.390407 0.015395
0.840039 0.336431 0.020166
0.987680 0.292320 0.020547
1.000000 0.270105 0.018955
0.010844 0.932740 0.009654
0.030875 0.915358 0.009294
0.087242 0.876972 0.008393
0.194880 0.826125 0.007587
0.384678 0.768266 0.008397
0.649468 0.707322 0.011430
0.885252 0.646042 0.014139
1.000000 0.590639 0.014212
1.000000 0.561187 0.013198
0.015410 1.000000 0.011169
0.039549 1.000000 0.010768
0.104679 1.000000 0.009724
0.228412 0.994009 0.008323
0.439456 0.973534 0.007383
0.710020 0.946390 0.007430
0.922459 0.912554 0.007421
1.000000 0.877050 0.006291
1.000000 0.856752 0.005265
0.018249 1.000000 0.011822
0.044583 1.000000 0.011404
0.114118 1.000000 0.010288
0.246140 1.000000 0.008607
0.467950 1.000000 0.006892
0.740341 1.000000 0.005602
0.939974 1.000000 0.004324
1.000000 0.996879 0.002633
1.000000 0.986183 0.001566
0.005004 0.010871 0.031136
0.004189 0.009454 0.033467
0.011835 0.007528 0.038474
0.050534 0.009923 0.047513
0.136487 0.014482 0.058491
0.300239 0.017718 0.069660
0.556622 0.019242 0.081376
0.824018 0.019817 0.092505
0.952322 0.019981 0.098478
0.005684 0.016231 0.025512
0.005574 0.012642 0.026924
0.010000 0.002692 0.026746
0.058774 0.007506 0.037246
0.152152 0.013631 0.048768
0.323596 0.016845 0.059105
0.584921 0.017325 0.069399
0.845798 0.016842 0.078903
0.965781 0.016506 0.083967
0.006792 0.051442 0.017597
0.011434 0.043076 0.021485
0.016204 0.022347 0.014146
0.080379 0.021168 0.025915
0.181507 0.024345 0.035291
0.367336 0.024122 0.045128
0.636759 0.019942 0.053292
0.882865 0.015605 0.059428
0.987637 0.013366 0.062420
0.006199 0.158074 0.010346
0.012501 0.141394 0.014487
0.035892 0.106674 0.014177
0.093208 0.077039 0.014985
0.190693 0.071377 0.024082
0.400930 0.058701 0.044526
0.685310 0.047717 0.053428
0.913317 0.037096 0.056057
1.000000 0.030708 0.055492
0.005180 0.377625 0.004699
0.013927 0.346821 0.006079
0.044412 0.283387 0.005797
0.104220 0.211753 0.006549
0.205898 0.158854 0.019538
0.436152 0.138629 0.049242
0.726649 0.127048 0.069049
0.933891 0.113695 0.074191
1.000000 0.102808 0.068293
0.005477 0.685629 0.002729
0.017706 0.650842 0.003113
0.056259 0.578251 0.003273
0.128495 0.488802 0.004620
0.256571 0.405353 0.014873
0.489497 0.346296 0.040769
0.775246 0.310158 0.065865
0.956106 0.282866 0.077223
1.000000 0.266786 0.073079
0.007512 0.925760 0.003254
0.023650 0.906441 0.003185
0.071259 0.862678 0.002952
0.161054 0.802931 0.003737
0.319955 0.735990 0.010046
0.565148 0.672488 0.026169
0.826116 0.618991 0.043326
0.978617 0.573372 0.050045
1.000000 0.548374 0.048511
0.010726 1.000000 0.004331
0.030683 1.000000 0.003947
0.086856 1.000000 0.002992
0.193600 0.985892 0.002261
0.380430 0.960617 0.004248
0.641262 0.930672 0.011165
0.877590 0.897945 0.018597
0.998894 0.864836 0.019850
1.000000 0.845559 0.018146
0.012794 1.000000 0.004867
0.034876 1.000000 0.004344
0.095427 1.000000 0.003014
0.210813 1.000000 0.001441
0.411198 1.000000 0.001291
0.679076 1.000000 0.003904
0.902939 1.000000 0.006774
1.000000 0.989720 0.006187
1.000000 0.979133 0.004550
0.005787 0.011279 0.102788
0.003904 0.010177 0.109603
0.007823 0.009149 0.124173
0.038361 0.011717 0.144132
0.111832 0.015932 0.166941
0.255969 0.018774 0.191337
0.495080 0.019878 0.216920
0.767013 0.020133 0.240576
0.909264 0.020168 0.253095
0.005964 0.016239 0.087480
0.004408 0.013591 0.093299
0.009219 0.009403 0.105037
0.048116 0.012056 0.122940
0.128842 0.017008 0.144042
0.279753 0.019620 0.166967
0.524357 0.019196 0.190654
0.792600 0.017957 0.212047
0.927375 0.017306 0.223181
0.006025 0.049167 0.061654
0.006173 0.042630 0.068463
0.015951 0.034836 0.079656
0.075846 0.031686 0.089385
0.167720 0.032501 0.104169
0.329464 0.032646 0.126684
0.580946 0.025818 0.148949
0.837465 0.019391 0.166883
0.957490 0.016210 0.175431
0.005287 0.150088 0.037699
0.008148 0.133170 0.045657
0.025362 0.101346 0.061856
0.085915 0.084665 0.071494
0.197388 0.082735 0.066275
0.382514 0.077321 0.097250
0.638154 0.060709 0.127733
0.875059 0.047146 0.144694
0.977891 0.038068 0.148832
0.004617 0.362596 0.019058
0.010769 0.329902 0.024065
0.036144 0.258668 0.032253
0.093317 0.173006 0.027928
0.176556 0.142081 0.031095
0.364874 0.139136 0.079825
0.678631 0.133731 0.146613
0.894669 0.134866 0.176436
0.980470 0.115526 0.161802
0.004603 0.669311 0.007407
0.013987 0.631678 0.010241
0.046417 0.549581 0.015684
0.107444 0.441998 0.020372
0.193814 0.346522 0.030717
0.362911 0.293223 0.075611
0.711221 0.276167 0.141104
0.924564 0.276122 0.189285
0.986577 0.270424 0.174055
0.005514 0.917243 0.001178
0.017951 0.895664 0.002548
0.057095 0.845371 0.005564
0.129796 0.774326 0.010328
0.250891 0.693978 0.022841
0.453031 0.623409 0.061075
0.746382 0.586026 0.111459
0.953544 0.556587 0.128706
1.000000 0.538770 0.121008
0.007352 1.000000 0.000000
0.022927 1.000000 0.000000
0.069483 0.999437 0.000000
0.158379 0.975316 0.000827
0.316805 0.943403 0.008377
0.559653 0.909844 0.029486
0.821435 0.880680 0.055497
0.981515 0.852710 0.059689
1.000000 0.835456 0.053834
0.008648 1.000000 0.000000
0.026079 1.000000 0.000000
0.076758 1.000000 0.000000
0.174409 1.000000 0.000000
0.350197 1.000000 0.000565
0.608308 1.000000 0.012487
0.857583 0.999433 0.026027
0.994836 0.982747 0.027991
1.000000 0.972650 0.024439
0.007297 0.012225 0.266129
0.005264 0.012041 0.280644
0.006834 0.012591 0.310137
0.028951 0.014883 0.346164
0.089930 0.017722 0.385075
0.215581 0.019597 0.425972
0.434897 0.020301 0.467621
0.703158 0.020449 0.504816
0.854566 0.020470 0.524380
0.007051 0.016527 0.234003
0.005451 0.015400 0.247182
0.009271 0.014943 0.273712
0.037136 0.017192 0.305784
0.104598 0.019893 0.341464
0.237741 0.020839 0.380345
0.464163 0.019747 0.420526
0.732500 0.018270 0.456429
0.878511 0.017570 0.475125
0.006472 0.046693 0.177261
0.006055 0.041485 0.188946
0.014866 0.035921 0.210582
0.054908 0.036681 0.232195
0.136836 0.037263 0.260309
0.286353 0.034206 0.296519
0.523992 0.026304 0.336603
0.786743 0.019109 0.371424
0.920433 0.015801 0.388760
0.005833 0.142397 0.123104
0.007492 0.126423 0.133996
0.021927 0.097945 0.154735
0.072024 0.085409 0.159302
0.169998 0.084524 0.174003
0.342823 0.078163 0.206129
0.594829 0.059908 0.257400
0.841854 0.043778 0.296700
0.956917 0.035034 0.313319
0.005465 0.348162 0.080091
0.010084 0.315655 0.089170
0.032077 0.244830 0.108285
0.082860 0.169053 0.127427
0.156088 0.144665 0.122787
0.319278 0.135395 0.118962
0.664104 0.136606 0.204885
0.892439 0.123690 0.256191
0.979660 0.109029 0.272046
0.005202 0.652894 0.048335
0.012520 0.614028 0.055304
0.041086 0.527977 0.071543
0.099593 0.417584 0.092137
0.180683 0.328542 0.093814
0.344296 0.276625 0.088845
0.677263 0.252505 0.169638
0.940294 0.283845 0.241806
0.997425 0.268053 0.249330
0.005197 0.908217 0.025350
0.014620 0.885027 0.029952
0.047280 0.830409 0.040490
0.110690 0.752773 0.054481
0.211503 0.664380 0.067444
0.391195 0.595413 0.099967
0.703388 0.582761 0.199272
0.963682 0.556458 0.210000
1.000000 0.536515 0.189565
0.005893 1.000000 0.009722
0.017585 1.000000 0.012283
0.055675 0.994551 0.017910
0.131043 0.966739 0.026324
0.268591 0.931034 0.040725
0.499901 0.897098 0.074323
0.786506 0.872469 0.128488
0.978473 0.850113 0.131613
1.000000 0.832790 0.113761
0.006549 1.000000 0.002930
0.019690 1.000000 0.004553
0.061269 1.000000 0.008003
0.144147 1.000000 0.013766
0.299347 1.000000 0.026126
0.548822 1.000000 0.051420
0.822086 0.999511 0.080869
0.989201 0.983931 0.085252
1.000000 0.973004 0.077144
0.009038 0.012786 0.545218
0.006819 0.012934 0.565235
0.006006 0.013855 0.603429
0.020753 0.015839 0.646503
0.070658 0.018066 0.689102
0.179502 0.019631 0.730215
0.377330 0.020424 0.768721
0.633415 0.020798 0.800662
0.787086 0.020940 0.816253
0.008719 0.016244 0.495084
0.006837 0.015442 0.514370
0.007567 0.015126 0.551422
0.026184 0.016769 0.593366
0.081708 0.018917 0.636181
0.198206 0.019592 0.679035
0.404783 0.018810 0.720427
0.665259 0.017823 0.755404
0.816882 0.017387 0.772758
0.008003 0.043732 0.403162
0.006871 0.038712 0.420739
0.010579 0.031927 0.453861
0.036321 0.030693 0.490231
0.104445 0.032058 0.530266
0.238874 0.028633 0.574323
0.461541 0.021305 0.620789
0.725669 0.015085 0.661627
0.870496 0.012513 0.682175
0.007238 0.135014 0.309048
0.007335 0.120165 0.324380
0.014265 0.093814 0.351546
0.043180 0.080240 0.375869
0.126793 0.082284 0.407711
0.291258 0.069361 0.445239
0.530444 0.046695 0.498518
0.790367 0.029688 0.549306
0.922271 0.023071 0.574250
0.006702 0.334814 0.228301
0.009041 0.304576 0.241798
0.023236 0.240934 0.267057
0.061772 0.173604 0.283463
0.138397 0.168927 0.291512
0.337248 0.157128 0.306610
0.598410 0.115332 0.366922
0.849878 0.092295 0.433345
0.964062 0.084275 0.465299
0.006148 0.637149 0.162923
0.010862 0.599374 0.174822
0.032788 0.516739 0.201638
0.088606 0.409238 0.238844
0.181725 0.331000 0.266234
0.325237 0.292891 0.209744
0.636483 0.223395 0.235588
0.911388 0.252022 0.326632
1.000000 0.243669 0.360400
0.005600 0.899020 0.110692
0.012054 0.875460 0.119971
0.037846 0.820793 0.141363
0.095772 0.745288 0.172224
0.198646 0.667165 0.198819
0.386485 0.604393 0.185516
0.721335 0.579015 0.224965
0.983123 0.559660 0.271456
1.000000 0.527692 0.267791
0.005574 1.000000 0.072256
0.013788 1.000000 0.078889
0.044098 0.991213 0.093703
0.110073 0.964095 0.115650
0.237915 0.934018 0.145052
0.470773 0.912703 0.181236
0.790471 0.898908 0.234720
0.993624 0.866644 0.232283
1.000000 0.840241 0.210876
0.005797 1.000000 0.054680
0.015135 1.000000 0.060056
0.048452 1.000000 0.071767
0.120153 1.000000 0.089625
0.261870 1.000000 0.118364
0.509588 1.000000 0.161859
0.808788 1.000000 0.203317
0.997564 1.000000 0.203619
1.000000 0.987174 0.190900
0.010498 0.012961 0.834339
0.008062 0.013124 0.847577
0.005311 0.013935 0.872182
0.014104 0.015623 0.897795
0.054203 0.017662 0.920662
0.147867 0.019368 0.940638
0.323582 0.020548 0.958039
0.560941 0.021296 0.971707
0.710430 0.021606 0.978065
0.010208 0.015601 0.793052
0.007942 0.014770 0.807859
0.006072 0.014065 0.835133
0.017531 0.014906 0.863588
0.062335 0.016568 0.889617
0.162980 0.017516 0.913055
0.348273 0.017569 0.934031
0.593613 0.017412 0.950817
0.744368 0.017356 0.958713
0.009493 0.040661 0.706123
0.007512 0.035761 0.723222
0.006979 0.028365 0.754260
0.022652 0.024657 0.786685
0.076957 0.023805 0.817818
0.193588 0.020499 0.847470
0.397913 0.015097 0.875891
0.655862 0.011028 0.900151
0.806794 0.009500 0.911924
0.008543 0.128012 0.600495
0.006940 0.114531 0.618762
0.006977 0.090672 0.651534
0.021992 0.073394 0.684506
0.085001 0.066025 0.717793
0.225208 0.050210 0.749594
0.451662 0.029749 0.784305
0.720363 0.016950 0.820207
0.867869 0.012690 0.838933
0.007622 0.322438 0.492297
0.007103 0.295472 0.510890
0.009648 0.242945 0.545700
0.019884 0.192027 0.581057
0.074890 0.167720 0.612956
0.235271 0.129248 0.623487
0.483426 0.083662 0.648367
0.770994 0.066659 0.701089
0.916410 0.063419 0.733202
0.006739 0.622219 0.388882
0.008063 0.587097 0.407072
0.017469 0.515201 0.445219
0.043087 0.430778 0.496756
0.084171 0.358573 0.560178
0.229575 0.290462 0.509829
0.458834 0.196594 0.457994
0.816284 0.211371 0.532600
0.962707 0.218806 0.592895
0.005946 0.889785 0.294729
0.009173 0.866802 0.310890
0.025518 0.815781 0.346559
0.068968 0.749868 0.399609
0.160878 0.689444 0.471362
0.352766 0.662051 0.516103
0.613380 0.570048 0.420823
0.934239 0.527677 0.354687
1.000000 0.523179 0.459543
0.005583 1.000000 0.219635
0.010586 1.000000 0.233034
0.032878 0.988857 0.262521
0.089183 0.964765 0.306538
0.209192 0.943901 0.372236
0.446267 0.947167 0.458372
0.804944 0.982515 0.505068
1.000000 0.899905 0.391920
1.000000 0.863804 0.426394
0.005569 1.000000 0.184244
0.011569 1.000000 0.196111
0.037039 1.000000 0.222002
0.099259 1.000000 0.260434
0.231488 1.000000 0.319858
0.481721 1.000000 0.404563
0.808873 1.000000 0.471846
1.000000 1.000000 0.456497
1.000000 1.000000 0.443309
0.011467 0.013001 0.991223
0.008896 0.013148 0.995535
0.004860 0.013861 1.000000
0.009295 0.015376 1.000000
0.041383 0.017353 1.000000
0.122852 0.019252 1.000000
0.279298 0.020781 1.000000
0.496721 0.021828 1.000000
0.638469 0.022263 1.000000
0.011232 0.014981 0.974529
0.008748 0.014137 0.979963
0.005301 0.013218 0.989702
0.011808 0.013519 0.998626
0.047982 0.014783 1.000000
0.135563 0.016028 1.000000
0.301612 0.016859 1.000000
0.529161 0.017391 1.000000
0.674779 0.017622 1.000000
0.010598 0.038009 0.934276
0.008213 0.033285 0.942246
0.005626 0.025692 0.956578
0.015568 0.020249 0.970331
0.059336 0.017312 0.981484
0.160087 0.014458 0.990321
0.345728 0.011297 0.998208
0.591504 0.009083 1.000000
0.742647 0.008260 1.000000
0.009599 0.121961 0.873118
0.007246 0.109480 0.884632
0.004912 0.087077 0.905436
0.016176 0.066870 0.926109
0.065887 0.051731 0.943205
0.182602 0.036552 0.954830
0.391821 0.021817 0.965447
0.656583 0.012230 0.978167
0.811115 0.008671 0.985574
0.008400 0.311662 0.789879
0.006397 0.287054 0.805751
0.004844 0.240888 0.835534
0.015128 0.194115 0.868341
0.062750 0.155344 0.896272
0.191790 0.118757 0.903598
0.424425 0.085370 0.906068
0.709647 0.065799 0.923095
0.866173 0.058682 0.936986
0.007190 0.608975 0.683614
0.006303 0.575928 0.703610
0.008710 0.511429 0.743321
0.024776 0.439058 0.793913
0.071657 0.371982 0.847872
0.207553 0.316129 0.859021
0.453274 0.266761 0.833126
0.760485 0.236924 0.839687
0.915378 0.222742 0.862404
0.006174 0.881336 0.561168
0.006982 0.858826 0.583236
0.016060 0.810557 0.628538
0.048342 0.750118 0.690015
0.125894 0.690373 0.771149
0.290865 0.649028 0.855460
0.562549 0.640951 0.841324
0.852540 0.598553 0.784850
0.973848 0.548507 0.804663
0.005597 1.000000 0.446497
0.008115 1.000000 0.468562
0.023644 0.986141 0.514147
0.070999 0.962851 0.576508
0.180969 0.941331 0.665833
0.411794 0.936960 0.794284
0.762590 0.979371 0.906703
0.983679 0.975262 0.861603
1.000000 0.897770 0.827228
0.005442 1.000000 0.387499
0.008869 1.000000 0.408853
0.027681 1.000000 0.453199
0.081614 1.000000 0.513547
0.204327 1.000000 0.599252
0.449533 1.000000 0.719306
0.788031 1.000000 0.833658
0.995835 1.000000 0.855720
1.000000 1.000000 0.827751
0.011855 0.013007 1.000000
0.009234 0.013153 1.000000
0.004660 0.013840 1.000000
0.007111 0.015303 1.000000
0.035214 0.017267 1.000000
0.110905 0.019255 1.000000
0.257793 0.020932 1.000000
0.464154 0.022099 1.000000
0.600567 0.022583 1.000000
0.011652 0.014670 1.000000
0.009100 0.013837 1.000000
0.005042 0.012867 1.000000
0.009358 0.012988 1.000000
0.041322 0.014115 1.000000
0.122713 0.015502 1.000000
0.278989 0.016672 1.000000
0.496189 0.017485 1.000000
0.637855 0.017827 1.000000
0.011083 0.036672 1.000000
0.008606 0.032055 1.000000
0.005385 0.024453 1.000000
0.013041 0.018464 1.000000
0.052122 0.014866 1.000000
0.145443 0.012317 1.000000
0.321010 0.010153 1.000000
0.558362 0.008667 1.000000
0.708048 0.008078 1.000000
0.010110 0.118874 0.985421
0.007634 0.106787 0.991541
0.004924 0.084879 1.000000
0.015078 0.063890 1.000000
0.060392 0.046983 1.000000
0.167569 0.032586 1.000000
0.366142 0.020309 1.000000
0.624704 0.011733 1.000000
0.780415 0.008136 1.000000
0.008827 0.306074 0.934029
0.006516 0.282345 0.944380
0.004558 0.238072 0.964440
0.016260 0.192279 0.986267
0.064726 0.152328 1.000000
0.184287 0.118303 1.000000
0.405609 0.089889 1.000000
0.682714 0.069070 1.000000
0.840634 0.059467 1.000000
0.007458 0.601938 0.850709
0.005915 0.569630 0.866578
0.006841 0.507390 0.898207
0.023888 0.438204 0.936417
0.079048 0.374164 0.974229
0.212634 0.322498 0.994128
0.453935 0.282347 0.990882
0.740116 0.247126 0.987334
0.892120 0.226539 0.990170
0.006295 0.876861 0.733126
0.006171 0.854420 0.754854
0.012649 0.806812 0.798004
0.042292 0.747704 0.852542
0.119365 0.688788 0.918439
0.287014 0.645818 0.982983
0.555298 0.622641 1.000000
0.821615 0.585095 1.000000
0.945971 0.546771 0.991324
0.005594 1.000000 0.604717
0.007022 1.000000 0.631007
0.019443 0.984387 0.682664
0.062639 0.960841 0.748110
0.166943 0.938209 0.833109
0.384298 0.931098 0.939640
0.702900 0.944300 1.000000
0.931982 0.925081 1.000000
0.986280 0.878721 1.000000
0.005370 1.000000 0.531858
0.007628 1.000000 0.559662
0.023160 1.000000 0.614798
0.072803 1.000000 0.684552
0.189273 1.000000 0.774679
0.424191 1.000000 0.890596
0.752224 1.000000 0.994040
0.968079 1.000000 1.000000
0.993237 0.992659 1.000000
