luts/silbersalz-gold200_v1-paired_33.cube
TITLE "silbersalz-gold200_v1-paired-jxl_33"
# Generated by silbersalz-look on 2026-08-23
# Input:  Silbersalz flat-scan code values [0,1] (Display P3 tagged)
# Output: graded display code values (Display P3)
# pairs: 27
LUT_3D_SIZE 5
DOMAIN_MIN 0.0 0.0 0.0
DOMAIN_MAX 1.0 1.0 1.0
0.000000 0.021421 0.001575
0.133291 0.014756 0.006242
0.486290 0.017699 0.026059
0.855239 0.016986 0.028901
1.000000 0.013697 0.021748
0.017529 0.156633 0.000000
0.154687 0.129824 0.000000
0.504681 0.113328 0.024194
0.871433 0.107898 0.036368
1.000000 0.104932 0.030137
0.100586 0.527379 0.002108
0.241999 0.478141 0.000000
0.578543 0.420162 0.018267
0.910104 0.401591 0.040291
1.000000 0.398053 0.036862
0.202933 0.900158 0.011869
0.376158 0.870816 0.009388
0.715708 0.826416 0.016585
0.964837 0.803233 0.026656
1.000000 0.796701 0.024804
0.255029 1.000000 0.014707
0.448108 1.000000 0.013552
0.793556 1.000000 0.014841
0.994610 1.000000 0.016027
1.000000 0.997606 0.013931
0.000000 0.017339 0.089078
0.109699 0.017572 0.094870
0.450812 0.025644 0.121805
0.821441 0.019821 0.124300
0.985651 0.014607 0.117669
0.000000 0.129102 0.071077
0.117706 0.100773 0.078842
0.448666 0.098016 0.106513
0.845948 0.096310 0.123654
1.000000 0.096352 0.117518
0.070926 0.484556 0.059572
0.174167 0.408528 0.041853
0.456385 0.338404 0.058402
0.885784 0.354090 0.116626
1.000000 0.366091 0.106348
0.157503 0.876878 0.060037
0.305969 0.839077 0.050347
0.622812 0.789547 0.053035
0.936921 0.771763 0.074302
1.000000 0.771305 0.070877
0.202748 1.000000 0.059949
0.381412 1.000000 0.056175
0.724771 1.000000 0.052097
0.970735 0.991422 0.051229
1.000000 0.987369 0.049634
0.000000 0.030428 0.392583
0.083878 0.042212 0.398248
0.374006 0.046048 0.412868
0.729101 0.028006 0.410626
0.904810 0.016921 0.407158
0.000000 0.128705 0.345800
0.079911 0.124523 0.322554
0.412564 0.126500 0.350771
0.797477 0.104952 0.366794
0.956602 0.092947 0.380888
0.035368 0.447062 0.304434
0.137969 0.363843 0.259737
0.395607 0.332101 0.240578
0.897303 0.325067 0.289019
1.000000 0.330759 0.317982
0.086996 0.847993 0.289394
0.210172 0.808772 0.265897
0.492431 0.779709 0.214212
0.945793 0.761483 0.228886
1.000000 0.758160 0.252102
0.113717 1.000000 0.283615
0.269291 1.000000 0.278673
0.612366 0.999986 0.257196
0.941843 0.998948 0.234580
1.000000 0.991851 0.240853
0.000000 0.032154 0.801987
0.031033 0.035439 0.801814
0.241399 0.034419 0.806572
0.581236 0.019791 0.802252
0.770881 0.008529 0.797063
0.000000 0.139971 0.768469
0.022644 0.131312 0.762805
0.274648 0.128358 0.785145
0.664457 0.112946 0.787179
0.848269 0.095584 0.777691
0.000000 0.453962 0.724330
0.051910 0.405782 0.718310
0.271471 0.375815 0.770136
0.817083 0.401956 0.795262
0.961351 0.384851 0.737581
0.029739 0.843206 0.697580
0.137644 0.819527 0.706140
0.416880 0.811624 0.742417
0.924907 0.839985 0.704030
1.000000 0.827122 0.706355
0.045287 1.000000 0.683330
0.183288 1.000000 0.696902
0.527529 1.000000 0.713867
0.919361 1.000000 0.712103
1.000000 1.000000 0.713221
0.000000 0.024460 1.000000
0.005289 0.021873 1.000000
0.167842 0.016494 1.000000
0.493003 0.006038 0.999951
0.689550 0.000000 0.995673
0.000000 0.138315 0.988625
0.005572 0.125968 0.989826
0.200969 0.113182 1.000000
0.568857 0.102105 1.000000
0.771520 0.089155 0.994555
0.000000 0.461625 0.961504
0.028492 0.435173 0.975468
0.272074 0.420230 1.000000
0.718625 0.430064 1.000000
0.918272 0.413009 1.000000
0.002817 0.845185 0.935064
0.100589 0.831172 0.959858
0.405483 0.838933 1.000000
0.873960 0.892146 1.000000
1.000000 0.863660 1.000000
0.015689 1.000000 0.917922
0.144775 1.000000 0.942237
0.493667 1.000000 0.988760
0.903445 1.000000 1.000000
1.000000 1.000000 1.000000
