luts/silbersalz-gold200_v1-paired_33.cube
TITLE "silbersalz-gold200_v1-paired-jxl_33"
# Generated by silbersalz-look on 2026-08-23
# Input:  Silbersalz flat-scan code values [0,1] (Display P3 tagged)
# Output: graded display code values (Display P3)
# pairs: 27
LUT_3D_SIZE 33
DOMAIN_MIN 0.0 0.0 0.0
DOMAIN_MAX 1.0 1.0 1.0
0.000000 0.021421 0.001575
0.000000 0.021052 0.001590
0.005471 0.020356 0.001646
0.016951 0.019407 0.001792
0.032364 0.018312 0.002094
0.051738 0.017189 0.002627
0.075064 0.016157 0.003461
0.102284 0.015322 0.004655
0.133291 0.014756 0.006242
0.167925 0.014496 0.008221
0.205967 0.014534 0.010547
0.247144 0.014830 0.013140
0.291120 0.015317 0.015892
0.337499 0.015920 0.018678
0.385830 0.016561 0.021376
0.435609 0.017172 0.023869
0.486290 0.017699 0.026059
0.537297 0.018102 0.027873
0.588038 0.018359 0.029261
0.637916 0.018460 0.030200
0.686350 0.018408 0.030690
0.732786 0.018214 0.030755
0.776710 0.017896 0.030438
0.817661 0.017478 0.029796
0.855239 0.016986 0.028901
0.889110 0.016448 0.027830
0.919009 0.015893 0.026664
0.944741 0.015351 0.025484
0.966177 0.014848 0.024367
0.983252 0.014412 0.023383
0.995960 0.014064 0.022589
1.000000 0.013821 0.022034
1.000000 0.013697 0.021748
0.000000 0.024962 0.001400
0.000000 0.024567 0.001410
0.005888 0.023819 0.001456
0.017365 0.022798 0.001588
0.032776 0.021613 0.001872
0.052150 0.020390 0.002383
0.075477 0.019255 0.003195
0.102699 0.018318 0.004369
0.133706 0.017658 0.005943
0.168337 0.017313 0.007919
0.206377 0.017277 0.010256
0.247553 0.017507 0.012872
0.291532 0.017937 0.015658
0.337918 0.018487 0.018488
0.386261 0.019081 0.021235
0.436057 0.019650 0.023780
0.486760 0.020138 0.026025
0.537790 0.020508 0.027892
0.588553 0.020737 0.029330
0.638450 0.020815 0.030315
0.686896 0.020745 0.030846
0.733336 0.020538 0.030946
0.777253 0.020211 0.030658
0.818187 0.019787 0.030039
0.855738 0.019292 0.029161
0.889572 0.018752 0.028102
0.919428 0.018197 0.026944
0.945111 0.017654 0.025769
0.966497 0.017152 0.024653
0.983525 0.016717 0.023669
0.996193 0.016369 0.022875
1.000000 0.016126 0.022319
1.000000 0.016002 0.022032
0.000000 0.032094 0.001070
0.000000 0.031646 0.001071
0.006776 0.030797 0.001098
0.018246 0.029633 0.001203
0.033652 0.028273 0.001451
0.053025 0.026852 0.001920
0.076353 0.025511 0.002687
0.103573 0.024372 0.003820
0.134576 0.023523 0.005367
0.169199 0.023008 0.007336
0.207231 0.022821 0.009691
0.248400 0.022917 0.012350
0.292378 0.023228 0.015202
0.338774 0.023671 0.018114
0.387137 0.024168 0.020956
0.436964 0.024649 0.023603
0.487705 0.025060 0.025953
0.538778 0.025362 0.027924
0.589582 0.025534 0.029461
0.639513 0.025566 0.030537
0.687982 0.025460 0.031150
0.734427 0.025227 0.031320
0.778330 0.024883 0.031089
0.819229 0.024448 0.030517
0.856724 0.023946 0.029673
0.890485 0.023404 0.028638
0.920253 0.022848 0.027495
0.945840 0.022306 0.026328
0.967128 0.021806 0.025217
0.984062 0.021371 0.024233
0.996649 0.021024 0.023437
1.000000 0.020783 0.022879
1.000000 0.020659 0.022592
0.000000 0.042910 0.000620
0.000656 0.042387 0.000607
0.008237 0.041390 0.000608
0.019695 0.040017 0.000673
0.035091 0.038399 0.000871
0.054458 0.036688 0.001279
0.077781 0.035043 0.001979
0.104993 0.033603 0.003050
0.135980 0.032470 0.004551
0.170582 0.031696 0.006505
0.208590 0.031278 0.008880
0.249739 0.031167 0.011597
0.293705 0.031291 0.014539
0.340103 0.031566 0.017568
0.388485 0.031910 0.020544
0.438347 0.032255 0.023338
0.489136 0.032545 0.025840
0.540264 0.032744 0.027961
0.591122 0.032830 0.029643
0.641099 0.032792 0.030854
0.689596 0.032634 0.031586
0.736044 0.032362 0.031860
0.779923 0.031992 0.031715
0.820767 0.031542 0.031210
0.858178 0.031032 0.030418
0.891827 0.030487 0.029419
0.921464 0.029932 0.028299
0.946906 0.029393 0.027145
0.968047 0.028895 0.026039
0.984841 0.028463 0.025056
0.997308 0.028118 0.024259
1.000000 0.027878 0.023698
1.000000 0.027755 0.023410
0.000000 0.057537 0.000091
0.002841 0.056916 0.000061
0.010408 0.055732 0.000028
0.021848 0.054090 0.000044
0.037226 0.052140 0.000176
0.056577 0.050055 0.000504
0.079883 0.048014 0.001116
0.107070 0.046177 0.002102
0.138022 0.044666 0.003539
0.172580 0.043542 0.005465
0.210539 0.042805 0.007860
0.251643 0.042405 0.010642
0.295576 0.042267 0.013691
0.341958 0.042305 0.016861
0.390346 0.042435 0.020004
0.440236 0.042589 0.022982
0.491072 0.042713 0.025675
0.542258 0.042769 0.027990
0.593176 0.042737 0.029859
0.643201 0.042607 0.031242
0.691725 0.042379 0.032131
0.738171 0.042058 0.032540
0.782011 0.041656 0.032508
0.822776 0.041188 0.032093
0.860071 0.040670 0.031368
0.893570 0.040124 0.030417
0.923030 0.039572 0.029328
0.948281 0.039037 0.028191
0.969226 0.038544 0.027093
0.985836 0.038117 0.026111
0.998145 0.037775 0.025312
1.000000 0.037538 0.024749
1.000000 0.037415 0.024458
0.002131 0.076113 0.000000
0.005885 0.075378 0.000000
0.013435 0.073971 0.000000
0.024852 0.072013 0.000000
0.040202 0.069668 0.000000
0.059521 0.067134 0.000000
0.082789 0.064612 0.000136
0.109927 0.062289 0.001015
0.140816 0.060307 0.002369
0.175298 0.058738 0.004256
0.213175 0.057589 0.006664
0.254200 0.056811 0.009513
0.298067 0.056327 0.012678
0.344405 0.056050 0.016006
0.392774 0.055898 0.019339
0.442674 0.055801 0.022529
0.493544 0.055708 0.025447
0.544779 0.055581 0.027990
0.595749 0.055399 0.030081
0.645817 0.055153 0.031675
0.694360 0.054839 0.032754
0.740790 0.054459 0.033328
0.784570 0.054020 0.033434
0.825229 0.053532 0.033129
0.862372 0.053007 0.032488
0.895680 0.052462 0.031595
0.924917 0.051916 0.030545
0.949928 0.051389 0.029430
0.970630 0.050904 0.028342
0.987012 0.050484 0.027362
0.999127 0.050148 0.026561
1.000000 0.049914 0.025995
1.000000 0.049794 0.025702
0.006171 0.098768 0.000000
0.009918 0.097907 0.000000
0.017452 0.096253 0.000000
0.028841 0.093940 0.000000
0.044153 0.091152 0.000000
0.063421 0.088107 0.000000
0.086623 0.085033 0.000000
0.113678 0.082142 0.000000
0.144468 0.079597 0.001073
0.178837 0.077488 0.002910
0.216595 0.075829 0.005324
0.257503 0.074576 0.008238
0.301265 0.073655 0.011522
0.347520 0.072980 0.015014
0.395837 0.072470 0.018549
0.445716 0.072059 0.021969
0.496594 0.071694 0.025136
0.547858 0.071341 0.027935
0.598863 0.070978 0.030280
0.648956 0.070592 0.032115
0.697498 0.070176 0.033414
0.743888 0.069728 0.034181
0.787580 0.069248 0.034449
0.828099 0.068739 0.034274
0.865050 0.068209 0.033731
0.898121 0.067668 0.032909
0.927088 0.067131 0.031905
0.951810 0.066616 0.030817
0.972222 0.066143 0.029742
0.988333 0.065733 0.028765
1.000000 0.065405 0.027962
1.000000 0.065176 0.027393
1.000000 0.065059 0.027098
0.011290 0.125597 0.000000
0.015032 0.124602 0.000000
0.022553 0.122688 0.000000
0.033915 0.119997 0.000000
0.049178 0.116732 0.000000
0.068373 0.113130 0.000000
0.091478 0.109445 0.000000
0.118415 0.105913 0.000000
0.149068 0.102722 0.000000
0.183287 0.099978 0.001465
0.220888 0.097710 0.003878
0.261639 0.095884 0.006850
0.305255 0.094431 0.010245
0.351386 0.093271 0.013898
0.399610 0.092327 0.017636
0.449430 0.091535 0.021295
0.500281 0.090845 0.024724
0.551542 0.090223 0.027799
0.602551 0.089645 0.030421
0.652640 0.089096 0.032521
0.701149 0.088564 0.034065
0.747465 0.088039 0.035050
0.791030 0.087513 0.035501
0.831365 0.086984 0.035474
0.868077 0.086450 0.035044
0.900862 0.085916 0.034304
0.929508 0.085393 0.033354
0.953889 0.084893 0.032299
0.973963 0.084435 0.031239
0.989762 0.084037 0.030268
1.000000 0.083720 0.029464
1.000000 0.083498 0.028892
1.000000 0.083384 0.028595
0.017529 0.156633 0.000000
0.021270 0.155504 0.000000
0.028783 0.153325 0.000000
0.040119 0.150248 0.000000
0.055329 0.146489 0.000000
0.074436 0.142303 0.000000
0.097418 0.137965 0.000000
0.124204 0.133736 0.000000
0.154687 0.129824 0.000000
0.188723 0.126360 0.000000
0.226133 0.123390 0.002387
0.266694 0.120894 0.005397
0.310128 0.118818 0.008884
0.356095 0.117087 0.012681
0.404183 0.115633 0.016610
0.453901 0.114396 0.020501
0.504681 0.113328 0.024194
0.555895 0.112396 0.027553
0.606866 0.111573 0.030466
0.656905 0.110839 0.032851
0.705337 0.110175 0.034661
0.751530 0.109563 0.035881
0.794918 0.108988 0.036534
0.835016 0.108435 0.036671
0.871433 0.107898 0.036368
0.903875 0.107373 0.035720
0.932143 0.106865 0.034832
0.956131 0.106383 0.033815
0.975819 0.105943 0.032775
0.991264 0.105561 0.031812
1.000000 0.105255 0.031009
1.000000 0.105042 0.030436
1.000000 0.104932 0.030137
0.024875 0.191824 0.000000
0.028620 0.190565 0.000000
0.036133 0.188128 0.000000
0.047453 0.184673 0.000000
0.062614 0.180422 0.000000
0.081630 0.175646 0.000000
0.104478 0.170636 0.000000
0.131097 0.165671 0.000000
0.161389 0.160984 0.000000
0.195218 0.156728 0.000000
0.232413 0.152974 0.000943
0.272755 0.149725 0.003956
0.315977 0.146941 0.007497
0.361745 0.144563 0.011403
0.409657 0.142531 0.015494
0.459226 0.140789 0.019595
0.509887 0.139295 0.023541
0.561000 0.138015 0.027180
0.611877 0.136918 0.030388
0.661808 0.135977 0.033065
0.710101 0.135166 0.035151
0.756108 0.134457 0.036622
0.799254 0.133824 0.037490
0.839049 0.133244 0.037803
0.875106 0.132701 0.037638
0.907140 0.132184 0.037091
0.934969 0.131691 0.036274
0.958507 0.131229 0.035301
0.977758 0.130807 0.034286
0.992807 0.130442 0.033334
1.000000 0.130149 0.032535
1.000000 0.129945 0.031961
1.000000 0.129839 0.031661
0.033275 0.231014 0.000000
0.037031 0.229634 0.000000
0.044557 0.226957 0.000000
0.055876 0.223145 0.000000
0.071006 0.218426 0.000000
0.089949 0.213076 0.000000
0.112678 0.207399 0.000000
0.139138 0.201689 0.000000
0.169237 0.196196 0.000000
0.202853 0.191102 0.000000
0.239819 0.186505 0.000000
0.279925 0.182436 0.002623
0.322910 0.178878 0.006164
0.368450 0.175789 0.010124
0.416148 0.173120 0.014331
0.465524 0.170826 0.018605
0.516011 0.168866 0.022774
0.566961 0.167205 0.026675
0.617673 0.165807 0.030166
0.667422 0.164639 0.033132
0.715497 0.163663 0.035496
0.761239 0.162843 0.037221
0.804060 0.162142 0.038310
0.843472 0.161527 0.038808
0.879092 0.160971 0.038789
0.910645 0.160458 0.038352
0.937967 0.159978 0.037612
0.960994 0.159532 0.036690
0.979756 0.159129 0.035705
0.994366 0.158779 0.034769
1.000000 0.158500 0.033976
1.000000 0.158304 0.033404
1.000000 0.158204 0.033105
0.042651 0.273933 0.000000
0.046426 0.272447 0.000000
0.053983 0.269556 0.000000
0.065328 0.265423 0.000000
0.080461 0.260275 0.000000
0.099371 0.254392 0.000000
0.122022 0.248081 0.000000
0.148358 0.241644 0.000000
0.178293 0.235350 0.000000
0.211710 0.229405 0.000000
0.248453 0.223938 0.000000
0.288320 0.219013 0.001501
0.331055 0.214638 0.004975
0.376343 0.210796 0.008925
0.423793 0.207451 0.013185
0.472927 0.204569 0.017579
0.523178 0.202112 0.021926
0.573892 0.200043 0.026052
0.624356 0.198321 0.029799
0.673831 0.196904 0.033034
0.721592 0.195746 0.035664
0.766969 0.194798 0.037635
0.809369 0.194014 0.038945
0.848304 0.193350 0.039628
0.883397 0.192772 0.039758
0.914387 0.192254 0.039436
0.941127 0.191779 0.038779
0.963578 0.191345 0.037914
0.981796 0.190955 0.036965
0.995923 0.190619 0.036050
1.000000 0.190351 0.035268
1.000000 0.190163 0.034701
1.000000 0.190067 0.034403
0.052904 0.320195 0.000000
0.056712 0.318620 0.000000
0.064324 0.315549 0.000000
0.075733 0.311142 0.000000
0.090921 0.305623 0.000000
0.109857 0.299268 0.000000
0.132496 0.292381 0.000000
0.158772 0.285271 0.000000
0.188600 0.278218 0.000000
0.221864 0.271449 0.000000
0.258414 0.265127 0.000000
0.298056 0.259346 0.000682
0.340543 0.254147 0.004022
0.385564 0.249537 0.007891
0.432733 0.245500 0.012135
0.481577 0.242011 0.016581
0.531524 0.239038 0.021045
0.581916 0.236541 0.025343
0.632032 0.234475 0.029301
0.681123 0.232789 0.032769
0.728456 0.231427 0.035635
0.773352 0.230331 0.037834
0.815218 0.229445 0.039350
0.853568 0.228716 0.040212
0.888033 0.228099 0.040490
0.918367 0.227562 0.040284
0.944445 0.227082 0.039714
0.966250 0.226650 0.038911
0.983867 0.226267 0.038004
0.997469 0.225939 0.037115
1.000000 0.225678 0.036349
1.000000 0.225496 0.035790
1.000000 0.225403 0.035496
0.063933 0.369303 0.000000
0.067788 0.367659 0.000000
0.075486 0.364449 0.000000
0.087005 0.359825 0.000000
0.102309 0.354004 0.000000
0.121349 0.347256 0.000000
0.144061 0.339879 0.000000
0.170367 0.332181 0.000000
0.200172 0.324449 0.000000
0.233357 0.316930 0.000000
0.269774 0.309810 0.000000
0.309231 0.303218 0.000226
0.351487 0.297226 0.003377
0.396238 0.291868 0.007101
0.443100 0.287148 0.011258
0.491601 0.283055 0.015683
0.541169 0.279561 0.020192
0.591144 0.276626 0.024593
0.640799 0.274200 0.028699
0.689382 0.272226 0.032345
0.736156 0.270639 0.035405
0.780440 0.269373 0.037798
0.821643 0.268362 0.039495
0.859286 0.267545 0.040520
0.893013 0.266870 0.040937
0.922593 0.266296 0.040844
0.947922 0.265795 0.040363
0.969009 0.265353 0.039626
0.985966 0.264966 0.038766
0.998999 0.264639 0.037910
1.000000 0.264380 0.037164
1.000000 0.264200 0.036617
1.000000 0.264107 0.036328
0.075630 0.420662 0.000000
0.079549 0.418972 0.000000
0.087368 0.415666 0.000000
0.099050 0.410889 0.000000
0.114540 0.404850 0.000000
0.133770 0.397805 0.000000
0.156653 0.390046 0.000000
0.183094 0.381874 0.000000
0.212982 0.373579 0.000000
0.246188 0.365419 0.000000
0.282555 0.357604 0.000000
0.321891 0.350289 0.000159
0.363957 0.343577 0.003084
0.408448 0.337527 0.006610
0.454985 0.332165 0.010615
0.503094 0.327493 0.014946
0.552206 0.323490 0.019422
0.601660 0.320117 0.023846
0.650732 0.317323 0.028025
0.698671 0.315046 0.031783
0.744742 0.313214 0.034978
0.788271 0.311755 0.037517
0.828674 0.310595 0.039362
0.865480 0.309666 0.040525
0.898349 0.308909 0.041064
0.927070 0.308277 0.041077
0.951560 0.307737 0.040682
0.971854 0.307269 0.040013
0.988094 0.306866 0.039206
1.000000 0.306529 0.038386
1.000000 0.306265 0.037667
1.000000 0.306082 0.037135
1.000000 0.305989 0.036854
0.087885 0.473598 0.000853
0.091886 0.471886 0.000554
0.099862 0.468532 0.000000
0.111762 0.463673 0.000000
0.127513 0.457505 0.000000
0.147022 0.450274 0.000000
0.170182 0.442256 0.000000
0.196873 0.433746 0.000000
0.226962 0.425032 0.000000
0.260302 0.416376 0.000000
0.296722 0.408005 0.000000
0.336022 0.400094 0.000469
0.377954 0.392772 0.003147
0.422214 0.386121 0.006438
0.468417 0.380188 0.010239
0.516093 0.374987 0.014409
0.564673 0.370507 0.018774
0.613503 0.366713 0.023141
0.661866 0.363554 0.027312
0.709020 0.360966 0.031103
0.754242 0.358875 0.034366
0.796867 0.357202 0.036995
0.836324 0.355870 0.038942
0.872159 0.354805 0.040210
0.904048 0.353942 0.040851
0.931802 0.353230 0.040957
0.955361 0.352630 0.040643
0.974787 0.352119 0.040042
0.990251 0.351686 0.039289
1.000000 0.351328 0.038512
1.000000 0.351051 0.037822
1.000000 0.350861 0.037310
1.000000 0.350764 0.037038
0.100586 0.527379 0.002108
0.104687 0.525669 0.001821
0.112856 0.522317 0.001277
0.125027 0.517448 0.000538
0.141111 0.511248 0.000000
0.160990 0.503947 0.000000
0.184532 0.495808 0.000000
0.211588 0.487112 0.000000
0.241999 0.478141 0.000000
0.275593 0.469158 0.000000
0.312179 0.460396 0.000000
0.351536 0.452046 0.001115
0.393407 0.444255 0.003539
0.437473 0.437125 0.006573
0.483349 0.430719 0.010130
0.530560 0.425065 0.014082
0.578543 0.420162 0.018267
0.626652 0.415981 0.022498
0.674186 0.412476 0.026579
0.720420 0.409582 0.030326
0.764646 0.407225 0.033584
0.806219 0.405326 0.036241
0.844588 0.403803 0.038240
0.879317 0.402581 0.039575
0.910104 0.401591 0.040291
0.936783 0.400777 0.040472
0.959321 0.400098 0.040231
0.977807 0.399527 0.039695
0.992437 0.399049 0.038998
1.000000 0.398659 0.038266
1.000000 0.398360 0.037611
1.000000 0.398157 0.037122
1.000000 0.398053 0.036862
0.113617 0.581236 0.003462
0.117834 0.579555 0.003191
0.126229 0.576253 0.002678
0.138723 0.571450 0.001977
0.155206 0.565315 0.001172
0.175539 0.558064 0.000364
0.199560 0.549944 0.000000
0.227091 0.541221 0.000000
0.257941 0.532165 0.000000
0.291907 0.523035 0.000000
0.328769 0.514063 0.000476
0.368282 0.505450 0.002031
0.410166 0.497352 0.004207
0.454088 0.489887 0.006973
0.499651 0.483130 0.010258
0.546378 0.477123 0.013949
0.593712 0.471873 0.017895
0.641020 0.467361 0.021921
0.687618 0.463544 0.025838
0.732806 0.460364 0.029465
0.775902 0.457749 0.032648
0.816286 0.455621 0.035270
0.853430 0.453899 0.037268
0.886926 0.452506 0.038630
0.916496 0.451372 0.039391
0.941999 0.450439 0.039628
0.963430 0.449665 0.039447
0.980905 0.449019 0.038972
0.994650 0.448483 0.038331
1.000000 0.448052 0.037647
1.000000 0.447723 0.037029
1.000000 0.447501 0.036566
1.000000 0.447389 0.036318
0.126854 0.634394 0.004861
0.131202 0.632765 0.004608
0.139853 0.629562 0.004130
0.152715 0.624895 0.003475
0.169657 0.618921 0.002718
0.190517 0.611838 0.001952
0.215103 0.603876 0.001284
0.243206 0.595283 0.000827
0.274599 0.586314 0.000694
0.309043 0.577218 0.000986
0.346284 0.568224 0.001784
0.386045 0.559529 0.003143
0.428017 0.551298 0.005080
0.471847 0.543656 0.007577
0.517121 0.536688 0.010574
0.563359 0.530445 0.013972
0.610008 0.524943 0.017634
0.656451 0.520174 0.021399
0.702027 0.516102 0.025088
0.746065 0.512674 0.028530
0.787914 0.509824 0.031573
0.826987 0.507479 0.034102
0.862786 0.505560 0.036049
0.894934 0.503992 0.037396
0.923182 0.502706 0.038171
0.947419 0.501646 0.038443
0.967667 0.500765 0.038311
0.984069 0.500033 0.037889
0.996882 0.499431 0.037301
1.000000 0.498950 0.036665
1.000000 0.498586 0.036087
1.000000 0.498341 0.035651
1.000000 0.498218 0.035418
0.140169 0.686092 0.006252
0.144661 0.684537 0.006020
0.153591 0.681479 0.005579
0.166857 0.677015 0.004974
0.184307 0.671291 0.004272
0.205754 0.664486 0.003556
0.230978 0.656811 0.002922
0.259732 0.648495 0.002471
0.291755 0.639777 0.002307
0.326767 0.630890 0.002522
0.364475 0.622053 0.003192
0.404565 0.613458 0.004372
0.446694 0.605268 0.006083
0.490481 0.597612 0.008314
0.535497 0.590580 0.011017
0.581252 0.584231 0.014102
0.627197 0.578589 0.017450
0.672732 0.573654 0.020911
0.717223 0.569398 0.024324
0.760030 0.565778 0.027527
0.800541 0.562734 0.030376
0.838204 0.560199 0.032761
0.872560 0.558100 0.034612
0.903265 0.556366 0.035906
0.930104 0.554933 0.036666
0.952997 0.553743 0.036952
0.971997 0.552753 0.036853
0.987278 0.551932 0.036476
0.999124 0.551259 0.035938
1.000000 0.550723 0.035349
1.000000 0.550320 0.034811
1.000000 0.550051 0.034404
1.000000 0.549915 0.034186
0.153426 0.735611 0.007592
0.158071 0.734150 0.007380
0.167299 0.731276 0.006978
0.180995 0.727075 0.006426
0.198990 0.721679 0.005782
0.221069 0.715250 0.005121
0.246983 0.707979 0.004528
0.276450 0.700075 0.004095
0.309168 0.691755 0.003913
0.344818 0.683236 0.004067
0.383062 0.674722 0.004628
0.423545 0.666396 0.005646
0.465888 0.658414 0.007145
0.509680 0.650903 0.009119
0.554469 0.643957 0.011526
0.599755 0.637636 0.014290
0.644993 0.631974 0.017304
0.689600 0.626975 0.020436
0.732969 0.622623 0.023537
0.774493 0.618880 0.026461
0.813602 0.615698 0.029076
0.849784 0.613016 0.031275
0.882624 0.610768 0.032992
0.911814 0.608892 0.034202
0.937178 0.607325 0.034920
0.958671 0.606017 0.035199
0.976376 0.604924 0.035119
0.990500 0.604016 0.034779
1.000000 0.603274 0.034285
1.000000 0.602684 0.033742
1.000000 0.602243 0.033243
1.000000 0.601948 0.032865
1.000000 0.601800 0.032663
0.166482 0.782295 0.008845
0.171284 0.780946 0.008654
0.180822 0.778288 0.008291
0.194965 0.774401 0.007791
0.213526 0.769400 0.007207
0.236267 0.763430 0.006604
0.262905 0.756662 0.006058
0.293124 0.749283 0.005649
0.326582 0.741489 0.005460
0.362915 0.733477 0.005566
0.401743 0.725432 0.006031
0.442668 0.717526 0.006903
0.485270 0.709904 0.008204
0.529105 0.702687 0.009931
0.573698 0.695968 0.012048
0.618537 0.689809 0.014491
0.663081 0.684246 0.017165
0.706759 0.679292 0.019952
0.748991 0.674937 0.022722
0.789209 0.671154 0.025342
0.826882 0.667901 0.027693
0.861545 0.665127 0.029677
0.892824 0.662776 0.031232
0.920457 0.660792 0.032330
0.944306 0.659120 0.032984
0.964363 0.657712 0.033239
0.980746 0.656531 0.033165
0.993694 0.655549 0.032852
1.000000 0.654744 0.032397
1.000000 0.654106 0.031896
1.000000 0.653630 0.031435
1.000000 0.653312 0.031086
1.000000 0.653153 0.030899
0.179188 0.825575 0.009985
0.184149 0.824350 0.009814
0.193999 0.821936 0.009489
0.208596 0.818402 0.009041
0.227732 0.813848 0.008516
0.251145 0.808403 0.007972
0.278522 0.802217 0.007474
0.309510 0.795455 0.007095
0.343729 0.788291 0.006905
0.380770 0.780899 0.006973
0.420209 0.773446 0.007355
0.461604 0.766086 0.008094
0.504495 0.758955 0.009211
0.548404 0.752163 0.010703
0.592830 0.745799 0.012542
0.637251 0.739925 0.014670
0.681122 0.734578 0.017006
0.723889 0.729776 0.019447
0.764996 0.725515 0.021878
0.803912 0.721777 0.024183
0.840147 0.718528 0.026254
0.873283 0.715727 0.028005
0.902990 0.713327 0.029378
0.929053 0.711279 0.030347
0.951374 0.709538 0.030920
0.969985 0.708061 0.031135
0.985041 0.706816 0.031055
0.996815 0.705776 0.030761
1.000000 0.704923 0.030338
1.000000 0.704247 0.029875
1.000000 0.703742 0.029450
1.000000 0.703406 0.029128
1.000000 0.703237 0.028956
0.191390 0.864981 0.010996
0.196509 0.863890 0.010844
0.206668 0.861737 0.010556
0.221713 0.858584 0.010158
0.241419 0.854515 0.009690
0.265499 0.849643 0.009203
0.293609 0.844097 0.008754
0.325364 0.838020 0.008406
0.360342 0.831562 0.008221
0.398094 0.824877 0.008258
0.438150 0.818111 0.008567
0.480027 0.811400 0.009184
0.523223 0.804865 0.010130
0.567227 0.798607 0.011403
0.611513 0.792707 0.012978
0.655544 0.787225 0.014805
0.698776 0.782198 0.016814
0.740665 0.777646 0.018916
0.780681 0.773572 0.021013
0.818326 0.769963 0.023002
0.853151 0.766794 0.024790
0.884782 0.764034 0.026301
0.912939 0.761644 0.027481
0.937448 0.759585 0.028309
0.958259 0.757817 0.028789
0.975442 0.756307 0.028954
0.989191 0.755026 0.028859
0.999814 0.753952 0.028575
1.000000 0.753069 0.028179
1.000000 0.752369 0.027749
1.000000 0.751845 0.027356
1.000000 0.751497 0.027060
1.000000 0.751322 0.026900
0.202933 0.900158 0.011869
0.208205 0.899205 0.011736
0.218663 0.897325 0.011482
0.234141 0.894568 0.011131
0.254398 0.891008 0.010717
0.279123 0.886737 0.010285
0.307944 0.881866 0.009883
0.340442 0.876516 0.009566
0.376158 0.870816 0.009388
0.414603 0.864896 0.009399
0.455264 0.858882 0.009643
0.497616 0.852892 0.010152
0.541120 0.847032 0.010942
0.585232 0.841390 0.012011
0.629400 0.836040 0.013340
0.673075 0.831037 0.014884
0.715708 0.826416 0.016585
0.756768 0.822200 0.018366
0.795746 0.818394 0.020141
0.832174 0.814991 0.021824
0.865644 0.811975 0.023335
0.895826 0.809322 0.024607
0.922483 0.807001 0.025594
0.945490 0.804981 0.026275
0.964837 0.803233 0.026656
0.980638 0.801728 0.026764
0.993125 0.800444 0.026646
1.000000 0.799362 0.026365
1.000000 0.798471 0.025990
1.000000 0.797762 0.025588
1.000000 0.797231 0.025224
1.000000 0.796878 0.024950
1.000000 0.796701 0.024804
0.213665 0.930873 0.012604
0.219079 0.930060 0.012488
0.229819 0.928455 0.012266
0.245707 0.926099 0.011958
0.266484 0.923052 0.011595
0.291817 0.919392 0.011213
0.321310 0.915209 0.010856
0.354511 0.910604 0.010569
0.390926 0.905684 0.010399
0.430027 0.900558 0.010389
0.471264 0.895333 0.010575
0.514070 0.890106 0.010986
0.557874 0.884968 0.011635
0.602097 0.879997 0.012520
0.646167 0.875256 0.013623
0.689519 0.870793 0.014909
0.731603 0.866645 0.016325
0.771894 0.862830 0.017807
0.809903 0.859358 0.019282
0.845192 0.856226 0.020678
0.877389 0.853424 0.021925
0.906204 0.850935 0.022968
0.931445 0.848737 0.023768
0.953028 0.846807 0.024306
0.970988 0.845122 0.024586
0.985479 0.843660 0.024632
0.996773 0.842405 0.024487
1.000000 0.841342 0.024204
1.000000 0.840463 0.023843
1.000000 0.839762 0.023465
1.000000 0.839237 0.023126
1.000000 0.838886 0.022872
1.000000 0.838711 0.022737
0.223435 0.957020 0.013207
0.228982 0.956344 0.013106
0.239980 0.955008 0.012912
0.256244 0.953045 0.012644
0.277499 0.950502 0.012326
0.303393 0.947441 0.011990
0.333503 0.943936 0.011673
0.367351 0.940068 0.011414
0.404408 0.935924 0.011253
0.444114 0.931592 0.011225
0.485882 0.927159 0.011361
0.529111 0.922706 0.011686
0.573194 0.918309 0.012209
0.617527 0.914031 0.012930
0.661515 0.909929 0.013832
0.704579 0.906043 0.014884
0.746167 0.902405 0.016044
0.785760 0.899035 0.017256
0.822887 0.895942 0.018460
0.857135 0.893129 0.019593
