luts/silbersalz-50d_v0-statistical_33.cube
TITLE "silbersalz-50d_v0-statistical_33"
# Generated by saltgate on 2026-08-23
# Input:  Silbersalz flat-scan code values [0,1] (Display P3 tagged)
# Output: graded display code values (Display P3)
# track: v0-statistical
LUT_3D_SIZE 5
DOMAIN_MIN 0.0 0.0 0.0
DOMAIN_MAX 1.0 1.0 1.0
0.007488 0.009980 0.019777
0.007830 0.009942 0.019751
0.118570 0.008233 0.018373
0.741547 0.004489 0.013703
0.983778 0.003771 0.012396
0.007464 0.010719 0.019597
0.007804 0.010675 0.019571
0.118402 0.008730 0.018214
0.741376 0.004634 0.013614
0.983723 0.003872 0.012324
0.006562 0.123250 0.014036
0.006824 0.123101 0.014023
0.111175 0.114853 0.013302
0.733957 0.075261 0.010657
0.981048 0.059103 0.009849
0.004196 0.685195 0.005995
0.004302 0.685043 0.005993
0.077540 0.676634 0.005856
0.699308 0.635922 0.005277
0.954570 0.619241 0.005072
0.003361 0.995944 0.004284
0.003428 0.995937 0.004283
0.054856 0.995516 0.004214
0.675928 0.989896 0.003908
0.931195 0.985066 0.003794
0.007484 0.009943 0.021829
0.007826 0.009905 0.021801
0.118546 0.008208 0.020261
0.741522 0.004482 0.014737
0.983770 0.003765 0.013237
0.007460 0.010676 0.021638
0.007800 0.010632 0.021610
0.118378 0.008701 0.020071
0.741351 0.004626 0.014634
0.983715 0.003866 0.013154
0.006560 0.123102 0.015121
0.006821 0.122953 0.015105
0.111151 0.114706 0.014275
0.733933 0.075115 0.011275
0.981038 0.058959 0.010374
0.004195 0.685045 0.006188
0.004300 0.684893 0.006185
0.077516 0.676485 0.006040
0.699284 0.635771 0.005426
0.954545 0.619091 0.005209
0.003360 0.995937 0.004381
0.003427 0.995930 0.004380
0.054832 0.995507 0.004307
0.675903 0.989859 0.003988
0.931171 0.985019 0.003870
0.007315 0.008376 0.125848
0.007641 0.008349 0.125820
0.117339 0.007107 0.124279
0.740284 0.004131 0.116849
0.983352 0.003516 0.113811
0.007292 0.008891 0.125657
0.007616 0.008861 0.125629
0.117172 0.007475 0.124088
0.740112 0.004254 0.116658
0.983295 0.003603 0.113621
0.006429 0.115713 0.117394
0.006680 0.115565 0.117366
0.109946 0.107337 0.115829
0.732694 0.067784 0.108414
0.980542 0.051992 0.105381
0.004141 0.677513 0.079032
0.004244 0.677361 0.079005
0.076315 0.668940 0.077489
0.698045 0.628209 0.070200
0.953308 0.611529 0.067223
0.003325 0.995565 0.053555
0.003391 0.995557 0.053528
0.053631 0.995033 0.052029
0.674665 0.987775 0.044801
0.929932 0.982317 0.041842
0.006640 0.004911 0.593419
0.006908 0.004902 0.593391
0.111922 0.004443 0.591850
0.734717 0.003060 0.584412
0.981324 0.002710 0.581366
0.006621 0.005085 0.593228
0.006888 0.005075 0.593200
0.111755 0.004585 0.591659
0.734546 0.003127 0.584221
0.981259 0.002762 0.581175
0.005902 0.082672 0.584958
0.006113 0.082524 0.584930
0.104535 0.074332 0.583389
0.727127 0.036902 0.575950
0.978062 0.022709 0.572905
0.003915 0.643550 0.546328
0.004007 0.643398 0.546300
0.070917 0.634957 0.544759
0.692478 0.594217 0.537320
0.947746 0.577537 0.534275
0.003178 0.991711 0.520261
0.003239 0.991679 0.520233
0.048360 0.989637 0.518692
0.669098 0.972437 0.511253
0.924366 0.956897 0.508208
0.006164 0.003633 0.979074
0.006395 0.003628 0.979060
0.107407 0.003371 0.978283
0.730076 0.002511 0.973635
0.979428 0.002271 0.971101
0.006148 0.003727 0.978981
0.006377 0.003721 0.978968
0.107240 0.003451 0.978184
0.729905 0.002556 0.973490
0.979355 0.002308 0.970922
0.005522 0.055341 0.974007
0.005707 0.055202 0.973986
0.100024 0.047615 0.972786
0.722487 0.015216 0.965706
0.975597 0.009563 0.962673
0.003744 0.615214 0.936096
0.003828 0.615062 0.936069
0.066415 0.606622 0.934528
0.687838 0.565882 0.927089
0.943106 0.549201 0.924043
0.003065 0.983685 0.910029
0.003121 0.983630 0.910002
0.044120 0.980277 0.908461
0.664457 0.945252 0.901022
0.919725 0.928573 0.897976
