luts/silbersalz-gold200_v1-paired_33.cube
TITLE "silbersalz-gold200_v1-paired-jxl_33"
# Generated by silbersalz-look on 2026-08-23
# Input:  Silbersalz flat-scan code values [0,1] (Display P3 tagged)
# Output: graded display code values (Display P3)
# pairs: 27
LUT_3D_SIZE 9
DOMAIN_MIN 0.0 0.0 0.0
DOMAIN_MAX 1.0 1.0 1.0
0.000000 0.021421 0.001575
0.032364 0.018312 0.002094
0.133291 0.014756 0.006242
0.291120 0.015317 0.015892
0.486290 0.017699 0.026059
0.686350 0.018408 0.030690
0.855239 0.016986 0.028901
0.966177 0.014848 0.024367
1.000000 0.013697 0.021748
0.000000 0.057537 0.000091
0.037226 0.052140 0.000176
0.138022 0.044666 0.003539
0.295576 0.042267 0.013691
0.491072 0.042713 0.025675
0.691725 0.042379 0.032131
0.860071 0.040670 0.031368
0.969226 0.038544 0.027093
1.000000 0.037415 0.024458
0.017529 0.156633 0.000000
0.055329 0.146489 0.000000
0.154687 0.129824 0.000000
0.310128 0.118818 0.008884
0.504681 0.113328 0.024194
0.705337 0.110175 0.034661
0.871433 0.107898 0.036368
0.975819 0.105943 0.032775
1.000000 0.104932 0.030137
0.052904 0.320195 0.000000
0.090921 0.305623 0.000000
0.188600 0.278218 0.000000
0.340543 0.254147 0.004022
0.531524 0.239038 0.021045
0.728456 0.231427 0.035635
0.888033 0.228099 0.040490
0.983867 0.226267 0.038004
1.000000 0.225403 0.035496
0.100586 0.527379 0.002108
0.141111 0.511248 0.000000
0.241999 0.478141 0.000000
0.393407 0.444255 0.003539
0.578543 0.420162 0.018267
0.764646 0.407225 0.033584
0.910104 0.401591 0.040291
0.992437 0.399049 0.038998
1.000000 0.398053 0.036862
0.153426 0.735611 0.007592
0.198990 0.721679 0.005782
0.309168 0.691755 0.003913
0.465888 0.658414 0.007145
0.644993 0.631974 0.017304
0.813602 0.615698 0.029076
0.937178 0.607325 0.034920
1.000000 0.603274 0.034285
1.000000 0.601800 0.032663
0.202933 0.900158 0.011869
0.254398 0.891008 0.010717
0.376158 0.870816 0.009388
0.541120 0.847032 0.010942
0.715708 0.826416 0.016585
0.865644 0.811975 0.023335
0.964837 0.803233 0.026656
1.000000 0.798471 0.025990
1.000000 0.796701 0.024804
0.239542 0.995833 0.014059
0.295675 0.991660 0.013385
0.426680 0.982165 0.012515
0.598532 0.970348 0.013028
0.770299 0.959186 0.015487
0.906033 0.950362 0.018331
0.985830 0.944174 0.019317
1.000000 0.940368 0.018306
1.000000 0.938870 0.017360
0.255029 1.000000 0.014707
0.313158 1.000000 0.014229
0.448108 1.000000 0.013552
0.622918 1.000000 0.013661
0.793556 1.000000 0.014841
0.923258 1.000000 0.016072
0.994610 1.000000 0.016027
1.000000 0.998735 0.014804
1.000000 0.997606 0.013931
0.000000 0.018692 0.023170
0.025172 0.015838 0.023288
0.123896 0.013349 0.027921
0.280102 0.015830 0.039774
0.474455 0.019026 0.051444
0.674871 0.019403 0.056410
0.845428 0.017504 0.054579
0.958767 0.015091 0.050009
1.000000 0.013840 0.047386
0.000000 0.052046 0.020152
0.026775 0.045992 0.019607
0.125697 0.038625 0.022593
0.281450 0.039602 0.035722
0.477121 0.041761 0.050037
0.679701 0.041552 0.057214
0.850777 0.039867 0.056500
0.962762 0.037831 0.052157
1.000000 0.036733 0.049490
0.008250 0.145873 0.015981
0.042425 0.133179 0.014694
0.138370 0.114511 0.013266
0.289365 0.108064 0.027133
0.484275 0.105490 0.046146
0.690846 0.103846 0.058588
0.862765 0.103311 0.060572
0.971150 0.102557 0.056632
1.000000 0.101951 0.053781
0.043638 0.305867 0.013640
0.078019 0.287992 0.009441
0.166669 0.255441 0.004339
0.310020 0.232142 0.015123
0.501032 0.220143 0.037545
0.709200 0.216573 0.057493
0.879135 0.217680 0.063581
0.980655 0.218718 0.060249
1.000000 0.218838 0.057159
0.090142 0.512859 0.015470
0.127067 0.493866 0.011712
0.218036 0.454882 0.006635
0.357249 0.417140 0.010687
0.541210 0.394238 0.029241
0.740910 0.386177 0.051718
0.900084 0.386364 0.060964
0.989676 0.387771 0.058740
1.000000 0.388209 0.055785
0.140949 0.723806 0.019356
0.183377 0.707953 0.016600
0.285472 0.674009 0.012653
0.432518 0.637285 0.014407
0.609939 0.610415 0.026532
0.789377 0.596666 0.043161
0.926483 0.592375 0.051451
0.998596 0.591534 0.050296
1.000000 0.591341 0.048001
0.188565 0.892681 0.022511
0.237628 0.882518 0.020760
0.353804 0.860293 0.018155
0.512920 0.834750 0.018735
0.687042 0.813584 0.025069
0.844830 0.799885 0.034001
0.954989 0.792792 0.038704
1.000000 0.789597 0.037931
1.000000 0.788527 0.036431
0.223933 0.992456 0.024036
0.278296 0.987788 0.023034
0.405593 0.977318 0.021432
0.574308 0.964589 0.021221
0.746927 0.952962 0.023536
0.888940 0.944146 0.026871
0.977427 0.938330 0.028292
1.000000 0.934968 0.027321
1.000000 0.933687 0.026315
0.238944 1.000000 0.024431
0.295575 1.000000 0.023741
0.427577 1.000000 0.022558
0.600301 1.000000 0.022045
0.772355 1.000000 0.022789
0.907835 1.000000 0.023905
0.986977 0.997788 0.023897
1.000000 0.995102 0.022706
1.000000 0.993989 0.021846
0.000000 0.017339 0.089078
0.015967 0.016388 0.088886
0.109699 0.017572 0.094870
0.261083 0.022942 0.109570
0.450812 0.025644 0.121805
0.649134 0.023686 0.126234
0.821441 0.019821 0.124300
0.938879 0.016282 0.120061
0.985651 0.014607 0.117669
0.000000 0.045951 0.081781
0.012317 0.041588 0.078546
0.106208 0.036587 0.080794
0.258831 0.043485 0.101529
0.452296 0.045687 0.117138
0.655166 0.043028 0.124208
0.829332 0.039935 0.123827
0.945872 0.037266 0.120115
0.991464 0.035895 0.117784
0.000000 0.129102 0.071077
0.025259 0.113794 0.070961
0.117706 0.100773 0.078842
0.249430 0.096802 0.083221
0.448666 0.098016 0.106513
0.665622 0.095008 0.120955
0.845948 0.096310 0.123654
0.960423 0.096734 0.120169
1.000000 0.096352 0.117518
0.029228 0.280223 0.062781
0.058755 0.257404 0.057012
0.127348 0.214501 0.043836
0.250877 0.194961 0.051964
0.440349 0.187639 0.084052
0.676839 0.188635 0.116549
0.865668 0.198107 0.123729
0.975632 0.203619 0.118718
1.000000 0.205012 0.114863
0.070926 0.484556 0.059572
0.102305 0.460361 0.053569
0.174167 0.408528 0.041853
0.279686 0.359537 0.036167
0.456385 0.338404 0.058402
0.696641 0.340566 0.103105
0.885784 0.354090 0.116626
0.986777 0.363031 0.111105
1.000000 0.366091 0.106348
0.115493 0.699559 0.059473
0.152169 0.680031 0.054395
0.237815 0.638277 0.044896
0.360786 0.595048 0.040963
0.530195 0.566779 0.054608
0.738265 0.556136 0.083880
0.909051 0.560130 0.097850
0.995780 0.565519 0.094308
1.000000 0.567886 0.090307
0.157503 0.876878 0.060037
0.201671 0.864837 0.056691
0.305969 0.839077 0.050347
0.451279 0.811085 0.046999
0.622812 0.789547 0.053035
0.799793 0.776578 0.066518
0.936921 0.771763 0.074302
1.000000 0.771142 0.073003
1.000000 0.771305 0.070877
0.189173 0.985147 0.060106
0.239685 0.979593 0.058257
0.358812 0.967479 0.054544
0.520339 0.953554 0.051622
0.694688 0.941620 0.052120
0.851576 0.932938 0.055411
0.960445 0.927557 0.057369
1.000000 0.924726 0.056636
1.000000 0.923687 0.055760
0.202748 1.000000 0.059949
0.256028 1.000000 0.058746
0.381412 1.000000 0.056175
0.549414 1.000000 0.053544
0.724771 1.000000 0.052097
0.873752 0.995529 0.051747
0.970735 0.991422 0.051229
1.000000 0.988594 0.050224
1.000000 0.987369 0.049634
0.000000 0.022569 0.213144
0.013772 0.024836 0.213848
0.100294 0.031523 0.221141
0.241847 0.038073 0.234130
0.420548 0.037618 0.242822
0.611925 0.031450 0.244976
0.783716 0.024271 0.243043
0.904570 0.018634 0.239897
0.953829 0.016109 0.238175
0.000000 0.048307 0.200524
0.012684 0.048347 0.198686
0.102227 0.055690 0.206687
0.249299 0.062765 0.222649
0.429641 0.059029 0.231341
0.624201 0.050335 0.235693
0.797415 0.043498 0.236839
0.916916 0.038540 0.235676
0.964667 0.036171 0.234605
0.000000 0.122795 0.177821
0.020026 0.109845 0.168523
0.103872 0.112418 0.172871
0.259582 0.121399 0.192515
0.440342 0.112171 0.199823
0.646755 0.098181 0.213266
0.827112 0.096283 0.223211
0.943543 0.094149 0.225699
0.986800 0.092393 0.225530
0.018600 0.262463 0.160722
0.047384 0.239799 0.151557
0.117669 0.207472 0.147644
0.231998 0.198315 0.149861
0.407603 0.183498 0.155155
0.660419 0.176784 0.193912
0.863059 0.188755 0.212818
0.971746 0.191444 0.212486
1.000000 0.191703 0.211247
0.052787 0.459264 0.151546
0.082708 0.432051 0.141957
0.148175 0.375039 0.122863
0.227505 0.332885 0.108854
0.389536 0.308574 0.113349
0.679168 0.305077 0.183506
0.888531 0.326459 0.200598
0.987452 0.335219 0.195067
1.000000 0.340812 0.191077
0.088072 0.675092 0.146693
0.120975 0.652824 0.137992
0.194537 0.606780 0.118929
0.292236 0.565770 0.102677
0.441296 0.541397 0.108893
0.689454 0.522445 0.153498
0.909108 0.528926 0.176293
0.998949 0.536144 0.168793
1.000000 0.541649 0.164580
0.121145 0.859953 0.144198
0.160686 0.846586 0.138581
0.253345 0.819181 0.125905
0.382936 0.792792 0.112849
0.548171 0.775375 0.111399
0.751098 0.762218 0.127311
0.928578 0.755487 0.139366
1.000000 0.755111 0.138491
1.000000 0.755850 0.137627
0.146597 0.977011 0.142481
0.192755 0.970870 0.139638
0.302625 0.958082 0.132861
0.455770 0.944818 0.124343
0.632299 0.934822 0.118170
0.809418 0.927496 0.117120
0.945778 0.922365 0.118282
1.000000 0.919113 0.119365
1.000000 0.917562 0.120324
0.157695 1.000000 0.141611
0.206912 1.000000 0.139952
0.324315 1.000000 0.135706
0.486736 1.000000 0.129391
0.666722 0.997462 0.122472
0.833771 0.993239 0.116910
0.953853 0.989697 0.114009
1.000000 0.986424 0.113948
1.000000 0.984597 0.114723
0.000000 0.030428 0.392583
0.010879 0.034014 0.393013
0.083878 0.042212 0.398248
0.208933 0.048258 0.407486
0.374006 0.046048 0.412868
0.557906 0.037618 0.412898
0.729101 0.028006 0.410626
0.853234 0.020356 0.408292
0.904810 0.016921 0.407158
0.000000 0.056234 0.376676
0.009274 0.058361 0.373898
0.084963 0.067122 0.377416
0.217707 0.073814 0.389867
0.388459 0.069333 0.396215
0.577152 0.058566 0.397543
0.749757 0.048601 0.398747
0.871797 0.040781 0.399614
0.921399 0.037061 0.399775
0.000000 0.128705 0.345800
0.009562 0.122303 0.333258
0.079911 0.124523 0.322554
0.227681 0.132524 0.343286
0.412564 0.126500 0.350771
0.618804 0.111958 0.353743
0.797477 0.104952 0.366794
0.913339 0.097381 0.377296
0.956602 0.092947 0.380888
0.007366 0.259864 0.320042
0.030562 0.240897 0.305718
0.095536 0.211930 0.286300
0.196960 0.197195 0.259365
0.407666 0.209964 0.286518
0.657853 0.193230 0.283185
0.859921 0.201195 0.318253
0.959764 0.193063 0.344323
0.990909 0.189200 0.352287
0.035368 0.447062 0.304434
0.064860 0.420192 0.291001
0.137969 0.363843 0.259737
0.211191 0.333438 0.227762
0.395607 0.332101 0.240578
0.674931 0.312584 0.247529
0.897303 0.325067 0.289019
0.979860 0.319935 0.310447
1.000000 0.330759 0.317982
0.062834 0.659682 0.295062
0.094865 0.636935 0.283862
0.168585 0.590737 0.255674
0.259468 0.557455 0.216188
0.405946 0.550242 0.189094
0.675328 0.532803 0.219274
0.938067 0.523018 0.269369
1.000000 0.521248 0.275221
1.000000 0.532895 0.281914
0.086996 0.847993 0.289394
0.123686 0.834733 0.282830
0.210172 0.808772 0.265897
0.331076 0.787901 0.240143
0.492431 0.779709 0.214212
0.718922 0.772924 0.211856
0.945793 0.761483 0.228886
1.000000 0.758797 0.241571
1.000000 0.758160 0.252102
0.105529 0.970812 0.285464
0.148016 0.964870 0.282751
0.250516 0.953235 0.275138
0.397545 0.943055 0.261790
0.577236 0.937970 0.244192
0.775583 0.935692 0.229222
0.941006 0.933736 0.224912
1.000000 0.929106 0.233064
1.000000 0.925000 0.240882
0.113717 1.000000 0.283615
0.159129 1.000000 0.282486
0.269291 1.000000 0.278673
0.427082 1.000000 0.270419
0.612366 0.999986 0.257196
0.798282 0.999599 0.242675
0.941843 0.998948 0.234580
1.000000 0.995213 0.236791
1.000000 0.991851 0.240853
0.000000 0.034291 0.602927
0.003402 0.036992 0.602679
0.057310 0.042735 0.604954
0.160155 0.046762 0.610445
0.309197 0.044544 0.614006
0.486004 0.036695 0.613125
0.657779 0.026872 0.609995
0.786111 0.018504 0.607155
0.840371 0.014649 0.605898
0.000000 0.061705 0.588288
0.000423 0.063262 0.586007
0.054820 0.068184 0.586495
0.164499 0.072376 0.594400
0.322843 0.069518 0.600653
0.507666 0.060410 0.600896
0.682469 0.049774 0.599167
0.809189 0.040455 0.598036
0.861618 0.035949 0.597627
0.000000 0.136648 0.558591
0.000000 0.133036 0.551092
0.043728 0.131705 0.543198
0.166991 0.136634 0.556437
0.347917 0.134931 0.570680
0.557047 0.124035 0.571700
0.740996 0.113527 0.571447
0.861966 0.102151 0.574539
0.908257 0.095847 0.576477
0.000000 0.265971 0.529859
0.007847 0.251834 0.519368
0.045939 0.228282 0.501667
0.156380 0.225368 0.499669
0.360083 0.238546 0.533412
0.618143 0.227042 0.538891
0.820143 0.224505 0.530572
0.925526 0.209324 0.538154
0.958685 0.200668 0.544163
0.015809 0.447470 0.509558
0.038830 0.424462 0.499132
0.102537 0.372709 0.477793
0.188976 0.356834 0.481745
0.338077 0.347648 0.468115
0.649440 0.357336 0.499100
0.886640 0.366822 0.486826
0.967754 0.356895 0.494279
0.988871 0.353901 0.505486
0.037932 0.655649 0.496311
0.067142 0.635689 0.488489
0.140362 0.594778 0.470581
0.242318 0.572705 0.451994
0.383179 0.581536 0.429178
0.666515 0.566993 0.437950
0.925820 0.544726 0.422374
0.988807 0.556536 0.452624
1.000000 0.561780 0.467625
0.056340 0.843105 0.487089
0.090461 0.831726 0.483570
0.173562 0.810360 0.474490
0.293934 0.796752 0.458136
0.454980 0.796607 0.425462
0.696753 0.800840 0.372475
0.958560 0.792096 0.352902
1.000000 0.791529 0.409660
1.000000 0.786851 0.440581
0.069827 0.967582 0.480206
0.109222 0.962637 0.479990
0.206267 0.953599 0.478292
0.349925 0.947530 0.471608
0.532155 0.947889 0.454691
0.746030 0.954135 0.427160
0.936839 0.961470 0.408088
1.000000 0.955630 0.423557
1.000000 0.946690 0.440379
0.075707 1.000000 0.476998
0.117786 1.000000 0.478093
0.221924 1.000000 0.479429
0.376256 1.000000 0.477118
0.565942 1.000000 0.466932
0.767522 1.000000 0.449993
0.931558 1.000000 0.437830
1.000000 1.000000 0.441135
1.000000 1.000000 0.447440
0.000000 0.032154 0.801987
0.000000 0.033224 0.801416
0.031033 0.035439 0.801814
0.110729 0.036681 0.804402
0.241399 0.034419 0.806572
0.409418 0.028191 0.805668
0.581236 0.019791 0.802252
0.713837 0.012147 0.798719
0.770881 0.008529 0.797063
0.000000 0.061250 0.791215
0.000000 0.061261 0.789815
0.028823 0.061922 0.789630
0.113427 0.062449 0.794032
0.252914 0.059960 0.799274
0.429720 0.053296 0.800227
0.606089 0.044094 0.797014
0.738643 0.035288 0.793167
0.794665 0.030954 0.791368
0.000000 0.139971 0.768469
0.000000 0.136391 0.765152
0.022644 0.131312 0.762805
0.114752 0.129651 0.770940
0.274648 0.128358 0.785145
0.475419 0.122684 0.791837
0.664457 0.112946 0.787179
0.795860 0.101679 0.780491
0.848269 0.095584 0.777691
0.000000 0.272504 0.743979
0.000000 0.262269 0.739467
0.021879 0.244058 0.734944
0.107022 0.234246 0.744168
0.287143 0.237902 0.773560
0.530017 0.241478 0.797076
0.741875 0.234267 0.783091
0.867917 0.220523 0.764540
0.911763 0.212467 0.758643
0.000000 0.453962 0.724330
0.012441 0.438107 0.720785
0.051910 0.405782 0.718310
0.118093 0.380556 0.734301
0.271471 0.375815 0.770136
0.572260 0.408834 0.835935
0.817083 0.401956 0.795262
0.930740 0.390097 0.747149
0.961351 0.384851 0.737581
0.014625 0.658978 0.709648
0.037735 0.644760 0.708815
0.097736 0.616719 0.711787
0.192592 0.597313 0.732999
0.334844 0.590420 0.766070
0.611746 0.623069 0.790802
0.880321 0.605059 0.792103
0.962769 0.603979 0.729355
0.990085 0.604812 0.718291
0.029739 0.843206 0.697580
0.060256 0.834813 0.699492
0.137644 0.819527 0.706140
0.257294 0.810584 0.720368
0.416880 0.811624 0.742417
0.628347 0.805268 0.757250
0.924907 0.839985 0.704030
1.000000 0.840252 0.701844
1.000000 0.827122 0.706355
0.040658 0.966478 0.687873
0.077056 0.962810 0.691451
0.169121 0.956538 0.700115
0.310387 0.953700 0.711301
0.493045 0.957611 0.719736
0.711376 0.971316 0.718734
0.924449 0.992946 0.706357
1.000000 0.985026 0.706538
1.000000 0.969271 0.709977
0.045287 1.000000 0.683330
0.084369 1.000000 0.687490
0.183288 1.000000 0.696902
0.334846 1.000000 0.707537
0.527529 1.000000 0.713867
0.739938 1.000000 0.713642
0.919361 1.000000 0.712103
1.000000 1.000000 0.713943
1.000000 1.000000 0.713221
0.000000 0.027274 0.945520
0.000000 0.027016 0.944884
0.012662 0.026432 0.944384
0.074630 0.025228 0.945139
0.189728 0.022489 0.946095
0.349179 0.017508 0.945297
0.519898 0.010773 0.942406
0.655394 0.004381 0.939081
0.714522 0.001289 0.937420
0.000000 0.057543 0.938747
0.000000 0.056294 0.937943
0.011819 0.053892 0.937691
0.077777 0.051267 0.940060
0.200172 0.047960 0.943583
0.367598 0.042732 0.944569
0.543405 0.035353 0.941635
0.680209 0.027930 0.937301
0.739139 0.024219 0.935034
0.000000 0.139348 0.923828
0.000000 0.135403 0.922847
0.010151 0.127991 0.923527
0.083262 0.121739 0.930270
0.221797 0.118094 0.941276
0.409215 0.114035 0.947726
0.598145 0.106314 0.943767
0.737709 0.096873 0.935189
0.795609 0.091788 0.930614
0.000000 0.275876 0.906330
0.000000 0.267976 0.905950
0.013053 0.252751 0.909351
0.090005 0.240530 0.923412
0.244798 0.238285 0.947792
0.461105 0.240708 0.966130
0.670245 0.235216 0.958355
0.811987 0.224010 0.938147
0.866617 0.217488 0.927888
0.000000 0.459540 0.890467
0.000000 0.448844 0.891990
0.032608 0.427664 0.900747
0.112121 0.410000 0.924892
0.270337 0.409461 0.964223
0.514225 0.425330 1.000000
0.746046 0.424327 0.991787
0.885130 0.412450 0.950112
0.932517 0.405557 0.929855
0.000000 0.663203 0.876535
0.017191 0.653544 0.880492
0.070106 0.634911 0.894511
0.166434 0.620954 0.924896
0.326090 0.625106 0.969214
0.578724 0.653676 1.000000
0.825504 0.656541 1.000000
0.947241 0.646667 0.966788
0.981908 0.637847 0.935369
0.010678 0.844562 0.863308
0.038170 0.838543 0.868939
0.110921 0.827773 0.884976
0.231309 0.822279 0.913018
0.402552 0.831149 0.950024
0.632860 0.858024 0.975914
0.896629 0.888882 1.000000
0.995100 0.883554 0.969507
1.000000 0.856165 0.939643
0.020270 0.966100 0.852063
0.054239 0.963372 0.858316
0.142472 0.958995 0.874069
0.283303 0.958437 0.896932
0.471591 0.966511 0.921659
0.697357 0.985865 0.943518
0.920693 1.000000 0.964349
0.995682 0.991877 0.976951
1.000000 0.976309 0.941294
0.024349 1.000000 0.846759
0.061096 1.000000 0.853113
0.156103 1.000000 0.868403
0.306265 1.000000 0.888863
0.502657 1.000000 0.908935
0.722831 1.000000 0.925457
0.909460 1.000000 0.939461
0.991664 1.000000 0.943945
1.000000 1.000000 0.933908
0.000000 0.024460 1.000000
0.000000 0.023641 1.000000
0.005289 0.021873 1.000000
0.059724 0.019568 1.000000
0.167842 0.016494 1.000000
0.323131 0.011981 1.000000
0.493003 0.006038 0.999951
0.629571 0.000320 0.997134
0.689550 0.000000 0.995673
0.000000 0.055199 0.999391
0.000000 0.053429 0.998819
0.005170 0.049794 0.998553
0.063408 0.045825 1.000000
0.178131 0.041937 1.000000
0.340784 0.037102 1.000000
0.515764 0.030562 1.000000
0.654159 0.023909 0.996934
0.714298 0.020558 0.994856
0.000000 0.138315 0.988625
0.000000 0.134196 0.988376
0.005572 0.125968 0.989826
0.071608 0.118149 0.995591
0.200969 0.113182 1.000000
0.381290 0.108987 1.000000
0.568857 0.102105 1.000000
0.711356 0.093703 0.998745
0.771520 0.089155 0.994555
0.000000 0.276709 0.974992
0.000000 0.269604 0.975906
0.010634 0.255495 0.981156
0.085191 0.243112 0.994406
0.231122 0.238740 1.000000
0.434857 0.238868 1.000000
0.639873 0.234031 1.000000
0.786507 0.224297 1.000000
0.845331 0.218420 0.998357
0.000000 0.461625 0.961504
0.000000 0.452724 0.964557
0.028492 0.435173 0.975468
0.113208 0.420847 0.997643
0.272074 0.420230 1.000000
0.497129 0.429432 1.000000
0.718625 0.430064 1.000000
0.864525 0.420198 1.000000
0.918272 0.413009 1.000000
0.000000 0.664983 0.948409
0.009591 0.657023 0.953752
0.061754 0.641884 0.969711
0.163280 0.631613 0.997645
0.333179 0.637962 1.000000
0.570310 0.658503 1.000000
0.801180 0.669237 1.000000
0.935305 0.660874 1.000000
0.977037 0.649917 1.000000
0.002817 0.845185 0.935064
0.029136 0.840100 0.941805
0.100589 0.831172 0.959858
0.223637 0.827694 0.987857
0.405483 0.838933 1.000000
0.642490 0.865834 1.000000
0.873960 0.892146 1.000000
0.985758 0.885544 1.000000
1.000000 0.863660 1.000000
0.011803 0.965925 0.923434
0.044723 0.963562 0.930554
0.131461 0.959929 0.948315
0.273061 0.960395 0.973411
0.466606 0.970164 0.998841
0.696760 0.989692 1.000000
0.906436 1.000000 1.000000
0.994896 0.992001 1.000000
1.000000 0.974777 1.000000
0.015689 1.000000 0.917922
0.051410 1.000000 0.925028
0.144775 1.000000 0.942237
0.294751 1.000000 0.965566
0.493667 1.000000 0.988760
0.716867 1.000000 1.000000
0.903445 1.000000 1.000000
0.985907 1.000000 1.000000
1.000000 1.000000 1.000000
