luts/silbersalz-50d_v0-statistical_33.cube
TITLE "silbersalz-50d_v0-statistical_33"
# Generated by saltgate on 2026-08-23
# Input:  Silbersalz flat-scan code values [0,1] (Display P3 tagged)
# Output: graded display code values (Display P3)
# track: v0-statistical
LUT_3D_SIZE 9
DOMAIN_MIN 0.0 0.0 0.0
DOMAIN_MAX 1.0 1.0 1.0
0.007488 0.009980 0.019777
0.007654 0.009961 0.019764
0.007830 0.009942 0.019751
0.008517 0.009918 0.019733
0.118570 0.008233 0.018373
0.317022 0.006516 0.016578
0.741547 0.004489 0.013703
0.940277 0.003906 0.012660
0.983778 0.003771 0.012396
0.007466 0.010641 0.019614
0.007632 0.010620 0.019601
0.007806 0.010598 0.019588
0.008492 0.010571 0.019570
0.118418 0.008678 0.018229
0.316868 0.006793 0.016460
0.741392 0.004619 0.013623
0.940123 0.004004 0.012591
0.983728 0.003862 0.012331
0.007464 0.010719 0.019597
0.007629 0.010697 0.019584
0.007804 0.010675 0.019571
0.008490 0.010647 0.019553
0.118402 0.008730 0.018214
0.316851 0.006825 0.016447
0.741376 0.004634 0.013614
0.940106 0.004015 0.012584
0.983723 0.003872 0.012324
0.007453 0.011467 0.019516
0.007617 0.011444 0.019503
0.007792 0.011421 0.019490
0.008476 0.011390 0.019473
0.118323 0.009359 0.018142
0.316767 0.007319 0.016389
0.741292 0.004925 0.013573
0.940022 0.004218 0.012549
0.983687 0.004055 0.012290
0.006562 0.123250 0.014036
0.006690 0.123176 0.014030
0.006824 0.123101 0.014023
0.007438 0.123002 0.014013
0.111175 0.114853 0.013302
0.309433 0.102217 0.012327
0.733957 0.075261 0.010657
0.932694 0.062669 0.010015
0.981048 0.059103 0.009849
0.005650 0.284360 0.010145
0.005744 0.284284 0.010141
0.005843 0.284207 0.010138
0.006366 0.284103 0.010133
0.101531 0.275767 0.009755
0.299492 0.262768 0.009219
0.724016 0.235029 0.008251
0.922760 0.222042 0.007861
0.976316 0.218349 0.007758
0.004196 0.685195 0.005995
0.004247 0.685120 0.005994
0.004302 0.685043 0.005993
0.004648 0.684940 0.005991
0.077540 0.676634 0.005856
0.274785 0.663657 0.005658
0.699308 0.635922 0.005277
0.898057 0.622935 0.005115
0.954570 0.619241 0.005072
0.003468 0.988475 0.004482
0.003504 0.988460 0.004482
0.003540 0.988444 0.004481
0.003758 0.988418 0.004480
0.058436 0.986369 0.004405
0.255094 0.980638 0.004293
0.679617 0.955392 0.004072
0.878366 0.942427 0.003975
0.934884 0.938737 0.003949
0.003361 0.995944 0.004284
0.003394 0.995941 0.004284
0.003428 0.995937 0.004283
0.003623 0.995931 0.004282
0.054856 0.995516 0.004214
0.251406 0.994560 0.004111
0.675928 0.989896 0.003908
0.874677 0.986208 0.003819
0.931195 0.985066 0.003794
0.007485 0.009946 0.021668
0.007651 0.009927 0.021654
0.007827 0.009908 0.021640
0.008514 0.009884 0.021621
0.118548 0.008210 0.020101
0.317000 0.006501 0.017980
0.741524 0.004482 0.014649
0.940255 0.003901 0.013464
0.983771 0.003766 0.013165
0.007463 0.010602 0.021495
0.007628 0.010581 0.021482
0.007803 0.010560 0.021468
0.008489 0.010533 0.021449
0.118396 0.008652 0.019930
0.316845 0.006777 0.017841
0.741369 0.004612 0.014557
0.940100 0.003998 0.013386
0.983721 0.003857 0.013091
0.007461 0.010679 0.021477
0.007626 0.010658 0.021463
0.007800 0.010636 0.021449
0.008486 0.010608 0.021430
0.118380 0.008704 0.019912
0.316828 0.006809 0.017827
0.741353 0.004627 0.014547
0.940084 0.004009 0.013378
0.983715 0.003867 0.013083
0.007449 0.011425 0.021389
0.007614 0.011402 0.021376
0.007788 0.011379 0.021362
0.008472 0.011349 0.021343
0.118301 0.009331 0.019829
0.316744 0.007302 0.017759
0.741269 0.004917 0.014501
0.940000 0.004211 0.013339
0.983680 0.004049 0.013046
0.006560 0.123114 0.015028
0.006687 0.123040 0.015021
0.006822 0.122965 0.015013
0.007435 0.122865 0.015002
0.111152 0.114718 0.014191
0.309410 0.102081 0.013088
0.733935 0.075126 0.011222
0.932671 0.062534 0.010512
0.981039 0.058970 0.010329
0.005648 0.284221 0.010659
0.005743 0.284146 0.010655
0.005841 0.284069 0.010651
0.006364 0.283965 0.010646
0.101509 0.275629 0.010229
0.299469 0.262630 0.009642
0.723993 0.234890 0.008588
0.922738 0.221904 0.008166
0.976304 0.218211 0.008055
0.004195 0.685057 0.006172
0.004246 0.684982 0.006170
0.004301 0.684905 0.006169
0.004646 0.684802 0.006167
0.077518 0.676496 0.006025
0.274763 0.663519 0.005815
0.699286 0.635783 0.005414
0.898035 0.622796 0.005243
0.954547 0.619103 0.005197
0.003468 0.988448 0.004580
0.003503 0.988432 0.004579
0.003539 0.988417 0.004578
0.003757 0.988390 0.004577
0.058414 0.986329 0.004499
0.255072 0.980558 0.004382
0.679594 0.955254 0.004152
0.878343 0.942289 0.004052
0.934862 0.938598 0.004024
0.003360 0.995938 0.004373
0.003393 0.995935 0.004372
0.003427 0.995931 0.004372
0.003622 0.995925 0.004371
0.054834 0.995508 0.004299
0.251383 0.994548 0.004193
0.675905 0.989863 0.003981
0.874654 0.986167 0.003889
0.931173 0.985023 0.003864
0.007484 0.009943 0.021829
0.007651 0.009924 0.021815
0.007826 0.009905 0.021801
0.008513 0.009881 0.021782
0.118546 0.008208 0.020261
0.316998 0.006500 0.018112
0.741522 0.004482 0.014737
0.940253 0.003900 0.013538
0.983770 0.003765 0.013237
0.007463 0.010599 0.021657
0.007628 0.010578 0.021643
0.007803 0.010556 0.021629
0.008488 0.010529 0.021610
0.118394 0.008650 0.020089
0.316843 0.006776 0.017971
0.741368 0.004611 0.014644
0.940098 0.003998 0.013459
0.983720 0.003856 0.013162
0.007460 0.010676 0.021638
0.007626 0.010654 0.021624
0.007800 0.010632 0.021610
0.008486 0.010605 0.021591
0.118378 0.008701 0.020071
0.316826 0.006807 0.017956
0.741351 0.004626 0.014634
0.940082 0.004009 0.013451
0.983715 0.003866 0.013154
0.007449 0.011421 0.021550
0.007614 0.011399 0.021536
0.007788 0.011376 0.021522
0.008472 0.011345 0.021503
0.118299 0.009329 0.019987
0.316742 0.007300 0.017888
0.741267 0.004916 0.014588
0.939998 0.004211 0.013412
0.983679 0.004049 0.013116
0.006560 0.123102 0.015121
0.006687 0.123028 0.015113
0.006821 0.122953 0.015105
0.007435 0.122854 0.015094
0.111151 0.114706 0.014275
0.309408 0.102070 0.013159
0.733933 0.075115 0.011275
0.932670 0.062522 0.010558
0.981038 0.058959 0.010374
0.005648 0.284209 0.010707
0.005742 0.284134 0.010703
0.005841 0.284057 0.010699
0.006364 0.283953 0.010693
0.101507 0.275617 0.010273
0.299467 0.262618 0.009681
0.723991 0.234879 0.008619
0.922736 0.221892 0.008194
0.976302 0.218199 0.008082
0.004195 0.685045 0.006188
0.004246 0.684970 0.006187
0.004300 0.684893 0.006185
0.004646 0.684791 0.006183
0.077516 0.676485 0.006040
0.274761 0.663507 0.005830
0.699284 0.635771 0.005426
0.898033 0.622784 0.005255
0.954545 0.619091 0.005209
0.003468 0.988445 0.004589
0.003503 0.988430 0.004588
0.003539 0.988414 0.004587
0.003757 0.988388 0.004586
0.058412 0.986325 0.004508
0.255070 0.980551 0.004390
0.679592 0.955243 0.004159
0.878341 0.942277 0.004059
0.934860 0.938587 0.004031
0.003360 0.995937 0.004381
0.003393 0.995934 0.004381
0.003427 0.995930 0.004380
0.003622 0.995925 0.004379
0.054832 0.995507 0.004307
0.251381 0.994547 0.004200
0.675903 0.989859 0.003988
0.874652 0.986163 0.003896
0.931171 0.985019 0.003870
0.007480 0.009903 0.024176
0.007647 0.009884 0.024162
0.007822 0.009866 0.024148
0.008509 0.009842 0.024129
0.118519 0.008180 0.022607
0.316970 0.006482 0.020335
0.741494 0.004473 0.016668
0.940225 0.003894 0.015359
0.983758 0.003759 0.015030
0.007459 0.010554 0.024004
0.007624 0.010533 0.023990
0.007798 0.010512 0.023976
0.008484 0.010485 0.023957
0.118368 0.008620 0.022435
0.316815 0.006757 0.020182
0.741340 0.004602 0.016567
0.940070 0.003991 0.015273
0.983708 0.003850 0.014948
0.007457 0.010630 0.023985
0.007622 0.010609 0.023971
0.007796 0.010587 0.023957
0.008481 0.010560 0.023938
0.118352 0.008671 0.022416
0.316798 0.006788 0.020166
0.741323 0.004617 0.016556
0.940054 0.004002 0.015264
0.983703 0.003860 0.014939
0.007445 0.011372 0.023895
0.007610 0.011349 0.023881
0.007784 0.011326 0.023867
0.008467 0.011297 0.023848
0.118272 0.009294 0.022329
0.316714 0.007278 0.020091
0.741239 0.004904 0.016503
0.939970 0.004201 0.015219
0.983667 0.004040 0.014896
0.006557 0.122940 0.017080
0.006684 0.122866 0.017072
0.006818 0.122791 0.017063
0.007431 0.122692 0.017051
0.111124 0.114545 0.016163
0.309380 0.101909 0.014942
0.733905 0.074955 0.012862
0.932642 0.062364 0.012060
0.981025 0.058807 0.011854
0.005646 0.284039 0.012202
0.005740 0.283963 0.012198
0.005839 0.283887 0.012193
0.006361 0.283782 0.012187
0.101481 0.275447 0.011714
0.299439 0.262447 0.011038
0.723963 0.234708 0.009812
0.922708 0.221721 0.009311
0.976285 0.218028 0.009181
0.004193 0.684877 0.006894
0.004245 0.684801 0.006893
0.004299 0.684725 0.006891
0.004645 0.684622 0.006888
0.077490 0.676315 0.006717
0.274733 0.663337 0.006461
0.699256 0.635601 0.005981
0.898005 0.622614 0.005776
0.954517 0.618921 0.005722
0.003467 0.988403 0.004987
0.003502 0.988387 0.004986
0.003538 0.988371 0.004986
0.003756 0.988345 0.004984
0.058386 0.986265 0.004892
0.255042 0.980438 0.004751
0.679564 0.955073 0.004477
0.878313 0.942107 0.004356
0.934832 0.938417 0.004324
0.003359 0.995928 0.004742
0.003392 0.995924 0.004741
0.003426 0.995921 0.004740
0.003621 0.995915 0.004739
0.054806 0.995495 0.004654
0.251353 0.994524 0.004525
0.675875 0.989798 0.004272
0.874624 0.986092 0.004160
0.931143 0.984945 0.004130
0.007315 0.008376 0.125848
0.007474 0.008363 0.125834
0.007641 0.008349 0.125820
0.008315 0.008332 0.125801
0.117339 0.007107 0.124279
0.315759 0.005788 0.121906
0.740284 0.004131 0.116849
0.939016 0.003633 0.114484
0.983352 0.003516 0.113811
0.007294 0.008837 0.125676
0.007452 0.008822 0.125662
0.007619 0.008807 0.125648
0.008291 0.008788 0.125629
0.117188 0.007437 0.124107
0.315604 0.006006 0.121734
0.740129 0.004241 0.116677
0.938861 0.003717 0.114312
0.983301 0.003595 0.113639
0.007292 0.008891 0.125657
0.007450 0.008876 0.125643
0.007616 0.008861 0.125629
0.008289 0.008841 0.125610
0.117172 0.007475 0.124088
0.315588 0.006031 0.121715
0.740112 0.004254 0.116658
0.938844 0.003727 0.114293
0.983295 0.003603 0.113621
0.007281 0.009529 0.125564
0.007439 0.009513 0.125550
0.007605 0.009497 0.125536
0.008275 0.009475 0.125517
0.117092 0.008023 0.123995
0.315504 0.006462 0.121622
0.740029 0.004494 0.116565
0.938761 0.003887 0.114201
0.983259 0.003751 0.113528
0.006429 0.115713 0.117394
0.006551 0.115640 0.117380
0.006680 0.115565 0.117366
0.007282 0.115466 0.117347
0.109946 0.107337 0.115829
0.308170 0.094717 0.113462
0.732694 0.067784 0.108414
0.931432 0.055370 0.106053
0.980542 0.051992 0.105381
0.005551 0.276648 0.106353
0.005642 0.276572 0.106339
0.005737 0.276495 0.106325
0.006250 0.276391 0.106306
0.100304 0.268055 0.104790
0.298229 0.255056 0.102428
0.722753 0.227317 0.097388
0.921498 0.214331 0.095030
0.975596 0.210638 0.094359
0.004141 0.677513 0.079032
0.004191 0.677437 0.079018
0.004244 0.677361 0.079005
0.004581 0.677258 0.078986
0.076315 0.668940 0.077489
0.273522 0.655948 0.075162
0.698045 0.628209 0.070200
0.896794 0.615222 0.067883
0.953308 0.611529 0.067223
0.003431 0.986633 0.057559
0.003465 0.986612 0.057546
0.003501 0.986590 0.057532
0.003711 0.986555 0.057514
0.057211 0.983554 0.056032
0.253831 0.975039 0.053727
0.678353 0.947694 0.048801
0.877103 0.934722 0.046498
0.933621 0.931031 0.045840
0.003325 0.995565 0.053555
0.003358 0.995561 0.053541
0.003391 0.995557 0.053528
0.003578 0.995549 0.053510
0.053631 0.995033 0.052029
0.250143 0.993755 0.049725
0.674665 0.987775 0.044801
0.873414 0.983652 0.042499
0.929932 0.982317 0.041842
0.007109 0.006984 0.259004
0.007259 0.006975 0.258990
0.007417 0.006966 0.258976
0.008074 0.006954 0.258957
0.115798 0.006077 0.257435
0.314174 0.005083 0.255062
0.738698 0.003758 0.249997
0.937432 0.003342 0.247626
0.982791 0.003242 0.246951
0.007090 0.007304 0.258832
0.007239 0.007294 0.258818
0.007396 0.007283 0.258804
0.008051 0.007270 0.258785
0.115647 0.006317 0.257263
0.314019 0.005251 0.254889
0.738544 0.003849 0.249824
0.937277 0.003413 0.247453
0.982739 0.003309 0.246779
0.007088 0.007341 0.258813
0.007237 0.007330 0.258799
0.007394 0.007320 0.258785
0.008049 0.007307 0.258766
0.115631 0.006344 0.257244
0.314003 0.005270 0.254871
0.738527 0.003859 0.249806
0.937261 0.003421 0.247435
0.982732 0.003317 0.246760
0.007078 0.007873 0.258720
0.007226 0.007862 0.258706
0.007383 0.007851 0.258692
0.008036 0.007835 0.258673
0.115551 0.006803 0.257151
0.313919 0.005624 0.254777
0.738443 0.004041 0.249712
0.937177 0.003545 0.247341
0.982695 0.003431 0.246667
0.006270 0.106300 0.250543
0.006386 0.106226 0.250529
0.006508 0.106151 0.250515
0.007095 0.106053 0.250496
0.108406 0.097939 0.248974
0.306585 0.085334 0.246600
0.731109 0.058582 0.241535
0.929848 0.046744 0.239164
0.979873 0.043472 0.238490
0.005431 0.266968 0.239459
0.005519 0.266892 0.239445
0.005610 0.266815 0.239431
0.006109 0.266711 0.239412
0.098767 0.258375 0.237890
0.296643 0.245376 0.235516
0.721167 0.217637 0.230451
0.919913 0.204652 0.228080
0.974622 0.200959 0.227406
0.004074 0.667854 0.211913
0.004123 0.667779 0.211899
0.004173 0.667702 0.211885
0.004500 0.667598 0.211866
0.074780 0.659267 0.210344
0.271937 0.646269 0.207971
0.696460 0.618529 0.202906
0.895209 0.605542 0.200535
0.951725 0.601849 0.199860
0.003385 0.982934 0.189959
0.003418 0.982898 0.189946
0.003453 0.982861 0.189932
0.003652 0.982804 0.189913
0.055677 0.977780 0.188391
0.252246 0.965705 0.186017
0.676768 0.938025 0.180952
0.875517 0.925050 0.178581
0.932036 0.921359 0.177907
0.003282 0.994921 0.185847
0.003314 0.994915 0.185833
0.003346 0.994909 0.185819
0.003523 0.994898 0.185800
0.052108 0.994155 0.184278
0.248557 0.992178 0.181905
0.673079 0.984658 0.176840
0.871828 0.979636 0.174469
0.928347 0.977818 0.173794
0.006640 0.004911 0.593419
0.006771 0.004906 0.593405
0.006908 0.004902 0.593391
0.007526 0.004896 0.593372
0.111922 0.004443 0.591850
0.310193 0.003886 0.589477
0.734717 0.003060 0.584412
0.933454 0.002779 0.582040
0.981324 0.002710 0.581366
0.006623 0.005067 0.593247
0.006753 0.005062 0.593233
0.006890 0.005057 0.593219
0.007506 0.005051 0.593200
0.111771 0.004570 0.591678
0.310038 0.003983 0.589304
0.734562 0.003120 0.584239
0.933299 0.002829 0.581868
0.981266 0.002757 0.581194
0.006621 0.005085 0.593228
0.006751 0.005080 0.593214
0.006888 0.005075 0.593200
0.007504 0.005068 0.593181
0.111755 0.004585 0.591659
0.310021 0.003994 0.589286
0.734546 0.003127 0.584221
0.933283 0.002834 0.581849
0.981259 0.002762 0.581175
0.006613 0.005426 0.593134
0.006742 0.005421 0.593121
0.006878 0.005415 0.593107
0.007493 0.005407 0.593088
0.111676 0.004869 0.591566
0.309937 0.004194 0.589192
0.734462 0.003226 0.584127
0.933199 0.002903 0.581756
0.981220 0.002826 0.581082
0.005902 0.082672 0.584958
0.006004 0.082598 0.584944
0.006113 0.082524 0.584930
0.006666 0.082426 0.584911
0.104535 0.074332 0.583389
0.302603 0.061857 0.581015
0.727127 0.036902 0.575950
0.925870 0.025798 0.573579
0.978062 0.022709 0.572905
0.005153 0.242657 0.573874
0.005231 0.242582 0.573860
0.005313 0.242505 0.573846
0.005782 0.242401 0.573827
0.094899 0.234065 0.572305
0.292662 0.221066 0.569931
0.717186 0.193330 0.564866
0.915933 0.180345 0.562495
0.971825 0.176653 0.561821
0.003915 0.643550 0.546328
0.003960 0.643474 0.546314
0.004007 0.643398 0.546300
0.004306 0.643294 0.546281
0.070917 0.634957 0.544759
0.267956 0.621958 0.542385
0.692478 0.594217 0.537320
0.891228 0.581230 0.534949
0.947746 0.577537 0.534275
0.003275 0.962993 0.524373
0.003306 0.962918 0.524360
0.003338 0.962842 0.524346
0.003513 0.962739 0.524327
0.051831 0.954432 0.522804
0.248265 0.941451 0.520431
0.672787 0.913729 0.515366
0.871536 0.900746 0.512995
0.928054 0.897053 0.512320
0.003178 0.991711 0.520261
0.003208 0.991695 0.520247
0.003239 0.991679 0.520233
0.003394 0.991647 0.520214
0.048360 0.989637 0.518692
0.244576 0.985741 0.516318
0.669098 0.972437 0.511253
0.867847 0.960573 0.508882
0.924366 0.956897 0.508208
0.006241 0.003801 0.916553
0.006356 0.003798 0.916539
0.006477 0.003796 0.916525
0.007060 0.003792 0.916506
0.108178 0.003515 0.914985
0.306345 0.003157 0.912613
0.730870 0.002591 0.907551
0.929610 0.002387 0.905180
0.979772 0.002336 0.904506
0.006226 0.003894 0.916381
0.006340 0.003891 0.916367
0.006461 0.003888 0.916353
0.007043 0.003884 0.916334
0.108027 0.003594 0.914813
0.306191 0.003221 0.912441
0.730715 0.002633 0.907378
0.929455 0.002423 0.905008
0.979708 0.002370 0.904333
0.006224 0.003904 0.916362
0.006338 0.003901 0.916348
0.006459 0.003898 0.916334
0.007041 0.003895 0.916315
0.108011 0.003603 0.914794
0.306174 0.003228 0.912422
0.730698 0.002638 0.907360
0.929438 0.002427 0.904989
0.979700 0.002374 0.904315
0.006216 0.004094 0.916269
0.006330 0.004090 0.916255
0.006450 0.004087 0.916241
0.007031 0.004082 0.916222
0.107932 0.003753 0.914701
0.306090 0.003335 0.912329
0.730614 0.002692 0.907266
0.929355 0.002465 0.904895
0.979657 0.002410 0.904221
0.005584 0.059878 0.908096
0.005676 0.059806 0.908082
0.005772 0.059733 0.908068
0.006295 0.059639 0.908049
0.100794 0.051948 0.906527
0.298756 0.040540 0.904154
0.723280 0.017837 0.899090
0.922025 0.011775 0.896719
0.976055 0.010736 0.896044
0.004909 0.219166 0.897013
0.004980 0.219091 0.896999
0.005054 0.219014 0.896985
0.005496 0.218910 0.896966
0.091161 0.210574 0.895444
0.288815 0.197577 0.893071
0.713338 0.169844 0.888006
0.912087 0.156869 0.885635
0.968507 0.153184 0.884960
0.003772 0.620058 0.869467
0.003814 0.619983 0.869454
0.003857 0.619906 0.869440
0.004133 0.619802 0.869421
0.067184 0.611466 0.867898
0.264109 0.598466 0.865525
0.688631 0.570726 0.860460
0.887380 0.557738 0.858089
0.943899 0.554045 0.857414
0.003174 0.939553 0.847513
0.003204 0.939477 0.847499
0.003234 0.939400 0.847485
0.003389 0.939297 0.847466
0.048216 0.930968 0.845944
0.244418 0.917977 0.843571
0.668939 0.890241 0.838506
0.867689 0.877254 0.836134
0.924207 0.873561 0.835460
0.003084 0.985335 0.843400
0.003112 0.985311 0.843387
0.003141 0.985285 0.843373
0.003279 0.985242 0.843354
0.044836 0.982290 0.841831
0.240729 0.975771 0.839458
0.665250 0.950089 0.834393
0.864000 0.937110 0.832022
0.920518 0.933417 0.831347
0.006164 0.003633 0.979074
0.006276 0.003630 0.979067
0.006395 0.003628 0.979060
0.006971 0.003624 0.979049
0.107407 0.003371 0.978283
0.305552 0.003040 0.976969
0.730076 0.002511 0.973635
0.928817 0.002320 0.971714
0.979428 0.002271 0.971101
0.006150 0.003717 0.978991
0.006261 0.003715 0.978984
0.006379 0.003712 0.978977
0.006954 0.003708 0.978966
0.107256 0.003443 0.978194
0.305398 0.003099 0.976871
0.729922 0.002551 0.973504
0.928662 0.002354 0.971560
0.979362 0.002304 0.970939
0.006148 0.003727 0.978981
0.006260 0.003724 0.978975
0.006377 0.003721 0.978968
0.006952 0.003718 0.978957
0.107240 0.003451 0.978184
0.305381 0.003106 0.976860
0.729905 0.002556 0.973490
0.928646 0.002358 0.971544
0.979355 0.002308 0.970922
0.006140 0.003889 0.978927
0.006252 0.003886 0.978921
0.006369 0.003883 0.978914
0.006943 0.003878 0.978903
0.107161 0.003582 0.978127
0.305297 0.003200 0.976797
0.729821 0.002603 0.973411
0.928562 0.002392 0.971456
0.979311 0.002339 0.970831
0.005522 0.055341 0.974007
0.005612 0.055272 0.973996
0.005707 0.055202 0.973986
0.006223 0.055112 0.973971
0.100024 0.047615 0.972786
0.297963 0.036345 0.970678
0.722487 0.015216 0.965706
0.921232 0.010390 0.963346
0.975597 0.009563 0.962673
0.004861 0.214323 0.963639
0.004931 0.214247 0.963626
0.005004 0.214170 0.963612
0.005439 0.214066 0.963593
0.090392 0.205731 0.962073
0.288022 0.192734 0.959700
0.712545 0.165004 0.954635
0.911294 0.152038 0.952264
0.967743 0.148356 0.951589
0.003744 0.615214 0.936096
0.003785 0.615139 0.936083
0.003828 0.615062 0.936069
0.004098 0.614958 0.936050
0.066415 0.606622 0.934528
0.263315 0.593622 0.932154
0.687838 0.565882 0.927089
0.886587 0.552895 0.924718
0.943106 0.549201 0.924043
0.003155 0.934714 0.914142
0.003184 0.934638 0.914128
0.003214 0.934561 0.914114
0.003365 0.934458 0.914095
0.047485 0.926128 0.912573
0.243625 0.913136 0.910200
0.668146 0.885398 0.905135
0.866895 0.872410 0.902763
0.923414 0.868717 0.902089
0.003065 0.983685 0.910029
0.003093 0.983658 0.910016
0.003121 0.983630 0.910002
0.003256 0.983583 0.909983
0.044120 0.980277 0.908461
0.239936 0.972360 0.906087
0.664457 0.945252 0.901022
0.863206 0.932266 0.898651
0.919725 0.928573 0.897976
