luts/silbersalz-250d_v4-jxl_33.cube
TITLE "silbersalz-250d_v4-jxl_33"
# Generated by saltgate on 2026-08-26
# Input:  Silbersalz flat-scan code values [0,1] (Display P3 tagged)
# Output: graded display code values (Display P3)
# pairs: 22
LUT_3D_SIZE 9
DOMAIN_MIN 0.0 0.0 0.0
DOMAIN_MAX 1.0 1.0 1.0
0.017948 0.025413 0.015400
0.081473 0.056849 0.017163
0.106962 0.056180 0.022985
0.187182 0.037428 0.021818
0.372407 0.020665 0.024425
0.646545 0.008177 0.025297
0.888898 0.001510 0.029368
1.000000 0.000000 0.038054
1.000000 0.000000 0.044090
0.019272 0.040246 0.013813
0.049857 0.046746 0.017999
0.107938 0.070911 0.023003
0.168088 0.060272 0.026214
0.336181 0.041966 0.032030
0.611825 0.020578 0.023472
0.867345 0.007524 0.018310
0.999611 0.002736 0.021271
1.000000 0.001654 0.024815
0.008548 0.055019 0.004008
0.031335 0.061491 0.007010
0.093145 0.076893 0.016702
0.158751 0.088343 0.026239
0.279908 0.082803 0.054536
0.549169 0.047709 0.027280
0.824220 0.023624 0.006064
0.983714 0.013829 0.000000
1.000000 0.010997 0.000000
0.001939 0.087949 0.000136
0.018221 0.089422 0.002027
0.065507 0.095505 0.009330
0.145035 0.109428 0.023148
0.264661 0.109072 0.039908
0.499315 0.076828 0.025466
0.778480 0.051427 0.003742
0.964131 0.038884 0.000000
1.000000 0.034349 0.000000
0.000000 0.152649 0.000841
0.006755 0.148839 0.001442
0.040647 0.143982 0.003877
0.113037 0.142211 0.009793
0.240638 0.135269 0.017835
0.460548 0.116498 0.016242
0.736610 0.097674 0.006111
0.943124 0.085056 0.000000
1.000000 0.079368 0.000000
0.000000 0.278136 0.004462
0.000159 0.268388 0.004265
0.023043 0.251121 0.004205
0.084744 0.234177 0.005532
0.205476 0.217433 0.008472
0.415176 0.198301 0.009395
0.690722 0.178991 0.006177
0.917207 0.163241 0.001234
1.000000 0.155476 0.000000
0.000000 0.482383 0.008489
0.000000 0.466977 0.008011
0.012246 0.438007 0.006981
0.062853 0.407039 0.006091
0.171240 0.377634 0.005951
0.365785 0.349012 0.005740
0.637933 0.320911 0.004073
0.883276 0.296680 0.001258
0.987655 0.284467 0.000000
0.000000 0.716835 0.011291
0.000000 0.698588 0.010785
0.005705 0.663106 0.009526
0.046707 0.623150 0.007810
0.143300 0.583542 0.006124
0.322532 0.544605 0.004547
0.588017 0.506223 0.002655
0.847193 0.472630 0.000566
0.966069 0.455504 0.000000
0.000000 0.848053 0.012383
0.000000 0.829730 0.011900
0.002917 0.793177 0.010639
0.039051 0.750748 0.008736
0.129735 0.707568 0.006569
0.300954 0.664327 0.004444
0.561721 0.621350 0.002361
0.826814 0.583517 0.000507
0.953508 0.564106 0.000000
0.028055 0.048492 0.049337
0.054253 0.041852 0.046322
0.098992 0.031346 0.047065
0.193214 0.023838 0.056823
0.383740 0.015313 0.071225
0.657611 0.007104 0.084959
0.895175 0.001886 0.100786
1.000000 0.000165 0.118735
1.000000 0.000000 0.129267
0.031979 0.050521 0.033467
0.042511 0.037567 0.025377
0.094168 0.039316 0.031594
0.171299 0.038772 0.043229
0.347791 0.034503 0.061273
0.621421 0.019970 0.068520
0.872741 0.008859 0.076212
1.000000 0.004402 0.088435
1.000000 0.003242 0.096290
0.017499 0.065269 0.016175
0.030091 0.065552 0.012125
0.082096 0.074100 0.017350
0.136165 0.069641 0.028509
0.282544 0.083597 0.062110
0.550243 0.050326 0.051856
0.825366 0.028109 0.043661
0.983162 0.018681 0.045207
1.000000 0.015599 0.047858
0.007388 0.099993 0.003006
0.023801 0.100376 0.004211
0.069409 0.102275 0.007548
0.136012 0.105928 0.019583
0.258080 0.111426 0.048215
0.489860 0.085920 0.045823
0.773742 0.062567 0.032600
0.961047 0.050189 0.025498
1.000000 0.044875 0.022216
0.000000 0.169390 0.000000
0.010186 0.164882 0.000000
0.044613 0.158842 0.001440
0.113718 0.156100 0.009034
0.240165 0.151145 0.025767
0.460295 0.134227 0.037496
0.736335 0.116464 0.034690
0.941273 0.104321 0.027569
1.000000 0.097514 0.020728
0.000000 0.304122 0.000535
0.001840 0.293741 0.000623
0.026030 0.275757 0.001224
0.087824 0.259328 0.004594
0.208022 0.244573 0.013686
0.421302 0.226413 0.024120
0.698242 0.206481 0.027815
0.920027 0.190032 0.024926
1.000000 0.180862 0.019709
0.000000 0.517052 0.004784
0.000000 0.501349 0.004418
0.014148 0.472044 0.003764
0.065938 0.441366 0.004112
0.175504 0.413352 0.007396
0.373671 0.386051 0.012562
0.648110 0.357090 0.014703
0.889626 0.330513 0.012271
0.990335 0.316594 0.009213
0.000000 0.752482 0.008246
0.000000 0.734978 0.007696
0.006944 0.700838 0.006401
0.049553 0.662345 0.005001
0.148143 0.624402 0.004603
0.330836 0.586789 0.005172
0.598639 0.548059 0.004557
0.855062 0.512592 0.001932
0.970486 0.494151 0.000000
0.000000 0.879839 0.009697
0.000000 0.863336 0.009105
0.003915 0.829785 0.007622
0.041803 0.790156 0.005619
0.134626 0.749254 0.003840
0.309153 0.707560 0.002531
0.572199 0.664789 0.000768
0.835190 0.625925 0.000000
0.958542 0.605722 0.000000
0.027690 0.049632 0.106200
0.051325 0.045519 0.126345
0.103057 0.027353 0.151735
0.206884 0.014926 0.182505
0.405919 0.010262 0.219615
0.679254 0.006240 0.258501
0.907327 0.002979 0.298445
1.000000 0.001528 0.335873
1.000000 0.001144 0.356220
0.035746 0.065954 0.080507
0.056653 0.066171 0.092178
0.099888 0.039994 0.106912
0.186288 0.027515 0.132532
0.370114 0.026319 0.170130
0.642060 0.018919 0.206670
0.884260 0.011509 0.241869
1.000000 0.007786 0.274368
1.000000 0.006504 0.291715
0.034278 0.086789 0.054543
0.049356 0.086481 0.062372
0.057290 0.044808 0.025429
0.149587 0.059533 0.053113
0.295626 0.068389 0.093828
0.561089 0.050635 0.127071
0.830870 0.036107 0.155660
0.982906 0.028125 0.179607
1.000000 0.024689 0.191138
0.016072 0.122461 0.018206
0.033376 0.120584 0.024186
0.080721 0.113528 0.022722
0.130186 0.109903 0.026710
0.251692 0.119751 0.067674
0.469335 0.096703 0.087772
0.761845 0.084110 0.112632
0.954537 0.073154 0.124042
1.000000 0.065913 0.124216
0.003701 0.203122 0.000000
0.016012 0.196377 0.001972
0.054280 0.186734 0.006002
0.120846 0.187203 0.013523
0.228349 0.181553 0.038977
0.459709 0.163878 0.087831
0.733039 0.155186 0.115878
0.935460 0.148969 0.123705
1.000000 0.136880 0.105379
0.000000 0.356959 0.000000
0.005118 0.344800 0.000000
0.032877 0.324193 0.000000
0.095439 0.308527 0.005745
0.207933 0.300604 0.027373
0.432062 0.289061 0.064969
0.717468 0.268087 0.091791
0.925838 0.254665 0.103229
1.000000 0.239250 0.086602
0.000000 0.584484 0.000000
0.000131 0.568248 0.000000
0.018438 0.538209 0.000000
0.072599 0.508401 0.000397
0.183180 0.485959 0.012672
0.389060 0.468158 0.035653
0.671737 0.439451 0.050694
0.904801 0.405792 0.048704
0.997016 0.386351 0.040296
0.000000 0.817059 0.000000
0.000000 0.801242 0.000000
0.009650 0.770277 0.000000
0.055537 0.735740 0.000000
0.158338 0.703393 0.001445
0.348804 0.672335 0.009812
0.622177 0.635099 0.014427
0.872401 0.595025 0.009765
0.980282 0.573129 0.004756
0.000000 0.933852 0.001260
0.000000 0.920741 0.000516
0.005959 0.893502 0.000000
0.047308 0.860770 0.000000
0.144924 0.826760 0.000000
0.326752 0.791112 0.000000
0.594537 0.750822 0.000000
0.852288 0.710330 0.000000
0.968819 0.688396 0.000000
0.015370 0.036700 0.311577
0.038395 0.033607 0.337074
0.101351 0.023984 0.384965
0.220927 0.015079 0.439870
0.430964 0.010868 0.497135
0.704091 0.007740 0.554575
0.920998 0.005132 0.609875
1.000000 0.003546 0.656957
1.000000 0.002916 0.680777
0.020880 0.055327 0.243060
0.041285 0.053309 0.259356
0.096205 0.042710 0.297497
0.202419 0.032103 0.347806
0.397419 0.027006 0.402720
0.669060 0.020617 0.462159
0.899466 0.015082 0.520532
1.000000 0.011749 0.569936
1.000000 0.010353 0.594881
0.024160 0.090853 0.149433
0.044117 0.089126 0.147489
0.084842 0.084940 0.151435
0.170207 0.077700 0.191782
0.325080 0.067782 0.228675
0.594151 0.052885 0.293611
0.848466 0.042881 0.360908
0.987215 0.036721 0.415150
1.000000 0.033599 0.440279
0.014116 0.142431 0.076901
0.032970 0.136154 0.082165
0.077165 0.126438 0.098585
0.126089 0.102162 0.083021
0.266629 0.107788 0.100013
0.523699 0.095757 0.150381
0.779571 0.093814 0.223429
0.958935 0.088944 0.285127
1.000000 0.083168 0.305251
0.004046 0.242763 0.027136
0.017325 0.231277 0.032644
0.058109 0.210156 0.045416
0.130761 0.193425 0.050967
0.220556 0.186575 0.054896
0.465538 0.178066 0.112791
0.753456 0.172462 0.179491
0.942773 0.181502 0.235495
1.000000 0.169495 0.231055
0.000000 0.420014 0.000550
0.007523 0.404229 0.004213
0.039847 0.375628 0.012851
0.107188 0.351276 0.023789
0.212159 0.343587 0.046602
0.435820 0.345358 0.107577
0.752590 0.324517 0.167678
0.943215 0.327258 0.211379
1.000000 0.298490 0.176786
0.000000 0.659476 0.000000
0.001962 0.642296 0.000000
0.024168 0.610106 0.000000
0.082988 0.579051 0.003827
0.196110 0.562527 0.025217
0.411119 0.570041 0.078394
0.717069 0.549987 0.122293
0.934843 0.496016 0.108872
1.000000 0.466507 0.089034
0.000000 0.880184 0.000000
0.000000 0.866501 0.000000
0.013414 0.839508 0.000000
0.063949 0.810152 0.000000
0.173311 0.786344 0.000999
0.376324 0.769181 0.024763
0.660358 0.740004 0.043320
0.899539 0.693159 0.033315
0.994775 0.665592 0.021517
0.000000 0.980446 0.000000
0.000000 0.970844 0.000000
0.008749 0.950654 0.000000
0.054512 0.926619 0.000000
0.158969 0.903025 0.000000
0.351763 0.879168 0.000000
0.626439 0.847072 0.006757
0.875524 0.806902 0.001155
0.981982 0.783117 0.000000
0.005751 0.029406 0.640218
0.031033 0.027287 0.663759
0.102228 0.022616 0.708469
0.234602 0.017949 0.757995
0.455269 0.014522 0.805527
0.728370 0.011404 0.849277
0.933857 0.008591 0.887899
1.000000 0.006516 0.917938
1.000000 0.005561 0.931903
0.006928 0.049732 0.549148
0.029553 0.047076 0.568289
0.094109 0.041559 0.606939
0.215260 0.036050 0.655662
0.423351 0.031189 0.708319
0.695857 0.025379 0.762551
0.914903 0.020111 0.813353
1.000000 0.016547 0.853410
1.000000 0.014954 0.872100
0.007506 0.094489 0.390072
0.026388 0.089656 0.396469
0.078213 0.081839 0.407308
0.174434 0.075674 0.436576
0.351937 0.070929 0.489564
0.623390 0.059872 0.562951
0.869964 0.049998 0.641581
0.994991 0.044466 0.705810
1.000000 0.041828 0.735525
0.004228 0.163423 0.243229
0.019560 0.152027 0.243665
0.060540 0.131144 0.226602
0.125904 0.111485 0.202220
0.270400 0.118779 0.236576
0.535391 0.107172 0.311088
0.809628 0.096472 0.419041
0.973291 0.095234 0.518453
1.000000 0.092860 0.562005
0.000168 0.286241 0.132940
0.012060 0.267131 0.136970
0.052409 0.230502 0.143463
0.117875 0.210965 0.161869
0.246710 0.200291 0.158180
0.498548 0.180580 0.172613
0.767945 0.172017 0.232808
0.965912 0.184492 0.352635
1.000000 0.180451 0.399803
0.000000 0.486340 0.058597
0.007109 0.464227 0.064827
0.042949 0.421595 0.079531
0.117921 0.383409 0.098325
0.231668 0.360955 0.107155
0.450085 0.351383 0.133124
0.794684 0.341547 0.215739
0.981043 0.341197 0.258232
1.000000 0.326645 0.270728
0.000000 0.730933 0.013043
0.003133 0.711928 0.017883
0.029594 0.675140 0.029177
0.096206 0.639380 0.045429
0.219347 0.621407 0.068355
0.452683 0.626561 0.123446
0.793823 0.633470 0.217650
0.978090 0.569486 0.183780
1.000000 0.535036 0.160913
0.000000 0.930139 0.000000
0.000000 0.918487 0.000000
0.017635 0.895057 0.000000
0.073726 0.870124 0.005543
0.191850 0.853053 0.022929
0.413103 0.847051 0.060306
0.715864 0.835618 0.103995
0.934726 0.788688 0.090081
1.000000 0.755975 0.071967
0.000000 1.000000 0.000000
0.000000 1.000000 0.000000
0.012111 0.989835 0.000000
0.062707 0.973609 0.000000
0.175045 0.960168 0.000000
0.382166 0.950100 0.019872
0.666467 0.932746 0.039354
0.902672 0.898436 0.036977
0.994507 0.874271 0.029185
0.003027 0.033460 0.907677
0.030689 0.031211 0.919496
0.107790 0.027151 0.941713
0.249442 0.023321 0.964939
0.478990 0.020085 0.985633
0.751076 0.016869 1.000000
0.945183 0.013662 1.000000
1.000000 0.010985 1.000000
1.000000 0.009678 1.000000
0.001877 0.056892 0.843818
0.026583 0.053456 0.856039
0.097274 0.047436 0.878116
0.229091 0.042106 0.902808
0.448666 0.037708 0.929403
0.721554 0.032736 0.956309
0.929054 0.027578 0.980625
1.000000 0.023470 0.998978
1.000000 0.021512 1.000000
0.000000 0.109159 0.701412
0.018571 0.102091 0.711677
0.074456 0.089768 0.724887
0.182506 0.081269 0.741583
0.380231 0.077093 0.777349
0.655218 0.070082 0.826306
0.890721 0.061831 0.877879
1.000000 0.055875 0.919729
1.000000 0.052998 0.938599
0.000000 0.192874 0.525059
0.009396 0.176057 0.530502
0.046013 0.143974 0.522979
0.114132 0.127917 0.503366
0.283293 0.128830 0.540927
0.564768 0.120940 0.606870
0.837052 0.111884 0.696018
0.985118 0.108455 0.779758
1.000000 0.106334 0.818837
0.000000 0.337084 0.356312
0.003343 0.306814 0.361122
0.030592 0.237392 0.354440
0.085565 0.207443 0.351842
0.209558 0.212073 0.357562
0.488510 0.202024 0.370026
0.790312 0.192365 0.457242
0.974382 0.198007 0.586112
1.000000 0.196957 0.651097
0.000000 0.555911 0.217649
0.002662 0.524500 0.226929
0.033049 0.455486 0.244546
0.120631 0.400979 0.281272
0.220948 0.382744 0.284977
0.466786 0.372899 0.268518
0.797598 0.352501 0.295979
0.983766 0.363629 0.394118
1.000000 0.359118 0.469249
0.000000 0.796675 0.112967
0.002540 0.775339 0.123398
0.030213 0.731590 0.146528
0.102401 0.687974 0.179844
0.224072 0.667274 0.209332
0.462004 0.662785 0.210007
0.841069 0.638267 0.263538
0.996021 0.626649 0.297187
1.000000 0.600561 0.320016
0.000000 0.966652 0.042781
0.000482 0.956740 0.050599
0.020469 0.936134 0.067598
0.079672 0.914227 0.090997
0.200979 0.901504 0.119619
0.437164 0.901464 0.154090
0.765611 0.907145 0.200680
0.960947 0.873584 0.208534
1.000000 0.839954 0.204484
0.000000 1.000000 0.013495
0.000000 1.000000 0.019405
0.015089 1.000000 0.032106
0.069117 1.000000 0.049693
0.186765 0.997708 0.073936
0.407190 1.000000 0.106291
0.704096 1.000000 0.137462
0.924907 0.978447 0.148156
0.998023 0.954450 0.146104
0.004655 0.045508 1.000000
0.034519 0.042602 1.000000
0.116409 0.037474 1.000000
0.265624 0.032628 1.000000
0.502325 0.028506 1.000000
0.772307 0.024580 1.000000
0.955214 0.020671 1.000000
1.000000 0.017288 1.000000
1.000000 0.015603 1.000000
0.002559 0.072433 0.992875
0.029468 0.068351 0.996837
0.105339 0.061129 1.000000
0.245741 0.054564 1.000000
0.473964 0.049191 1.000000
0.745845 0.043741 1.000000
0.941684 0.038044 1.000000
1.000000 0.033104 1.000000
1.000000 0.030646 1.000000
0.000000 0.132953 0.927052
0.019549 0.124992 0.931498
0.081151 0.110758 0.936479
0.201033 0.100133 0.941559
0.411600 0.094108 0.954395
0.687298 0.087279 0.973048
0.909764 0.079147 0.992377
1.000000 0.072081 1.000000
1.000000 0.068518 1.000000
0.000000 0.233538 0.816544
0.008178 0.215035 0.821360
0.048004 0.178670 0.820615
0.134754 0.157383 0.818916
0.321103 0.154534 0.839898
0.604804 0.148520 0.875006
0.863186 0.139211 0.914167
0.994676 0.132073 0.951746
1.000000 0.128518 0.970256
0.000000 0.400158 0.665093
0.000000 0.366680 0.672674
0.016504 0.283297 0.669747
0.063393 0.235014 0.671351
0.214744 0.242498 0.701907
0.508953 0.242552 0.747086
0.811330 0.234170 0.790395
0.981846 0.231242 0.849413
1.000000 0.229447 0.883749
0.000000 0.631479 0.493333
0.000000 0.597854 0.508192
0.018721 0.518263 0.532358
0.074636 0.441266 0.569238
0.178838 0.410545 0.598925
0.428715 0.404980 0.639972
0.781757 0.394989 0.656409
0.984083 0.406246 0.715870
1.000000 0.406726 0.760262
0.000000 0.857382 0.327530
0.001639 0.836918 0.345811
0.026355 0.792845 0.383519
0.090298 0.744525 0.435057
0.198358 0.710438 0.496071
0.413790 0.708557 0.542336
0.805307 0.692318 0.538128
1.000000 0.674936 0.584203
1.000000 0.664963 0.619116
0.000000 0.993265 0.195939
0.000902 0.985480 0.212224
0.021639 0.968674 0.246409
0.079986 0.950020 0.292091
0.195764 0.939944 0.350695
0.424697 0.951517 0.416117
0.782490 0.977724 0.442059
0.974475 0.950880 0.468859
1.000000 0.911599 0.477483
0.000000 1.000000 0.135117
0.000000 1.000000 0.149438
0.017554 1.000000 0.179501
0.073286 1.000000 0.219290
0.192181 1.000000 0.270645
0.418987 1.000000 0.333106
0.729594 1.000000 0.389795
0.939352 1.000000 0.414439
0.991423 1.000000 0.408685
0.007591 0.060186 1.000000
0.039506 0.056573 1.000000
0.125274 0.050133 1.000000
0.280624 0.043845 1.000000
0.522809 0.038388 1.000000
0.790437 0.033357 1.000000
0.963443 0.028511 1.000000
1.000000 0.024353 1.000000
1.000000 0.022286 1.000000
0.005087 0.089946 1.000000
0.034151 0.085518 1.000000
0.114604 0.077481 1.000000
0.261910 0.069649 1.000000
0.496422 0.062852 1.000000
0.766318 0.056276 1.000000
0.951832 0.049613 1.000000
1.000000 0.043738 1.000000
1.000000 0.040763 1.000000
0.000987 0.159133 1.000000
0.024316 0.151502 1.000000
0.092784 0.137598 1.000000
0.223044 0.125231 1.000000
0.441800 0.116053 1.000000
0.715046 0.107239 1.000000
0.925062 0.097832 1.000000
1.000000 0.089432 1.000000
1.000000 0.085155 1.000000
0.000000 0.277954 0.986174
0.013884 0.262610 0.987691
0.065646 0.233529 0.987603
0.172331 0.209600 0.987292
0.369992 0.195823 0.993143
0.645753 0.183687 1.000000
0.886034 0.170679 1.000000
1.000000 0.159632 1.000000
1.000000 0.154166 1.000000
0.000000 0.466323 0.915720
0.005896 0.441527 0.921281
0.040702 0.390813 0.927553
0.120736 0.346913 0.935088
0.290186 0.323623 0.952182
0.563242 0.305473 0.976167
0.838016 0.288059 0.992672
0.990907 0.275669 1.000000
1.000000 0.269823 1.000000
0.000000 0.703605 0.791309
0.003286 0.678200 0.806122
0.031064 0.624561 0.831905
0.097257 0.569046 0.862811
0.232669 0.528200 0.904664
0.480037 0.495706 0.961853
0.794362 0.472961 0.984019
0.988792 0.463984 0.980835
1.000000 0.460670 0.980266
0.000000 0.907688 0.614700
0.003140 0.892147 0.638057
0.029094 0.858847 0.682915
0.091989 0.819900 0.739052
0.207672 0.783938 0.816938
0.417888 0.752370 0.935882
0.777951 0.726134 0.992763
1.000000 0.717038 0.952311
1.000000 0.716688 0.930367
0.000000 1.000000 0.432860
0.001888 1.000000 0.458773
0.024111 0.995011 0.510465
0.084037 0.981478 0.575804
0.202680 0.973129 0.661560
0.430441 0.983814 0.778249
0.774966 1.000000 0.890573
0.993726 0.979802 0.923638
1.000000 0.941926 0.853266
0.000000 1.000000 0.337140
0.000799 1.000000 0.362328
0.020548 1.000000 0.413654
0.078944 1.000000 0.478550
0.201181 1.000000 0.559652
0.432638 1.000000 0.662127
0.749518 1.000000 0.769902
0.955822 1.000000 0.823134
0.989408 1.000000 0.804253
0.009261 0.068782 1.000000
0.042267 0.064825 1.000000
0.129998 0.057634 1.000000
0.288418 0.050498 1.000000
0.533429 0.044213 1.000000
0.799565 0.038483 1.000000
0.967444 0.033049 1.000000
1.000000 0.028429 1.000000
1.000000 0.026137 1.000000
0.006619 0.099736 1.000000
0.036851 0.095179 1.000000
0.119608 0.086814 1.000000
0.270312 0.078375 1.000000
0.507905 0.070790 1.000000
0.776557 0.063522 1.000000
0.956700 0.056269 1.000000
1.000000 0.049887 1.000000
1.000000 0.046628 1.000000
0.002462 0.173761 1.000000
0.027346 0.166421 1.000000
0.099370 0.152948 1.000000
0.234476 0.139874 1.000000
0.456965 0.128942 1.000000
0.728770 0.118641 1.000000
0.932341 0.108236 1.000000
1.000000 0.099061 1.000000
1.000000 0.094401 1.000000
0.000000 0.302785 1.000000
0.017922 0.289374 1.000000
0.076188 0.264226 1.000000
0.191730 0.240196 1.000000
0.394445 0.221392 1.000000
0.666602 0.204748 1.000000
0.897425 0.188715 1.000000
1.000000 0.175342 1.000000
1.000000 0.168759 1.000000
0.000000 0.502600 1.000000
0.010667 0.482466 1.000000
0.055176 0.443352 1.000000
0.149969 0.404092 1.000000
0.328186 0.372363 1.000000
0.594765 0.344762 1.000000
0.854116 0.320333 1.000000
0.995868 0.302003 1.000000
1.000000 0.293444 1.000000
0.000000 0.741441 0.933209
0.006793 0.720931 0.943982
0.041614 0.679542 0.963948
0.119878 0.633826 0.987995
0.270871 0.591808 1.000000
0.523312 0.553208 1.000000
0.812284 0.521019 1.000000
0.990961 0.500289 1.000000
1.000000 0.491827 1.000000
0.000000 0.931831 0.785029
0.004763 0.919496 0.806154
0.033458 0.893220 0.846441
0.101760 0.861302 0.895323
0.233427 0.829047 0.960481
0.473685 0.799410 1.000000
0.792966 0.772136 1.000000
0.998851 0.748620 1.000000
1.000000 0.739329 1.000000
0.000000 1.000000 0.595231
0.002700 1.000000 0.625365
0.026458 1.000000 0.683091
0.089446 0.997198 0.752035
0.216251 0.989973 0.836528
0.455793 0.993043 0.941662
0.787011 0.995571 1.000000
0.993873 0.956961 1.000000
1.000000 0.933323 1.000000
0.000000 1.000000 0.480523
0.001446 1.000000 0.513152
0.022616 1.000000 0.577396
0.083416 1.000000 0.654912
0.209810 1.000000 0.745829
0.445890 1.000000 0.854930
0.760829 1.000000 0.964153
0.963134 1.000000 1.000000
0.991096 0.991785 0.987896
