luts/silbersalz-250d_v1-bridged_33.cube
TITLE "silbersalz-250d_v1-bridged_33"
# Generated by silbersalz-look on 2026-08-23
# Input:  Silbersalz flat-scan code values [0,1] (Display P3 tagged)
# Output: graded display code values (Display P3)
# track: v1-bridged
# base: silbersalz-gold200_v1-paired_33.cube
LUT_3D_SIZE 33
DOMAIN_MIN 0.0 0.0 0.0
DOMAIN_MAX 1.0 1.0 1.0
0.000000 0.016709 0.003909
0.000000 0.016709 0.003909
0.000000 0.016709 0.003909
0.000000 0.016709 0.003909
0.000000 0.016709 0.003909
0.000000 0.016709 0.003909
0.000000 0.016709 0.003909
0.000073 0.016688 0.003911
0.000721 0.016505 0.003932
0.007008 0.016117 0.003997
0.018016 0.015548 0.004151
0.034121 0.014864 0.004469
0.056434 0.014190 0.005088
0.084894 0.013660 0.006101
0.119717 0.013377 0.007601
0.160978 0.013407 0.009632
0.209231 0.013794 0.012217
0.263856 0.014457 0.015189
0.323992 0.015277 0.018329
0.389366 0.016129 0.021357
0.458492 0.016883 0.024011
0.529971 0.017445 0.026067
0.602155 0.017723 0.027272
0.673429 0.017740 0.027684
0.741228 0.017448 0.027143
0.804718 0.016942 0.025938
0.860915 0.016253 0.024142
0.909915 0.015484 0.022087
0.948655 0.014728 0.020036
0.978178 0.014071 0.018249
0.996285 0.013621 0.017024
1.000000 0.013421 0.016482
1.000000 0.013421 0.016482
0.000000 0.018313 0.003847
0.000000 0.018313 0.003847
0.000000 0.018313 0.003847
0.000000 0.018313 0.003847
0.000000 0.018313 0.003847
0.000000 0.018313 0.003847
0.000000 0.018313 0.003847
0.000096 0.018292 0.003850
0.000948 0.018099 0.003869
0.007264 0.017691 0.003931
0.018273 0.017090 0.004081
0.034382 0.016366 0.004394
0.056699 0.015644 0.005005
0.085165 0.015063 0.006011
0.119994 0.014729 0.007505
0.161260 0.014710 0.009536
0.209518 0.015053 0.012128
0.264148 0.015677 0.015117
0.324291 0.016462 0.018281
0.389675 0.017284 0.021338
0.458814 0.018013 0.024025
0.530306 0.018554 0.026115
0.602500 0.018817 0.027352
0.673778 0.018823 0.027793
0.741571 0.018525 0.027274
0.805044 0.018017 0.026087
0.861212 0.017327 0.024303
0.910175 0.016559 0.022254
0.948873 0.015804 0.020206
0.978356 0.015149 0.018419
0.996432 0.014699 0.017194
1.000000 0.014500 0.016651
1.000000 0.014500 0.016651
0.000000 0.020610 0.003760
0.000000 0.020610 0.003760
0.000000 0.020610 0.003760
0.000000 0.020610 0.003760
0.000000 0.020610 0.003760
0.000000 0.020610 0.003760
0.000000 0.020610 0.003760
0.000129 0.020587 0.003762
0.001274 0.020380 0.003780
0.007633 0.019943 0.003839
0.018643 0.019299 0.003982
0.034755 0.018516 0.004287
0.057078 0.017726 0.004888
0.085554 0.017071 0.005884
0.120392 0.016664 0.007370
0.161666 0.016576 0.009400
0.209930 0.016856 0.012002
0.264567 0.017423 0.015014
0.324720 0.018158 0.018211
0.390118 0.018937 0.021311
0.459274 0.019629 0.024045
0.530784 0.020140 0.026184
0.602993 0.020382 0.027467
0.674277 0.020373 0.027949
0.742061 0.020067 0.027462
0.805509 0.019555 0.026300
0.861636 0.018865 0.024531
0.910545 0.018099 0.022493
0.949184 0.017346 0.020448
0.978609 0.016691 0.018661
0.996633 0.016244 0.017436
1.000000 0.016046 0.016893
1.000000 0.016046 0.016893
0.000000 0.025470 0.003586
0.000000 0.025470 0.003586
0.000000 0.025470 0.003586
0.000000 0.025470 0.003586
0.000000 0.025470 0.003586
0.000000 0.025470 0.003586
0.000000 0.025470 0.003586
0.000201 0.025443 0.003588
0.001985 0.025209 0.003602
0.008435 0.024712 0.003653
0.019447 0.023974 0.003785
0.035566 0.023070 0.004072
0.057902 0.022136 0.004652
0.086395 0.021328 0.005624
0.121249 0.020766 0.007093
0.162536 0.020529 0.009119
0.210810 0.020675 0.011742
0.265458 0.021122 0.014800
0.325627 0.021750 0.018065
0.391051 0.022437 0.021252
0.460240 0.023051 0.024084
0.531786 0.023499 0.026323
0.604023 0.023695 0.027701
0.675317 0.023654 0.028268
0.743080 0.023330 0.027850
0.806477 0.022811 0.026739
0.862516 0.022120 0.025004
0.911313 0.021357 0.022985
0.949826 0.020609 0.020948
0.979131 0.019958 0.019163
0.996893 0.019513 0.017937
1.000000 0.019316 0.017393
1.000000 0.019316 0.017393
0.000357 0.032147 0.003364
0.000357 0.032147 0.003364
0.000357 0.032147 0.003364
0.000357 0.032147 0.003364
0.000357 0.032147 0.003364
0.000357 0.032147 0.003364
0.000357 0.032147 0.003364
0.000628 0.032117 0.003365
0.003034 0.031845 0.003374
0.009572 0.031267 0.003414
0.020586 0.030403 0.003529
0.036712 0.029333 0.003793
0.059065 0.028205 0.004344
0.087577 0.027186 0.005285
0.122449 0.026412 0.006728
0.163749 0.025971 0.008747
0.212032 0.025931 0.011394
0.266690 0.026211 0.014511
0.326876 0.026690 0.017865
0.392329 0.027248 0.021168
0.461558 0.027753 0.024131
0.533148 0.028114 0.026504
0.605418 0.028246 0.028010
0.676724 0.028161 0.028692
0.744456 0.027814 0.028365
0.807781 0.027285 0.027325
0.863698 0.026595 0.025635
0.912343 0.025837 0.023643
0.950685 0.025094 0.021617
0.979826 0.024450 0.019835
0.997156 0.024008 0.018607
1.000000 0.023812 0.018062
1.000000 0.023812 0.018062
0.001263 0.040903 0.003091
0.001263 0.040903 0.003091
0.001263 0.040903 0.003091
0.001263 0.040903 0.003091
0.001263 0.040903 0.003091
0.001263 0.040903 0.003091
0.001263 0.040903 0.003091
0.001591 0.040867 0.003091
0.004498 0.040547 0.003095
0.011106 0.039864 0.003121
0.022122 0.038838 0.003214
0.038257 0.037555 0.003448
0.060627 0.036172 0.003960
0.089160 0.034881 0.004859
0.124051 0.033829 0.006267
0.165362 0.033121 0.008274
0.213650 0.032834 0.010950
0.268314 0.032893 0.014139
0.328515 0.033172 0.017605
0.393999 0.033559 0.021054
0.463274 0.033920 0.024182
0.534915 0.034166 0.026728
0.607224 0.034215 0.028398
0.678540 0.034073 0.029228
0.746227 0.033696 0.029019
0.809456 0.033154 0.028071
0.865215 0.032465 0.026440
0.913661 0.031714 0.024484
0.951781 0.030980 0.022472
0.980710 0.030344 0.020693
0.997431 0.029907 0.019464
1.000000 0.029714 0.018917
1.000000 0.029714 0.018917
0.003397 0.052534 0.002769
0.003397 0.052534 0.002769
0.003397 0.052534 0.002769
0.003397 0.052534 0.002769
0.003397 0.052534 0.002769
0.003397 0.052534 0.002769
0.003397 0.052534 0.002769
0.003724 0.052491 0.002768
0.006629 0.052109 0.002763
0.013236 0.051291 0.002772
0.024253 0.050057 0.002836
0.040395 0.048496 0.003030
0.062781 0.046783 0.003489
0.091333 0.045132 0.004331
0.126237 0.043713 0.005690
0.167551 0.042647 0.007676
0.215833 0.042030 0.010382
0.270492 0.041789 0.013658
0.330697 0.041799 0.017260
0.396208 0.041954 0.020893
0.465528 0.042121 0.024230
0.537223 0.042210 0.026996
0.609571 0.042149 0.028877
0.680891 0.041931 0.029897
0.748513 0.041516 0.029842
0.811610 0.040959 0.029013
0.867159 0.040272 0.027459
0.915343 0.039531 0.025550
0.953172 0.038810 0.023557
0.981824 0.038185 0.021784
0.997777 0.037757 0.020552
1.000000 0.037565 0.020003
1.000000 0.037565 0.020003
0.006257 0.067341 0.002420
0.006257 0.067341 0.002420
0.006257 0.067341 0.002420
0.006257 0.067341 0.002420
0.006257 0.067341 0.002420
0.006257 0.067341 0.002420
0.006257 0.067341 0.002420
0.006584 0.067290 0.002418
0.009488 0.066834 0.002402
0.016093 0.065854 0.002387
0.027109 0.064365 0.002412
0.043254 0.062465 0.002551
0.065649 0.060340 0.002942
0.094209 0.058240 0.003708
0.129111 0.056357 0.005002
0.170410 0.054835 0.006954
0.218666 0.053792 0.009689
0.273298 0.053160 0.013060
0.333490 0.052819 0.016820
0.399011 0.052671 0.020668
0.468366 0.052586 0.024255
0.540105 0.052475 0.027284
0.612482 0.052271 0.029422
0.683789 0.051958 0.030676
0.751317 0.051496 0.030811
0.814239 0.050922 0.030129
0.869518 0.050240 0.028672
0.917372 0.049514 0.026821
0.954838 0.048810 0.024853
0.983145 0.048200 0.023088
0.998185 0.047781 0.021854
1.000000 0.047595 0.021303
1.000000 0.047595 0.021303
0.009837 0.085121 0.002063
0.009837 0.085121 0.002063
0.009837 0.085121 0.002063
0.009837 0.085121 0.002063
0.009837 0.085121 0.002063
0.009837 0.085121 0.002063
0.009837 0.085121 0.002063
0.010164 0.085060 0.002060
0.013068 0.084519 0.002031
0.019672 0.083355 0.001984
0.030686 0.081574 0.001959
0.046830 0.079282 0.002028
0.069222 0.076679 0.002331
0.097774 0.074049 0.003002
0.132655 0.071614 0.004214
0.173918 0.069545 0.006124
0.222126 0.067984 0.008883
0.276709 0.066877 0.012356
0.336863 0.066105 0.016288
0.402374 0.065588 0.020374
0.471745 0.065195 0.024242
0.543512 0.064842 0.027571
0.615901 0.064468 0.030003
0.687172 0.064041 0.031527
0.754571 0.063524 0.031882
0.817274 0.062929 0.031373
0.872227 0.062255 0.030029
0.919686 0.061546 0.028249
0.956723 0.060865 0.026312
0.984624 0.060274 0.024557
0.998638 0.059868 0.023322
1.000000 0.059687 0.022769
1.000000 0.059687 0.022769
0.014238 0.106133 0.001714
0.014238 0.106133 0.001714
0.014238 0.106133 0.001714
0.014238 0.106133 0.001714
0.014238 0.106133 0.001714
0.014238 0.106133 0.001714
0.014238 0.106133 0.001714
0.014565 0.106062 0.001709
0.017469 0.105429 0.001662
0.024072 0.104059 0.001576
0.035084 0.101955 0.001487
0.051220 0.099220 0.001467
0.073595 0.096071 0.001658
0.102116 0.092829 0.002214
0.136952 0.089750 0.003327
0.178154 0.087037 0.005182
0.226287 0.084860 0.007961
0.280794 0.083183 0.011539
0.340884 0.081894 0.015654
0.406356 0.080934 0.019997
0.475716 0.080174 0.024172
0.547486 0.079532 0.027834
0.619858 0.078957 0.030595
0.691060 0.078397 0.032425
0.758287 0.077816 0.033032
0.820718 0.077198 0.032722
0.875281 0.076533 0.031510
0.922276 0.075848 0.029813
0.958812 0.075193 0.027914
0.986243 0.074625 0.026172
0.999130 0.074234 0.024937
1.000000 0.074060 0.024382
1.000000 0.074060 0.024382
0.019550 0.130609 0.001392
0.019550 0.130609 0.001392
0.019550 0.130609 0.001392
0.019550 0.130609 0.001392
0.019550 0.130609 0.001392
0.019550 0.130609 0.001392
0.019550 0.130609 0.001392
0.019877 0.130527 0.001384
0.022783 0.129795 0.001315
0.029388 0.128205 0.001179
0.040396 0.125748 0.001009
0.056518 0.122529 0.000877
0.078858 0.118769 0.000933
0.107322 0.114835 0.001350
0.142083 0.111020 0.002348
0.183194 0.107560 0.004136
0.231225 0.104665 0.006929
0.285626 0.102319 0.010609
0.345620 0.100422 0.014909
0.411020 0.098941 0.019522
0.480334 0.097749 0.024024
0.552070 0.096769 0.028045
0.624384 0.095961 0.031169
0.695472 0.095246 0.033338
0.762473 0.094591 0.034227
0.824568 0.093947 0.034142
0.878668 0.093293 0.033081
0.925123 0.092634 0.031481
0.961082 0.092010 0.029626
0.987972 0.091469 0.027902
0.999624 0.091096 0.026669
1.000000 0.090929 0.026113
1.000000 0.090929 0.026113
0.025849 0.158734 0.001118
0.025849 0.158734 0.001118
0.025849 0.158734 0.001118
0.025849 0.158734 0.001118
0.025849 0.158734 0.001118
0.025849 0.158734 0.001118
0.025849 0.158734 0.001118
0.026177 0.158640 0.001107
0.029086 0.157805 0.001010
0.035695 0.155985 0.000814
0.046700 0.153155 0.000548
0.062801 0.149416 0.000290
0.085089 0.144993 0.000192
0.113471 0.140294 0.000445
0.148126 0.135655 0.001301
0.189116 0.131351 0.003006
0.237016 0.127633 0.005800
0.291282 0.124514 0.009573
0.351146 0.121915 0.014054
0.416435 0.119833 0.018937
0.485658 0.118144 0.023775
0.557311 0.116777 0.028174
0.629514 0.115700 0.031688
0.700427 0.114808 0.034225
0.767133 0.114068 0.035425
0.828817 0.113392 0.035589
0.882372 0.112750 0.034698
0.928201 0.112119 0.033209
0.963505 0.111530 0.031408
0.989753 0.111019 0.029707
1.000000 0.110666 0.028478
1.000000 0.110508 0.027923
1.000000 0.110508 0.027923
0.033310 0.191044 0.000932
0.033310 0.191044 0.000932
0.033310 0.191044 0.000932
0.033310 0.191044 0.000932
0.033310 0.191044 0.000932
0.033310 0.191044 0.000932
0.033310 0.191044 0.000932
0.033638 0.190938 0.000917
0.036553 0.189999 0.000791
0.043170 0.187947 0.000528
0.054177 0.184737 0.000152
0.070257 0.180460 0.000030
0.092482 0.175337 0.000020
0.120764 0.169815 0.000046
0.155288 0.164272 0.000378
0.196129 0.159026 0.001854
0.243865 0.154375 0.004622
0.297965 0.150378 0.008459
0.357660 0.146975 0.013091
0.422789 0.144204 0.018224
0.491861 0.141947 0.023391
0.563359 0.140138 0.028173
0.635369 0.138755 0.032093
0.706017 0.137658 0.035022
0.772328 0.136817 0.036559
0.833496 0.136101 0.036996
0.886399 0.135466 0.036295
0.931498 0.134863 0.034932
0.966055 0.134310 0.033196
0.991496 0.133831 0.031526
1.000000 0.133499 0.030306
1.000000 0.133351 0.029752
1.000000 0.133351 0.029752
0.041835 0.227110 0.000861
0.041835 0.227110 0.000861
0.041835 0.227110 0.000861
0.041835 0.227110 0.000861
0.041835 0.227110 0.000861
0.041835 0.227110 0.000861
0.041835 0.227110 0.000861
0.042165 0.226993 0.000843
0.045089 0.225953 0.000687
0.051721 0.223674 0.000355
0.062739 0.220092 0.000044
0.078807 0.215282 0.000000
0.100980 0.209451 0.000000
0.129163 0.203083 0.000000
0.163551 0.196591 0.000057
0.204229 0.190338 0.000830
0.251784 0.184677 0.003481
0.305687 0.179716 0.007335
0.365176 0.175429 0.012071
0.430095 0.171900 0.017415
0.498953 0.169018 0.022883
0.570217 0.166721 0.028035
0.641940 0.164997 0.032361
0.712218 0.163669 0.035690
0.778024 0.162709 0.037577
0.838562 0.161940 0.038304
0.890703 0.161304 0.037808
0.934968 0.160726 0.036585
0.968687 0.160206 0.034924
0.993251 0.159759 0.033293
1.000000 0.159449 0.032087
1.000000 0.159311 0.031537
1.000000 0.159311 0.031537
0.051402 0.266741 0.000935
0.051402 0.266741 0.000935
0.051402 0.266741 0.000935
0.051402 0.266741 0.000935
0.051402 0.266741 0.000935
0.051402 0.266741 0.000935
0.051402 0.266741 0.000935
0.051733 0.266614 0.000914
0.054672 0.265481 0.000729
0.061330 0.262989 0.000335
0.072376 0.259055 0.000029
0.088458 0.253734 0.000000
0.110605 0.247215 0.000000
0.138715 0.240009 0.000000
0.172985 0.232558 0.000000
0.213504 0.225266 0.000182
0.260865 0.218543 0.002460
0.314548 0.212558 0.006271
0.373795 0.207326 0.011048
0.438450 0.202984 0.016545
0.507018 0.199429 0.022269
0.577956 0.196604 0.027758
0.649278 0.194507 0.032473
0.719065 0.192921 0.036195
0.784235 0.191820 0.038435
0.844015 0.190979 0.039459
0.895271 0.190331 0.039178
0.938589 0.189766 0.038107
0.971377 0.189274 0.036533
0.994996 0.188855 0.034950
1.000000 0.188566 0.033764
1.000000 0.188436 0.033220
1.000000 0.188436 0.033220
0.061997 0.309737 0.001183
0.061997 0.309737 0.001183
0.061997 0.309737 0.001183
0.061997 0.309737 0.001183
0.061997 0.309737 0.001183
0.061997 0.309737 0.001183
0.061997 0.309737 0.001183
0.062330 0.309600 0.001159
0.065291 0.308383 0.000950
0.071993 0.305700 0.000503
0.083093 0.301447 0.000046
0.099226 0.295658 0.000000
0.121395 0.288498 0.000000
0.149482 0.280494 0.000000
0.183676 0.272110 0.000000
0.224064 0.263787 0.000000
0.271238 0.255989 0.001638
0.324684 0.248950 0.005342
0.383654 0.242736 0.010087
0.447983 0.237542 0.015663
0.516177 0.233279 0.021578
0.586676 0.229893 0.027352
0.657464 0.227391 0.032418
0.726612 0.225519 0.036507
0.790993 0.224250 0.039089
0.849865 0.223315 0.040408
0.900098 0.222635 0.040348
0.942348 0.222070 0.039437
0.974108 0.221596 0.037959
0.996712 0.221198 0.036434
1.000000 0.220925 0.035275
1.000000 0.220803 0.034741
1.000000 0.220803 0.034741
0.073592 0.355782 0.001624
0.073592 0.355782 0.001624
0.073592 0.355782 0.001624
0.073592 0.355782 0.001624
0.073592 0.355782 0.001624
0.073592 0.355782 0.001624
0.073592 0.355782 0.001624
0.073929 0.355637 0.001598
0.076921 0.354349 0.001371
0.083687 0.351504 0.000885
0.094878 0.346977 0.000225
0.111114 0.340782 0.000000
0.133371 0.333052 0.000000
0.161508 0.324324 0.000000
0.195695 0.315076 0.000000
0.236007 0.305775 0.000000
0.283022 0.296933 0.001086
0.336232 0.288854 0.004620
0.394894 0.281655 0.009256
0.458834 0.275597 0.014830
0.526554 0.270605 0.020854
0.596484 0.266632 0.026839
0.666580 0.263698 0.032195
0.734917 0.261508 0.036608
0.798335 0.260042 0.039503
0.856129 0.258984 0.041102
0.905187 0.258248 0.041261
0.946236 0.257662 0.040515
0.976865 0.257192 0.039143
0.998389 0.256805 0.037686
1.000000 0.256543 0.036560
1.000000 0.256426 0.036039
1.000000 0.256426 0.036039
0.086143 0.404451 0.002266
0.086143 0.404451 0.002266
0.086143 0.404451 0.002266
0.086143 0.404451 0.002266
0.086143 0.404451 0.002266
0.086143 0.404451 0.002266
0.086143 0.404451 0.002266
0.086485 0.404300 0.002240
0.089520 0.402957 0.002002
0.096377 0.399985 0.001491
0.107704 0.395240 0.000722
0.124106 0.388717 0.000065
0.146531 0.380515 0.000000
0.174810 0.371172 0.000000
0.209083 0.361167 0.000000
0.249401 0.350990 0.000000
0.296312 0.341186 0.000849
0.349306 0.332124 0.004163
0.407645 0.323980 0.008620
0.471131 0.317074 0.014106
0.538270 0.311355 0.020146
0.607484 0.306784 0.026250
0.676710 0.303394 0.031817
0.744040 0.300857 0.036486
0.806298 0.299161 0.039650
0.862826 0.297948 0.041501
0.910543 0.297126 0.041868
0.950248 0.296494 0.041288
0.979640 0.296008 0.040029
0.999586 0.295618 0.038647
1.000000 0.295359 0.037563
1.000000 0.295244 0.037058
1.000000 0.295244 0.037058
0.099594 0.455214 0.003106
0.099594 0.455214 0.003106
0.099594 0.455214 0.003106
0.099594 0.455214 0.003106
0.099594 0.455214 0.003106
0.099594 0.455214 0.003106
0.099594 0.455214 0.003106
0.099942 0.455058 0.003079
0.103033 0.453679 0.002837
0.110011 0.450620 0.002315
0.121522 0.445723 0.001527
0.138160 0.438964 0.000546
0.160847 0.430409 0.000073
0.189374 0.420587 0.000000
0.223843 0.409973 0.000000
0.264271 0.399065 0.000000
0.311160 0.388432 0.000950
0.363984 0.378497 0.004009
0.421998 0.369491 0.008229
0.484973 0.361791 0.013543
0.551420 0.355370 0.019502
0.619762 0.350207 0.025622
0.687921 0.346347 0.031301
0.754032 0.343439 0.036142
0.814915 0.341480 0.039515
0.869973 0.340077 0.041575
0.916170 0.339137 0.042131
0.954384 0.338430 0.041710
0.982431 0.337906 0.040568
1.000000 0.337497 0.039271
1.000000 0.337230 0.038236
1.000000 0.337113 0.037751
1.000000 0.337113 0.037751
0.113866 0.507447 0.004123
0.113866 0.507447 0.004123
0.113866 0.507447 0.004123
0.113866 0.507447 0.004123
0.113866 0.507447 0.004123
0.113866 0.507447 0.004123
0.113866 0.507447 0.004123
0.114223 0.507289 0.004096
0.117383 0.505893 0.003855
0.124513 0.502792 0.003336
0.136261 0.497817 0.002548
0.153208 0.490924 0.001559
0.176255 0.482152 0.000592
0.205145 0.472012 0.000165
0.239935 0.460965 0.000018
0.280594 0.449510 0.000144
0.327562 0.438224 0.001382
0.380280 0.427573 0.004166
0.437988 0.417834 0.008105
0.500406 0.409431 0.013176
0.566055 0.402367 0.018959
0.633364 0.396637 0.024986
0.700254 0.392309 0.030669
0.764923 0.389015 0.035584
0.824204 0.386765 0.039090
0.877579 0.385140 0.041308
0.922074 0.384048 0.042024
0.958642 0.383236 0.041750
0.985235 0.382649 0.040727
1.000000 0.382202 0.039521
1.000000 0.381917 0.038540
1.000000 0.381794 0.038078
1.000000 0.381794 0.038078
0.128866 0.560450 0.005288
0.128866 0.560450 0.005288
0.128866 0.560450 0.005288
0.128866 0.560450 0.005288
0.128866 0.560450 0.005288
0.128866 0.560450 0.005288
0.128866 0.560450 0.005288
0.129231 0.560293 0.005261
0.132476 0.558901 0.005026
0.139789 0.555805 0.004519
0.151825 0.550829 0.003748
0.169156 0.543913 0.002774
0.192659 0.535069 0.001750
0.222028 0.524787 0.000907
0.257266 0.513507 0.000499
0.298286 0.501718 0.000783
0.345446 0.489990 0.002117
0.398138 0.478818 0.004620
0.455575 0.468514 0.008248
0.517405 0.459537 0.013015
0.582161 0.451920 0.018534
0.648285 0.445679 0.024365
0.713706 0.440904 0.029941
0.776711 0.437223 0.034826
0.834164 0.434666 0.038383
0.885641 0.432792 0.040696
0.928249 0.431519 0.041537
0.963020 0.430573 0.041392
0.988052 0.429900 0.040486
1.000000 0.429397 0.039373
1.000000 0.429082 0.038452
1.000000 0.428947 0.038017
1.000000 0.428947 0.038017
0.144476 0.613468 0.006563
0.144476 0.613468 0.006563
0.144476 0.613468 0.006563
0.144476 0.613468 0.006563
0.144476 0.613468 0.006563
0.144476 0.613468 0.006563
0.144476 0.613468 0.006563
0.144852 0.613314 0.006537
0.148193 0.611947 0.006311
0.155719 0.608905 0.005824
0.168091 0.604005 0.005080
0.185875 0.597180 0.004138
0.209928 0.588414 0.003134
0.239887 0.578173 0.002282
0.275696 0.566872 0.001816
0.317204 0.554978 0.001978
0.364674 0.543041 0.003106
0.417428 0.531571 0.005331
0.474640 0.520903 0.008631
0.535866 0.511513 0.013048
0.599651 0.503464 0.018229
0.664457 0.496797 0.023768
0.728225 0.491621 0.029133
0.789357 0.487575 0.033886
0.844764 0.484708 0.037408
0.894136 0.482572 0.039751
0.934679 0.481096 0.040675
0.967508 0.479994 0.040636
0.990877 0.479213 0.039839
1.000000 0.478638 0.038820
1.000000 0.478284 0.037964
1.000000 0.478133 0.037557
1.000000 0.478133 0.037557
0.160557 0.665717 0.007904
0.160557 0.665717 0.007904
0.160557 0.665717 0.007904
0.160557 0.665717 0.007904
0.160557 0.665717 0.007904
0.160557 0.665717 0.007904
0.160557 0.665717 0.007904
0.160945 0.665568 0.007880
0.164394 0.664247 0.007666
0.172159 0.661305 0.007204
0.184910 0.656560 0.006498
0.203209 0.649934 0.005599
0.227893 0.641396 0.004631
0.258541 0.631378 0.003789
0.295035 0.620265 0.003287
0.337148 0.608497 0.003348
0.385037 0.596597 0.004290
0.437941 0.585066 0.006245
0.494981 0.574253 0.009210
0.555603 0.564637 0.013243
0.618361 0.556308 0.018029
0.681739 0.549326 0.023196
0.743697 0.543824 0.028256
0.802769 0.539459 0.032784
0.855936 0.536299 0.036189
0.903015 0.533903 0.038495
0.941330 0.532216 0.039459
0.972085 0.530944 0.039501
0.993562 0.530044 0.038802
1.000000 0.529384 0.037876
1.000000 0.528982 0.037085
1.000000 0.528813 0.036708
1.000000 0.528813 0.036708
0.176947 0.716410 0.009268
0.176947 0.716410 0.009268
0.176947 0.716410 0.009268
0.176947 0.716410 0.009268
0.176947 0.716410 0.009268
0.176947 0.716410 0.009268
0.176947 0.716410 0.009268
0.177348 0.716269 0.009245
0.180915 0.715013 0.009046
0.188940 0.712214 0.008614
0.202105 0.707695 0.007952
0.220971 0.701373 0.007105
0.246354 0.693202 0.006185
0.277773 0.683579 0.005368
0.315045 0.672856 0.004848
0.357864 0.661440 0.004828
0.406268 0.649813 0.005603
0.459404 0.638462 0.007301
0.516325 0.627732 0.009930
0.576354 0.618092 0.013558
0.638051 0.609654 0.017907
0.699922 0.602496 0.022643
0.759947 0.596768 0.027321
0.816811 0.592154 0.031544
0.867573 0.588742 0.034757
0.912200 0.586109 0.036966
0.948151 0.584218 0.037926
0.976720 0.582776 0.038019
0.995690 0.581751 0.037406
1.000000 0.581002 0.036567
1.000000 0.580549 0.035842
1.000000 0.580359 0.035495
1.000000 0.580359 0.035495
0.193461 0.764789 0.010614
0.193461 0.764789 0.010614
0.193461 0.764789 0.010614
0.193461 0.764789 0.010614
0.193461 0.764789 0.010614
0.193461 0.764789 0.010614
0.193461 0.764789 0.010614
0.193877 0.764657 0.010594
0.197568 0.763484 0.010409
0.205870 0.760868 0.010009
0.219475 0.756639 0.009396
0.238943 0.750714 0.008608
0.265076 0.743035 0.007745
0.297330 0.733963 0.006964
0.335451 0.723812 0.006440
0.379054 0.712955 0.006357
0.428050 0.701825 0.006982
0.481484 0.690882 0.008436
0.538338 0.680459 0.010735
0.597794 0.671002 0.013948
0.658419 0.662637 0.017834
0.718736 0.655457 0.022095
0.776745 0.649624 0.026338
0.831294 0.644855 0.030192
0.879531 0.641255 0.033154
0.921584 0.638429 0.035209
0.955065 0.636358 0.036126
0.981368 0.634760 0.036242
0.997260 0.633617 0.035700
1.000000 0.632782 0.034940
1.000000 0.632279 0.034279
1.000000 0.632067 0.033961
1.000000 0.632067 0.033961
0.209894 0.810153 0.011906
0.209894 0.810153 0.011906
0.209894 0.810153 0.011906
0.209894 0.810153 0.011906
0.209894 0.810153 0.011906
0.209894 0.810153 0.011906
0.209894 0.810153 0.011906
0.210325 0.810032 0.011887
0.214145 0.808956 0.011719
0.222732 0.806556 0.011353
0.236792 0.802671 0.010790
0.256886 0.797222 0.010065
0.283800 0.790142 0.009264
0.316927 0.781754 0.008527
0.355944 0.772335 0.008010
0.400382 0.762215 0.007877
0.450025 0.751781 0.008367
0.503809 0.741453 0.009592
0.560637 0.731545 0.011570
0.619550 0.722471 0.014370
0.679110 0.714364 0.017783
0.737860 0.707325 0.021547
0.793813 0.701520 0.025317
0.845990 0.696706 0.028759
0.891627 0.693002 0.031422
0.931033 0.690045 0.033281
0.961980 0.687837 0.034119
0.985969 0.686113 0.034232
0.998801 0.684870 0.033743
1.000000 0.683960 0.033055
1.000000 0.683412 0.032452
1.000000 0.683182 0.032162
1.000000 0.683182 0.032162
0.226020 0.851887 0.013114
0.226020 0.851887 0.013114
0.226020 0.851887 0.013114
0.226020 0.851887 0.013114
0.226020 0.851887 0.013114
0.226020 0.851887 0.013114
0.226020 0.851887 0.013114
0.226465 0.851778 0.013097
0.230415 0.850811 0.012944
0.239290 0.848652 0.012612
0.253810 0.845155 0.012101
0.274537 0.840243 0.011439
0.302244 0.833848 0.010703
0.336258 0.826249 0.010015
0.376191 0.817689 0.009513
0.421489 0.808456 0.009341
0.471808 0.798883 0.009709
0.525973 0.789348 0.010720
