luts/silbersalz-250d_v4-jxl_33.cube
TITLE "silbersalz-250d_v4-jxl_33"
# Generated by saltgate on 2026-08-26
# Input:  Silbersalz flat-scan code values [0,1] (Display P3 tagged)
# Output: graded display code values (Display P3)
# pairs: 22
LUT_3D_SIZE 5
DOMAIN_MIN 0.0 0.0 0.0
DOMAIN_MAX 1.0 1.0 1.0
0.017948 0.025413 0.015400
0.106962 0.056180 0.022985
0.372407 0.020665 0.024425
0.888898 0.001510 0.029368
1.000000 0.000000 0.044090
0.008548 0.055019 0.004008
0.093145 0.076893 0.016702
0.279908 0.082803 0.054536
0.824220 0.023624 0.006064
1.000000 0.010997 0.000000
0.000000 0.152649 0.000841
0.040647 0.143982 0.003877
0.240638 0.135269 0.017835
0.736610 0.097674 0.006111
1.000000 0.079368 0.000000
0.000000 0.482383 0.008489
0.012246 0.438007 0.006981
0.171240 0.377634 0.005951
0.637933 0.320911 0.004073
0.987655 0.284467 0.000000
0.000000 0.848053 0.012383
0.002917 0.793177 0.010639
0.129735 0.707568 0.006569
0.561721 0.621350 0.002361
0.953508 0.564106 0.000000
0.027690 0.049632 0.106200
0.103057 0.027353 0.151735
0.405919 0.010262 0.219615
0.907327 0.002979 0.298445
1.000000 0.001144 0.356220
0.034278 0.086789 0.054543
0.057290 0.044808 0.025429
0.295626 0.068389 0.093828
0.830870 0.036107 0.155660
1.000000 0.024689 0.191138
0.003701 0.203122 0.000000
0.054280 0.186734 0.006002
0.228349 0.181553 0.038977
0.733039 0.155186 0.115878
1.000000 0.136880 0.105379
0.000000 0.584484 0.000000
0.018438 0.538209 0.000000
0.183180 0.485959 0.012672
0.671737 0.439451 0.050694
0.997016 0.386351 0.040296
0.000000 0.933852 0.001260
0.005959 0.893502 0.000000
0.144924 0.826760 0.000000
0.594537 0.750822 0.000000
0.968819 0.688396 0.000000
0.005751 0.029406 0.640218
0.102228 0.022616 0.708469
0.455269 0.014522 0.805527
0.933857 0.008591 0.887899
1.000000 0.005561 0.931903
0.007506 0.094489 0.390072
0.078213 0.081839 0.407308
0.351937 0.070929 0.489564
0.869964 0.049998 0.641581
1.000000 0.041828 0.735525
0.000168 0.286241 0.132940
0.052409 0.230502 0.143463
0.246710 0.200291 0.158180
0.767945 0.172017 0.232808
1.000000 0.180451 0.399803
0.000000 0.730933 0.013043
0.029594 0.675140 0.029177
0.219347 0.621407 0.068355
0.793823 0.633470 0.217650
1.000000 0.535036 0.160913
0.000000 1.000000 0.000000
0.012111 0.989835 0.000000
0.175045 0.960168 0.000000
0.666467 0.932746 0.039354
0.994507 0.874271 0.029185
0.004655 0.045508 1.000000
0.116409 0.037474 1.000000
0.502325 0.028506 1.000000
0.955214 0.020671 1.000000
1.000000 0.015603 1.000000
0.000000 0.132953 0.927052
0.081151 0.110758 0.936479
0.411600 0.094108 0.954395
0.909764 0.079147 0.992377
1.000000 0.068518 1.000000
0.000000 0.400158 0.665093
0.016504 0.283297 0.669747
0.214744 0.242498 0.701907
0.811330 0.234170 0.790395
1.000000 0.229447 0.883749
0.000000 0.857382 0.327530
0.026355 0.792845 0.383519
0.198358 0.710438 0.496071
0.805307 0.692318 0.538128
1.000000 0.664963 0.619116
0.000000 1.000000 0.135117
0.017554 1.000000 0.179501
0.192181 1.000000 0.270645
0.729594 1.000000 0.389795
0.991423 1.000000 0.408685
0.009261 0.068782 1.000000
0.129998 0.057634 1.000000
0.533429 0.044213 1.000000
0.967444 0.033049 1.000000
1.000000 0.026137 1.000000
0.002462 0.173761 1.000000
0.099370 0.152948 1.000000
0.456965 0.128942 1.000000
0.932341 0.108236 1.000000
1.000000 0.094401 1.000000
0.000000 0.502600 1.000000
0.055176 0.443352 1.000000
0.328186 0.372363 1.000000
0.854116 0.320333 1.000000
1.000000 0.293444 1.000000
0.000000 0.931831 0.785029
0.033458 0.893220 0.846441
0.233427 0.829047 0.960481
0.792966 0.772136 1.000000
1.000000 0.739329 1.000000
0.000000 1.000000 0.480523
0.022616 1.000000 0.577396
0.209810 1.000000 0.745829
0.760829 1.000000 0.964153
0.991096 0.991785 0.987896
