luts/silbersalz-500t_v1.1-paired_33.cube
TITLE "500t_stageC_holdout"
# Generated by saltgate on 2026-08-24
# Input:  Silbersalz flat-scan code values [0,1] (Display P3 tagged)
# Output: graded display code values (Display P3)
# pairs: 5
LUT_3D_SIZE 9
DOMAIN_MIN 0.0 0.0 0.0
DOMAIN_MAX 1.0 1.0 1.0
0.080831 0.042180 0.005543
0.122798 0.042981 0.008198
0.232151 0.044408 0.016318
0.400312 0.045536 0.031573
0.599129 0.046088 0.053547
0.786406 0.046605 0.079293
0.924605 0.047665 0.104159
0.998723 0.049002 0.122815
1.000000 0.049725 0.130759
0.076006 0.049146 0.000382
0.116308 0.050156 0.002238
0.222774 0.051986 0.008719
0.389124 0.053664 0.022412
0.588203 0.054911 0.043203
0.777753 0.056260 0.067904
0.919296 0.058270 0.091720
0.996474 0.060449 0.109490
1.000000 0.061566 0.117026
0.068332 0.074252 0.000000
0.105381 0.075747 0.000000
0.205636 0.078623 0.000000
0.367087 0.081798 0.005910
0.565465 0.084953 0.023634
0.759174 0.088501 0.045345
0.907689 0.092921 0.066099
0.991459 0.097188 0.081337
1.000000 0.099269 0.087728
0.064847 0.133099 0.000000
0.099220 0.135220 0.000000
0.193148 0.139757 0.000000
0.347395 0.145480 0.000000
0.542378 0.151699 0.008035
0.738894 0.158574 0.024620
0.894469 0.166447 0.040057
0.985568 0.173600 0.050989
1.000000 0.176989 0.055465
0.066341 0.240274 0.000000
0.099315 0.243189 0.000000
0.188968 0.249889 0.000000
0.336750 0.258804 0.000000
0.527027 0.268626 0.003264
0.723656 0.279237 0.013617
0.883735 0.290689 0.022583
0.980552 0.300629 0.028301
1.000000 0.305235 0.030459
0.068850 0.394298 0.006088
0.101060 0.398119 0.004813
0.188310 0.407071 0.002890
0.332182 0.419121 0.002965
0.518850 0.432445 0.006198
0.714269 0.446464 0.010764
0.876338 0.460673 0.014038
0.976746 0.472401 0.015266
1.000000 0.477710 0.015433
0.069692 0.567344 0.018902
0.101365 0.571928 0.017389
0.187214 0.582714 0.014407
0.329004 0.597328 0.011848
0.513517 0.613533 0.010896
0.707796 0.630097 0.010826
0.870734 0.645854 0.010074
0.973476 0.658161 0.008453
1.000000 0.663581 0.007418
0.069070 0.710467 0.028173
0.100351 0.715525 0.026429
0.185296 0.727459 0.022570
0.325876 0.743709 0.018051
0.509142 0.761735 0.014123
0.702725 0.779745 0.010888
0.866240 0.796078 0.007682
0.970657 0.808261 0.004627
1.000000 0.813493 0.003074
0.068489 0.774475 0.031913
0.099594 0.779709 0.030060
0.184145 0.792069 0.025814
0.324218 0.808936 0.020469
0.506979 0.827635 0.015305
0.700300 0.846133 0.010765
0.864098 0.862576 0.006598
0.969283 0.874591 0.003058
1.000000 0.879689 0.001360
0.075424 0.044472 0.033226
0.115804 0.045590 0.037027
0.222668 0.047360 0.048211
0.389703 0.048312 0.068454
0.589279 0.048078 0.096711
0.778885 0.047738 0.129197
0.920134 0.048403 0.160195
0.996919 0.049768 0.183234
1.000000 0.050583 0.192986
0.070139 0.051685 0.023734
0.107928 0.053055 0.026432
0.210689 0.055080 0.035365
0.376056 0.056445 0.054020
0.576499 0.056730 0.081456
0.769155 0.057084 0.113494
0.914344 0.058755 0.144080
0.994463 0.061122 0.166698
1.000000 0.062423 0.176233
0.062284 0.076971 0.006548
0.095116 0.078856 0.007139
0.188787 0.081516 0.011300
0.349048 0.083927 0.026259
0.549596 0.085903 0.051473
0.748231 0.088311 0.081646
0.901820 0.092657 0.110263
0.989111 0.097582 0.131143
1.000000 0.100098 0.139862
0.060073 0.135651 0.000000
0.090462 0.137696 0.000000
0.177093 0.141431 0.000000
0.327452 0.146110 0.004839
0.523394 0.151147 0.025874
0.726117 0.156822 0.051191
0.888120 0.165109 0.074650
0.983213 0.173650 0.091382
1.000000 0.177845 0.098262
0.063121 0.243328 0.000000
0.093436 0.245781 0.000000
0.177404 0.251419 0.000000
0.320021 0.259151 0.000000
0.509771 0.267400 0.014464
0.711840 0.276682 0.032823
0.878293 0.288913 0.048785
0.978887 0.300816 0.059379
1.000000 0.306520 0.063532
0.066509 0.398871 0.001709
0.096900 0.402237 0.000643
0.180112 0.410202 0.000000
0.320045 0.420930 0.002672
0.506307 0.432532 0.011631
0.705856 0.445312 0.023348
0.872999 0.460228 0.032700
0.976216 0.473805 0.037704
1.000000 0.480165 0.039282
0.067911 0.573623 0.011362
0.098260 0.577848 0.010076
0.181304 0.587817 0.007913
0.320617 0.601290 0.007487
0.505222 0.616176 0.010786
0.702543 0.631901 0.016549
0.869047 0.648080 0.021097
0.973587 0.661584 0.022676
1.000000 0.667710 0.022746
0.067753 0.717937 0.018436
0.097998 0.722713 0.016905
0.180847 0.733998 0.013726
0.319724 0.749393 0.010788
0.503174 0.766565 0.009928
0.698919 0.784098 0.011117
0.864913 0.800636 0.012301
0.970595 0.813432 0.012133
1.000000 0.819034 0.011625
0.067398 0.782405 0.021272
0.097575 0.787388 0.019625
0.180276 0.799181 0.016006
0.318866 0.815331 0.012026
0.501739 0.833381 0.009429
0.696802 0.851545 0.008627
0.862642 0.868107 0.008339
0.968946 0.880497 0.007520
1.000000 0.885823 0.006861
0.066666 0.049563 0.110114
0.103760 0.051727 0.116527
0.205078 0.054823 0.134521
0.368818 0.055532 0.165142
0.568944 0.053150 0.205858
0.762892 0.050478 0.251706
0.910450 0.050066 0.295015
0.992959 0.051464 0.326934
1.000000 0.052498 0.340369
0.061474 0.057174 0.090047
0.094061 0.059988 0.094846
0.188510 0.063149 0.109213
0.351135 0.064293 0.138346
0.552929 0.061627 0.178671
0.751435 0.059020 0.225617
0.904011 0.059693 0.270378
0.990227 0.062502 0.303268
1.000000 0.064258 0.317058
0.055111 0.082306 0.050728
0.078483 0.086208 0.052217
0.152067 0.087242 0.054293
0.314091 0.090559 0.082532
0.516945 0.088632 0.121730
0.726529 0.087248 0.170420
0.890480 0.091317 0.217055
0.984643 0.098006 0.250996
1.000000 0.101664 0.265106
0.055700 0.140019 0.017427
0.078525 0.141654 0.016084
0.145667 0.142653 0.014974
0.286211 0.146361 0.033449
0.480306 0.149140 0.071159
0.700702 0.150418 0.115572
0.876876 0.160137 0.158446
0.979495 0.172765 0.189693
1.000000 0.179192 0.202619
0.059697 0.249152 0.002911
0.085137 0.250055 0.001851
0.156329 0.252667 0.002721
0.284388 0.258193 0.015335
0.470336 0.262380 0.045939
0.687912 0.266594 0.082106
0.869890 0.281709 0.114165
0.977710 0.299838 0.136841
1.000000 0.308733 0.146098
0.062790 0.408801 0.000433
0.089336 0.410877 0.000000
0.163282 0.416317 0.000000
0.293206 0.423983 0.007750
0.478487 0.430872 0.029284
0.690076 0.439312 0.058928
0.870362 0.456555 0.082973
0.978602 0.476038 0.096580
1.000000 0.485500 0.101363
0.064352 0.587974 0.001447
0.091616 0.591284 0.000614
0.168018 0.599304 0.000000
0.301535 0.610204 0.003002
0.487359 0.621889 0.015276
0.693919 0.635303 0.035704
0.869909 0.652743 0.054056
0.977292 0.669756 0.063153
1.000000 0.677857 0.065529
0.064882 0.735325 0.002238
0.092623 0.739446 0.001286
0.170415 0.749311 0.000000
0.305378 0.762957 0.000000
0.490076 0.778426 0.005482
0.692340 0.795054 0.017242
0.864895 0.812281 0.029570
0.972737 0.826722 0.036510
1.000000 0.833269 0.038395
0.064965 0.800956 0.002449
0.092877 0.805388 0.001438
0.171081 0.815997 0.000000
0.306224 0.830788 0.000000
0.489937 0.847728 0.001500
0.690108 0.865458 0.009363
0.861285 0.882513 0.018545
0.969740 0.895871 0.024408
1.000000 0.901739 0.026238
0.062188 0.055125 0.243649
0.096072 0.058972 0.252923
0.190791 0.064763 0.278676
0.348690 0.065611 0.319619
0.547209 0.060209 0.370944
0.744720 0.054218 0.427656
0.898986 0.052269 0.481196
0.988134 0.053696 0.520739
1.000000 0.055027 0.537397
0.059041 0.062746 0.209168
0.088298 0.068057 0.215613
0.174733 0.076265 0.238695
0.330434 0.077463 0.278631
0.530181 0.069331 0.329177
0.733060 0.061825 0.388759
0.892722 0.060838 0.446469
0.985459 0.064207 0.489216
1.000000 0.066593 0.507181
0.057848 0.086490 0.138347
0.081751 0.092208 0.134495
0.141917 0.099379 0.143425
0.293742 0.108395 0.187725
0.491230 0.094739 0.233021
0.709058 0.085541 0.300793
0.880782 0.088832 0.368073
0.980681 0.098076 0.417537
1.000000 0.103385 0.438113
0.060518 0.142995 0.076725
0.086886 0.141238 0.069026
0.141940 0.139320 0.077994
0.265353 0.150563 0.100896
0.446007 0.147847 0.136280
0.686928 0.138135 0.204005
0.871421 0.151158 0.276321
0.978253 0.170419 0.329466
1.000000 0.180264 0.351317
0.060674 0.255169 0.044489
0.084187 0.252775 0.041960
0.145169 0.250480 0.043664
0.251800 0.254539 0.054551
0.427416 0.254895 0.098855
0.671142 0.244942 0.153632
0.870484 0.267390 0.207354
0.982128 0.296797 0.250521
1.000000 0.310899 0.268482
0.060017 0.421119 0.026370
0.082505 0.420853 0.025541
0.145462 0.422451 0.025457
0.261865 0.426896 0.031743
0.447530 0.427281 0.062414
0.681476 0.425449 0.120212
0.882396 0.446998 0.165527
0.990774 0.478173 0.189872
1.000000 0.492896 0.199205
0.060358 0.606845 0.012314
0.083486 0.608760 0.012314
0.150759 0.614258 0.012590
0.276559 0.622652 0.016087
0.467171 0.630902 0.033785
0.692570 0.640935 0.074615
0.885198 0.660178 0.116845
0.990844 0.682958 0.135486
1.000000 0.694044 0.139827
0.061388 0.758645 0.001401
0.085537 0.761965 0.001803
0.155995 0.770387 0.002810
0.285449 0.782840 0.005971
0.473486 0.797505 0.017052
0.688534 0.813906 0.041262
0.872323 0.832407 0.070022
0.980499 0.849150 0.087010
1.000000 0.856822 0.091642
0.061985 0.825962 0.000000
0.086601 0.829806 0.000000
0.158193 0.839396 0.000000
0.288299 0.853549 0.001832
0.473965 0.870544 0.010820
0.683420 0.888902 0.028395
0.863429 0.907106 0.049649
0.973660 0.921693 0.064391
1.000000 0.928056 0.069376
0.062944 0.058893 0.431945
0.094425 0.063804 0.442863
0.183016 0.071756 0.472821
0.333768 0.073344 0.517800
0.528764 0.066203 0.570455
0.727980 0.057868 0.626759
0.887782 0.054858 0.680104
0.983211 0.056501 0.720014
1.000000 0.058181 0.736959
0.060827 0.066815 0.388005
0.088521 0.073265 0.395026
0.168750 0.085912 0.424031
0.315883 0.088696 0.470292
0.512598 0.077036 0.522000
0.717442 0.065228 0.580735
0.882284 0.062676 0.639564
0.980778 0.066634 0.684527
1.000000 0.069661 0.703690
0.060447 0.090961 0.294352
0.084120 0.096210 0.283406
0.138831 0.120604 0.307124
0.278307 0.129591 0.359615
0.478387 0.106141 0.404723
0.698909 0.086431 0.469574
0.873882 0.087672 0.543399
0.977425 0.099150 0.601133
1.000000 0.106064 0.625561
0.061669 0.148409 0.205256
0.086950 0.144800 0.184415
0.153071 0.139076 0.154736
0.245122 0.180171 0.223714
0.443917 0.158588 0.253656
0.692869 0.129537 0.321607
0.873036 0.143820 0.418383
0.978919 0.169292 0.492439
1.000000 0.182565 0.522656
0.059090 0.263410 0.148938
0.081368 0.256466 0.141729
0.142395 0.245358 0.134494
0.237191 0.257360 0.144765
0.437562 0.247804 0.159019
0.687868 0.235735 0.212548
0.881662 0.256458 0.310435
0.989830 0.295358 0.388147
1.000000 0.314826 0.418481
0.056005 0.435421 0.107779
0.074357 0.431703 0.108035
0.126791 0.427604 0.108602
0.230876 0.431451 0.102592
0.429704 0.427996 0.106086
0.690485 0.421838 0.184027
0.915075 0.440536 0.259150
1.000000 0.483419 0.307614
1.000000 0.503814 0.326669
0.055978 0.627935 0.070700
0.074400 0.628196 0.073693
0.130905 0.631397 0.078581
0.246488 0.640203 0.078624
0.445300 0.649749 0.081237
0.703958 0.659294 0.126898
0.923809 0.676974 0.209893
1.000000 0.704589 0.239555
1.000000 0.717823 0.245455
0.057996 0.784390 0.041357
0.077908 0.787088 0.045320
0.139278 0.795075 0.053315
0.260677 0.809102 0.061376
0.451546 0.827022 0.072093
0.685796 0.845861 0.098471
0.887447 0.865225 0.141924
0.991287 0.883586 0.170446
1.000000 0.891023 0.177343
0.059290 0.853447 0.028357
0.079985 0.856986 0.032624
0.143330 0.866653 0.041995
0.266092 0.882602 0.053757
0.452490 0.903036 0.068498
0.673942 0.924613 0.090289
0.866773 0.944530 0.117800
0.978199 0.959411 0.138550
1.000000 0.964963 0.145666
0.066047 0.060231 0.648678
0.095816 0.064750 0.659280
0.179636 0.072281 0.686741
0.323636 0.074321 0.725474
0.513998 0.068038 0.767622
0.713205 0.060272 0.810483
0.877199 0.057862 0.851129
0.978246 0.060242 0.882117
1.000000 0.062336 0.895433
0.062674 0.069675 0.607230
0.089146 0.075418 0.616256
0.166020 0.086547 0.644423
0.305679 0.090119 0.685399
0.497825 0.079936 0.726432
0.702793 0.068189 0.769425
0.871749 0.065895 0.814335
0.975680 0.070683 0.850454
1.000000 0.074249 0.866231
0.057347 0.098184 0.515597
0.077307 0.104246 0.518265
0.136529 0.123636 0.546936
0.263897 0.135210 0.596994
0.462276 0.113859 0.629078
0.684909 0.090661 0.667271
0.864474 0.090937 0.723721
0.972718 0.103725 0.773557
1.000000 0.111611 0.795491
0.053360 0.160258 0.412859
0.069275 0.158804 0.407314
0.111307 0.171280 0.421530
0.212148 0.215300 0.505266
0.422658 0.174549 0.500003
0.682953 0.131335 0.514326
0.869164 0.145028 0.595396
0.976574 0.174282 0.667290
1.000000 0.189592 0.697396
0.050270 0.278052 0.327667
0.064590 0.268393 0.326701
0.108597 0.248870 0.332220
0.213091 0.269265 0.340263
0.387501 0.265662 0.367329
0.715196 0.207760 0.335498
0.889082 0.252646 0.463772
0.991174 0.301691 0.555644
1.000000 0.324837 0.590492
0.049126 0.453862 0.255088
0.062008 0.447065 0.262999
0.103372 0.435690 0.283292
0.188753 0.441570 0.294521
0.377665 0.452732 0.263715
0.697468 0.443706 0.275666
0.909461 0.445923 0.364347
1.000000 0.495216 0.454545
1.000000 0.520603 0.485823
0.051473 0.650794 0.187601
0.065190 0.649776 0.198607
0.110802 0.651948 0.222596
0.211731 0.666857 0.239334
0.401720 0.689799 0.223749
0.697864 0.706103 0.204936
0.965701 0.704026 0.279149
1.000000 0.731697 0.363210
1.000000 0.747762 0.385336
0.055484 0.810294 0.134384
0.071231 0.812767 0.145742
0.123097 0.821736 0.170909
0.232970 0.841054 0.197998
0.415965 0.868678 0.216093
0.661278 0.894733 0.228223
0.894851 0.911735 0.252854
0.993507 0.930722 0.291222
1.000000 0.931833 0.303303
0.057695 0.880455 0.110902
0.074509 0.884057 0.122258
0.129161 0.895006 0.148302
0.242044 0.915357 0.180857
0.423371 0.943231 0.211561
0.652937 0.971492 0.235578
0.862757 0.993109 0.252733
0.977177 1.000000 0.263986
1.000000 1.000000 0.267678
0.070011 0.059687 0.844453
0.098648 0.062832 0.852264
0.179129 0.068089 0.871208
0.317730 0.069772 0.895958
0.503255 0.065878 0.920482
0.701112 0.061265 0.943485
0.867869 0.061177 0.964945
0.973529 0.064834 0.981518
1.000000 0.067382 0.988691
0.065462 0.070969 0.812598
0.091342 0.074565 0.820688
0.166171 0.081189 0.841729
0.300512 0.083413 0.869307
0.486933 0.077192 0.894034
0.689737 0.070099 0.916839
0.861421 0.070506 0.940876
0.970257 0.076481 0.961214
1.000000 0.080428 0.970341
0.056285 0.104911 0.737805
0.075876 0.108134 0.746008
0.136692 0.116786 0.772190
0.259579 0.122096 0.809028
0.449803 0.110458 0.832468
0.668003 0.096667 0.850927
0.851513 0.099710 0.880475
0.965856 0.112827 0.909943
1.000000 0.120718 0.923628
0.047397 0.174742 0.639888
0.060013 0.173173 0.647918
0.102551 0.176086 0.678042
0.205253 0.189396 0.733857
0.403043 0.174240 0.755740
0.655047 0.150178 0.757926
0.853694 0.162266 0.794783
0.969083 0.188997 0.836251
1.000000 0.203319 0.855031
0.042681 0.298174 0.537920
0.051358 0.290244 0.550150
0.082614 0.275063 0.585902
0.161360 0.277633 0.645045
0.354482 0.278409 0.687622
0.671514 0.252812 0.668654
0.880961 0.281697 0.710574
0.986125 0.323835 0.756090
1.000000 0.344382 0.775464
0.043520 0.476250 0.436786
0.051962 0.469572 0.456516
0.084316 0.457112 0.511608
0.162414 0.456325 0.605095
0.328064 0.461460 0.641592
0.719975 0.472979 0.627210
0.922818 0.486384 0.648750
1.000000 0.524140 0.674291
1.000000 0.545674 0.688560
0.048652 0.674065 0.339305
0.058918 0.672839 0.361408
0.097205 0.675164 0.416813
0.189699 0.694927 0.489020
0.362626 0.737844 0.533080
0.568959 0.766827 0.550662
0.946927 0.745804 0.529349
1.000000 0.762769 0.569619
1.000000 0.776413 0.589878
0.054672 0.833927 0.262417
0.067338 0.836412 0.283813
0.112255 0.846402 0.335496
0.213000 0.870407 0.404291
0.383308 0.908861 0.470087
0.612953 0.948884 0.511536
0.887587 0.974251 0.498696
0.990398 0.977508 0.499142
1.000000 0.957959 0.498654
0.057699 0.904159 0.228553
0.071566 0.907873 0.249417
0.119560 0.919952 0.300018
0.224318 0.944145 0.370167
0.399210 0.979257 0.443968
0.631184 1.000000 0.499187
0.856842 1.000000 0.510607
0.972995 1.000000 0.480474
1.000000 1.000000 0.464213
0.073660 0.058567 0.974928
0.101643 0.060396 0.978833
0.180101 0.063402 0.987615
0.315148 0.064453 0.997663
0.496908 0.062778 1.000000
0.693058 0.061612 1.000000
0.861209 0.064142 1.000000
0.969954 0.069083 1.000000
1.000000 0.072012 1.000000
0.068819 0.071303 0.953608
0.094481 0.072995 0.958632
0.168182 0.075816 0.970305
0.299257 0.076337 0.983751
0.480939 0.073381 0.993680
0.680776 0.071453 1.000000
0.853536 0.075124 1.000000
0.965788 0.082251 1.000000
1.000000 0.086422 1.000000
0.058444 0.109705 0.898139
0.078658 0.110396 0.906002
0.140853 0.111867 0.925523
0.262152 0.111264 0.949145
0.444777 0.105851 0.964657
0.655634 0.102690 0.972824
0.839860 0.109994 0.982414
0.959071 0.123024 0.992734
1.000000 0.130380 0.997830
0.047514 0.186770 0.813152
0.061022 0.184561 0.825579
0.108027 0.181235 0.857805
0.215046 0.178670 0.900594
0.401153 0.172614 0.929469
0.633832 0.170804 0.939795
0.834956 0.185456 0.950045
0.959246 0.207298 0.961866
1.000000 0.218950 0.967742
0.041300 0.316373 0.707822
0.049846 0.310989 0.727300
0.084493 0.300827 0.778094
0.176276 0.294117 0.850071
0.365828 0.293548 0.909171
0.633661 0.302550 0.930202
0.854422 0.325942 0.932264
0.974892 0.353216 0.932279
1.000000 0.367059 0.932555
0.042204 0.496192 0.590177
0.049497 0.491546 0.617141
0.081218 0.483725 0.688165
0.167874 0.482971 0.795771
0.356126 0.497534 0.906686
0.656877 0.527728 0.970655
0.897706 0.548083 0.949294
1.000000 0.563571 0.911234
1.000000 0.572263 0.896211
0.048385 0.692950 0.472352
0.057290 0.692206 0.502443
0.093782 0.694825 0.579716
0.187455 0.710994 0.695684
0.369136 0.747596 0.832174
0.641024 0.795587 0.971160
0.913750 0.815723 0.985017
1.000000 0.803443 0.888038
1.000000 0.794879 0.854389
0.055366 0.851499 0.378811
0.066550 0.853934 0.408628
0.108778 0.863694 0.483823
0.208419 0.887293 0.595880
0.384264 0.927068 0.728931
0.628009 0.975301 0.857919
0.895420 1.000000 0.930965
0.998414 0.983362 0.865119
1.000000 0.952927 0.803288
0.058797 0.921151 0.337546
0.071127 0.924749 0.366810
0.116085 0.936709 0.440403
0.218683 0.961232 0.550300
0.395183 0.997534 0.680330
0.632228 1.000000 0.800697
0.862117 1.000000 0.864153
0.974164 1.000000 0.829300
0.998715 1.000000 0.778576
0.075401 0.057986 1.000000
0.103144 0.059233 1.000000
0.180835 0.061241 1.000000
0.314470 0.061978 1.000000
0.494610 0.061287 1.000000
0.689884 0.061756 1.000000
0.858464 0.065565 1.000000
0.968426 0.071122 1.000000
1.000000 0.074222 1.000000
0.070609 0.071367 1.000000
0.096220 0.072268 1.000000
0.169529 0.073553 1.000000
0.299338 0.073352 1.000000
0.478955 0.071737 1.000000
0.677253 0.072157 1.000000
0.850195 0.077418 1.000000
0.963793 0.085093 1.000000
1.000000 0.089347 1.000000
0.060172 0.111756 0.963212
0.080782 0.111465 0.970034
0.143695 0.110461 0.985620
0.264497 0.107962 1.000000
0.443821 0.104729 1.000000
0.650870 0.105848 1.000000
0.834620 0.115219 1.000000
0.955770 0.128211 1.000000
1.000000 0.135249 1.000000
0.048866 0.192112 0.886030
0.063224 0.189598 0.898962
0.112733 0.184460 0.930117
0.221812 0.178991 0.969069
0.403015 0.175817 0.998447
0.626147 0.180723 1.000000
0.825629 0.196934 1.000000
0.953744 0.216706 1.000000
1.000000 0.226968 1.000000
0.042107 0.324679 0.781541
0.051483 0.320281 0.802654
0.089824 0.311814 0.855370
0.188600 0.305639 0.927504
0.374237 0.308042 0.992146
0.619809 0.322541 1.000000
0.837023 0.345609 1.000000
0.966308 0.367839 1.000000
1.000000 0.378554 1.000000
0.042690 0.505357 0.658503
0.050326 0.501779 0.687454
0.084765 0.496338 0.761441
0.179773 0.497777 0.870317
0.368828 0.514227 0.985909
0.632426 0.543373 1.000000
0.865769 0.568131 1.000000
0.990522 0.580527 1.000000
1.000000 0.584527 1.000000
0.048912 0.701367 0.532988
0.057716 0.700936 0.565919
0.095067 0.703785 0.650373
0.192605 0.718388 0.779142
0.378664 0.750762 0.932819
0.639206 0.793109 1.000000
0.884496 0.818046 1.000000
1.000000 0.810161 1.000000
1.000000 0.799571 1.000000
0.056057 0.858999 0.432923
0.066887 0.861361 0.466309
0.108869 0.870661 0.551545
0.210045 0.892800 0.682296
0.391029 0.929743 0.843261
0.638076 0.971897 1.000000
0.879498 0.992106 1.000000
0.998374 0.967479 1.000000
1.000000 0.947617 1.000000
0.059575 0.928250 0.388718
0.071461 0.931707 0.421751
0.115794 0.943212 0.505891
0.218919 0.966777 0.634756
0.398234 1.000000 0.792916
0.637079 1.000000 0.948511
0.862837 1.000000 1.000000
0.979018 1.000000 1.000000
1.000000 0.999635 1.000000
