luts/silbersalz-250d_v1-paired_33.cube
TITLE "silbersalz-250d_v1-paired_33"
# Generated by saltgate on 2026-08-25
# Input:  Silbersalz flat-scan code values [0,1] (Display P3 tagged)
# Output: graded display code values (Display P3)
# pairs: 6
LUT_3D_SIZE 5
DOMAIN_MIN 0.0 0.0 0.0
DOMAIN_MAX 1.0 1.0 1.0
0.005056 0.011943 0.005038
0.025207 0.012218 0.004726
0.175645 0.015271 0.003808
0.641303 0.018705 0.004618
0.996778 0.019957 0.007061
0.006412 0.056797 0.007510
0.041776 0.039525 0.007755
0.223099 0.022260 0.003717
0.720046 0.014142 0.000803
1.000000 0.009798 0.000000
0.007427 0.397745 0.009557
0.063373 0.317260 0.008654
0.305526 0.212086 0.006922
0.823897 0.136894 0.005877
1.000000 0.096096 0.002086
0.013009 0.936084 0.012618
0.096190 0.883436 0.011348
0.416177 0.781294 0.008986
0.910371 0.657493 0.007121
1.000000 0.568407 0.004466
0.021608 1.000000 0.014415
0.124264 1.000000 0.013210
0.497364 1.000000 0.009728
0.956480 1.000000 0.005405
1.000000 0.989653 0.002619
0.005004 0.010871 0.031136
0.011835 0.007528 0.038474
0.136487 0.014482 0.058491
0.556622 0.019242 0.081376
0.952322 0.019981 0.098478
0.006792 0.051442 0.017597
0.016204 0.022347 0.014146
0.181507 0.024345 0.035291
0.636759 0.019942 0.053292
0.987637 0.013366 0.062420
0.005180 0.377625 0.004699
0.044412 0.283387 0.005797
0.205898 0.158854 0.019538
0.726649 0.127048 0.069049
1.000000 0.102808 0.068293
0.007512 0.925760 0.003254
0.071259 0.862678 0.002952
0.319955 0.735990 0.010046
0.826116 0.618991 0.043326
1.000000 0.548374 0.048511
0.012794 1.000000 0.004867
0.095427 1.000000 0.003014
0.411198 1.000000 0.001291
0.902939 1.000000 0.006774
1.000000 0.979133 0.004550
0.007297 0.012225 0.266129
0.006834 0.012591 0.310137
0.089930 0.017722 0.385075
0.434897 0.020301 0.467621
0.854566 0.020470 0.524380
0.006472 0.046693 0.177261
0.014866 0.035921 0.210582
0.136836 0.037263 0.260309
0.523992 0.026304 0.336603
0.920433 0.015801 0.388760
0.005465 0.348162 0.080091
0.032077 0.244830 0.108285
0.156088 0.144665 0.122787
0.664104 0.136606 0.204885
0.979660 0.109029 0.272046
0.005197 0.908217 0.025350
0.047280 0.830409 0.040490
0.211503 0.664380 0.067444
0.703388 0.582761 0.199272
1.000000 0.536515 0.189565
0.006549 1.000000 0.002930
0.061269 1.000000 0.008003
0.299347 1.000000 0.026126
0.822086 0.999511 0.080869
1.000000 0.973004 0.077144
0.010498 0.012961 0.834339
0.005311 0.013935 0.872182
0.054203 0.017662 0.920662
0.323582 0.020548 0.958039
0.710430 0.021606 0.978065
0.009493 0.040661 0.706123
0.006979 0.028365 0.754260
0.076957 0.023805 0.817818
0.397913 0.015097 0.875891
0.806794 0.009500 0.911924
0.007622 0.322438 0.492297
0.009648 0.242945 0.545700
0.074890 0.167720 0.612956
0.483426 0.083662 0.648367
0.916410 0.063419 0.733202
0.005946 0.889785 0.294729
0.025518 0.815781 0.346559
0.160878 0.689444 0.471362
0.613380 0.570048 0.420823
1.000000 0.523179 0.459543
0.005569 1.000000 0.184244
0.037039 1.000000 0.222002
0.231488 1.000000 0.319858
0.808873 1.000000 0.471846
1.000000 1.000000 0.443309
0.011855 0.013007 1.000000
0.004660 0.013840 1.000000
0.035214 0.017267 1.000000
0.257793 0.020932 1.000000
0.600567 0.022583 1.000000
0.011083 0.036672 1.000000
0.005385 0.024453 1.000000
0.052122 0.014866 1.000000
0.321010 0.010153 1.000000
0.708048 0.008078 1.000000
0.008827 0.306074 0.934029
0.004558 0.238072 0.964440
0.064726 0.152328 1.000000
0.405609 0.089889 1.000000
0.840634 0.059467 1.000000
0.006295 0.876861 0.733126
0.012649 0.806812 0.798004
0.119365 0.688788 0.918439
0.555298 0.622641 1.000000
0.945971 0.546771 0.991324
0.005370 1.000000 0.531858
0.023160 1.000000 0.614798
0.189273 1.000000 0.774679
0.752224 1.000000 0.994040
0.993237 0.992659 1.000000
