luts/silbersalz-250d_v1-paired_33.cube
TITLE "silbersalz-250d_v1-paired_33"
# Generated by saltgate on 2026-08-25
# Input:  Silbersalz flat-scan code values [0,1] (Display P3 tagged)
# Output: graded display code values (Display P3)
# pairs: 6
LUT_3D_SIZE 33
DOMAIN_MIN 0.0 0.0 0.0
DOMAIN_MAX 1.0 1.0 1.0
0.005056 0.011943 0.005038
0.005234 0.011924 0.005055
0.005662 0.011893 0.005081
0.006483 0.011863 0.005103
0.007904 0.011851 0.005105
0.010187 0.011872 0.005072
0.013628 0.011936 0.004996
0.018538 0.012051 0.004877
0.025207 0.012218 0.004726
0.033881 0.012439 0.004559
0.044763 0.012711 0.004394
0.058045 0.013035 0.004243
0.074036 0.013408 0.004113
0.093177 0.013826 0.004007
0.116045 0.014283 0.003923
0.143302 0.014768 0.003856
0.175645 0.015271 0.003808
0.213723 0.015778 0.003778
0.258034 0.016278 0.003773
0.308848 0.016760 0.003797
0.366097 0.017217 0.003860
0.429292 0.017642 0.003969
0.497407 0.018033 0.004129
0.568807 0.018388 0.004346
0.641303 0.018705 0.004618
0.712334 0.018986 0.004940
0.779231 0.019230 0.005301
0.839603 0.019439 0.005684
0.891517 0.019612 0.006066
0.933608 0.019750 0.006423
0.965251 0.019854 0.006724
0.986292 0.019922 0.006944
0.996778 0.019957 0.007061
0.005098 0.012360 0.005125
0.005287 0.012325 0.005145
0.005741 0.012266 0.005178
0.006602 0.012198 0.005208
0.008081 0.012142 0.005217
0.010439 0.012116 0.005187
0.013977 0.012133 0.005109
0.019002 0.012201 0.004982
0.025797 0.012322 0.004816
0.034596 0.012494 0.004630
0.045596 0.012716 0.004443
0.058989 0.012989 0.004271
0.075094 0.013312 0.004122
0.094364 0.013684 0.003997
0.117386 0.014100 0.003894
0.144826 0.014549 0.003810
0.177381 0.015021 0.003742
0.215696 0.015501 0.003694
0.260262 0.015978 0.003668
0.311334 0.016439 0.003672
0.368831 0.016877 0.003713
0.432243 0.017285 0.003799
0.500511 0.017659 0.003936
0.571977 0.017998 0.004129
0.644428 0.018300 0.004376
0.715274 0.018567 0.004674
0.781893 0.018798 0.005010
0.841918 0.018994 0.005370
0.893459 0.019157 0.005731
0.935198 0.019286 0.006069
0.966556 0.019382 0.006356
0.987400 0.019447 0.006565
0.997785 0.019479 0.006676
0.005180 0.013344 0.005297
0.005395 0.013278 0.005325
0.005898 0.013159 0.005371
0.006838 0.013010 0.005417
0.008429 0.012860 0.005441
0.010938 0.012735 0.005420
0.014663 0.012653 0.005339
0.019910 0.012622 0.005196
0.026946 0.012644 0.005003
0.035986 0.012714 0.004780
0.047210 0.012830 0.004553
0.060816 0.012996 0.004341
0.077143 0.013215 0.004153
0.096664 0.013489 0.003992
0.119982 0.013816 0.003853
0.147774 0.014189 0.003733
0.180738 0.014593 0.003630
0.219510 0.015016 0.003544
0.264566 0.015441 0.003480
0.316129 0.015857 0.003444
0.374095 0.016253 0.003444
0.437910 0.016622 0.003487
0.506459 0.016959 0.003580
0.578023 0.017262 0.003726
0.650360 0.017531 0.003926
0.720868 0.017766 0.004176
0.786956 0.017968 0.004466
0.846321 0.018138 0.004781
0.897154 0.018277 0.005101
0.938233 0.018387 0.005403
0.969054 0.018468 0.005661
0.989523 0.018522 0.005850
0.999717 0.018549 0.005950
0.005305 0.015198 0.005552
0.005555 0.015080 0.005591
0.006132 0.014864 0.005657
0.007188 0.014582 0.005727
0.008943 0.014278 0.005774
0.011669 0.013990 0.005769
0.015666 0.013745 0.005688
0.021230 0.013554 0.005526
0.028608 0.013415 0.005295
0.037986 0.013319 0.005023
0.049521 0.013263 0.004740
0.063429 0.013253 0.004471
0.080071 0.013301 0.004229
0.099948 0.013415 0.004015
0.123687 0.013598 0.003826
0.151982 0.013842 0.003656
0.185530 0.014136 0.003503
0.224950 0.014460 0.003365
0.270700 0.014798 0.003248
0.322958 0.015135 0.003157
0.381577 0.015458 0.003100
0.445941 0.015758 0.003083
0.514854 0.016031 0.003113
0.586526 0.016273 0.003195
0.658672 0.016484 0.003328
0.728684 0.016665 0.003511
0.794021 0.016816 0.003735
0.852469 0.016940 0.003986
0.902315 0.017039 0.004249
0.942479 0.017116 0.004500
0.972553 0.017171 0.004717
0.992500 0.017206 0.004877
1.000000 0.017224 0.004962
0.005469 0.018367 0.005880
0.005767 0.018173 0.005932
0.006440 0.017813 0.006024
0.007647 0.017336 0.006127
0.009613 0.016803 0.006206
0.012616 0.016271 0.006223
0.016958 0.015783 0.006148
0.022920 0.015354 0.005967
0.030722 0.014977 0.005695
0.040512 0.014635 0.005365
0.052427 0.014323 0.005015
0.066704 0.014054 0.004677
0.083733 0.013849 0.004369
0.104053 0.013727 0.004092
0.128321 0.013695 0.003842
0.157245 0.013749 0.003612
0.191525 0.013872 0.003398
0.231759 0.014046 0.003199
0.278370 0.014249 0.003019
0.331491 0.014461 0.002862
0.390910 0.014668 0.002737
0.455924 0.014860 0.002648
0.525251 0.015030 0.002603
0.597016 0.015175 0.002606
0.668888 0.015295 0.002658
0.738259 0.015389 0.002758
0.802660 0.015461 0.002900
0.859978 0.015514 0.003074
0.908606 0.015550 0.003264
0.947651 0.015573 0.003452
0.976813 0.015587 0.003618
0.996122 0.015594 0.003742
1.000000 0.015597 0.003809
0.005672 0.023426 0.006264
0.006027 0.023128 0.006332
0.006818 0.022570 0.006452
0.008207 0.021823 0.006592
0.010425 0.020970 0.006709
0.013757 0.020096 0.006756
0.018502 0.019262 0.006692
0.024926 0.018493 0.006498
0.033208 0.017777 0.006187
0.043461 0.017087 0.005797
0.055800 0.016416 0.005377
0.070492 0.015785 0.004966
0.087963 0.015229 0.004586
0.108800 0.014778 0.004240
0.133685 0.014447 0.003924
0.163350 0.014231 0.003628
0.198486 0.014112 0.003349
0.239671 0.014068 0.003085
0.287280 0.014070 0.002838
0.341393 0.014097 0.002613
0.401718 0.014132 0.002414
0.467455 0.014161 0.002249
0.537215 0.014177 0.002121
0.609045 0.014177 0.002037
0.680540 0.014159 0.001998
0.749134 0.014125 0.002005
0.812429 0.014079 0.002054
0.868428 0.014024 0.002138
0.915670 0.013965 0.002245
0.953447 0.013909 0.002361
0.981578 0.013861 0.002468
1.000000 0.013826 0.002551
1.000000 0.013808 0.002596
0.005906 0.031049 0.006682
0.006329 0.030615 0.006765
0.007258 0.029803 0.006913
0.008858 0.028703 0.007089
0.011363 0.027429 0.007244
0.015061 0.026095 0.007322
0.020247 0.024790 0.007274
0.027168 0.023552 0.007073
0.035962 0.022366 0.006732
0.046701 0.021197 0.006290
0.059493 0.020039 0.005806
0.074633 0.018924 0.005325
0.092595 0.017902 0.004874
0.114008 0.017015 0.004462
0.139591 0.016282 0.004081
0.170088 0.015701 0.003723
0.206187 0.015251 0.003382
0.248435 0.014902 0.003056
0.297151 0.014623 0.002746
0.352353 0.014387 0.002455
0.413660 0.014175 0.002187
0.480156 0.013971 0.001945
0.550343 0.013767 0.001735
0.622173 0.013558 0.001561
0.693190 0.013343 0.001426
0.760873 0.013125 0.001334
0.822907 0.012908 0.001283
0.877441 0.012699 0.001270
0.923179 0.012505 0.001287
0.959585 0.012336 0.001323
0.986601 0.012199 0.001367
1.000000 0.012103 0.001405
1.000000 0.012053 0.001426
0.006159 0.041952 0.007106
0.006659 0.041353 0.007201
0.007745 0.040232 0.007371
0.009580 0.038701 0.007576
0.012401 0.036903 0.007762
0.016490 0.034985 0.007867
0.022133 0.033066 0.007835
0.029556 0.031202 0.007635
0.038860 0.029382 0.007274
0.050083 0.027573 0.006796
0.063343 0.025776 0.006259
0.078965 0.024036 0.005720
0.097467 0.022418 0.005211
0.119519 0.020973 0.004742
0.145874 0.019723 0.004307
0.177288 0.018666 0.003897
0.214439 0.017776 0.003506
0.257840 0.017018 0.003130
0.307746 0.016356 0.002769
0.364105 0.015761 0.002424
0.426434 0.015210 0.002096
0.493695 0.014685 0.001787
0.564268 0.014177 0.001500
0.636021 0.013679 0.001240
0.706462 0.013192 0.001011
0.773108 0.012719 0.000819
0.833761 0.012267 0.000665
0.886710 0.011844 0.000552
0.930853 0.011462 0.000474
0.965818 0.011135 0.000427
0.991665 0.010874 0.000403
1.000000 0.010693 0.000393
1.000000 0.010600 0.000390
0.006412 0.056797 0.007510
0.006997 0.056020 0.007612
0.008253 0.054552 0.007793
0.010341 0.052529 0.008015
0.013495 0.050123 0.008218
0.017988 0.047508 0.008339
0.024086 0.044828 0.008318
0.031989 0.042165 0.008122
0.041776 0.039525 0.007755
0.053468 0.036891 0.007256
0.067207 0.034285 0.006687
0.083350 0.031769 0.006109
0.102448 0.029414 0.005560
0.125209 0.027275 0.005052
0.152410 0.025377 0.004582
0.184820 0.023715 0.004139
0.223099 0.022260 0.003717
0.267724 0.020970 0.003311
0.318883 0.019807 0.002919
0.376441 0.018738 0.002539
0.439802 0.017738 0.002169
0.507804 0.016787 0.001807
0.578705 0.015874 0.001456
0.650291 0.014992 0.001119
0.720046 0.014142 0.000803
0.785550 0.013328 0.000514
0.844722 0.012560 0.000261
0.895991 0.011850 0.000046
0.938472 0.011215 0.000000
0.971947 0.010674 0.000000
0.996592 0.010246 0.000000
1.000000 0.009950 0.000000
1.000000 0.009798 0.000000
0.006645 0.076249 0.007874
0.007318 0.075274 0.007975
0.008749 0.073421 0.008157
0.011098 0.070849 0.008378
0.014590 0.067755 0.008581
0.019483 0.064336 0.008703
0.026020 0.060760 0.008685
0.034371 0.057131 0.008493
0.044607 0.053491 0.008126
0.056757 0.049858 0.007623
0.070996 0.046279 0.007044
0.087706 0.042830 0.006451
0.107468 0.039591 0.005886
0.131010 0.036613 0.005364
0.159133 0.033923 0.004882
0.192611 0.031514 0.004431
0.232083 0.029353 0.004002
0.277982 0.027394 0.003592
0.330434 0.025595 0.003195
0.389208 0.023922 0.002805
0.453589 0.022348 0.002415
0.522286 0.020852 0.002022
0.593440 0.019418 0.001624
0.664757 0.018040 0.001225
0.733719 0.016720 0.000832
0.797979 0.015465 0.000457
0.855578 0.014285 0.000109
0.905095 0.013200 0.000000
0.945864 0.012233 0.000000
0.977821 0.011412 0.000000
1.000000 0.010765 0.000000
1.000000 0.010316 0.000000
1.000000 0.010086 0.000000
0.006837 0.101024 0.008186
0.007598 0.099826 0.008280
0.009203 0.097540 0.008449
0.011808 0.094349 0.008653
0.015629 0.090471 0.008839
0.020907 0.086129 0.008946
0.027861 0.081514 0.008919
0.036638 0.076763 0.008726
0.047309 0.071959 0.008367
0.059924 0.067165 0.007874
0.074694 0.062457 0.007306
0.092024 0.057928 0.006723
0.112518 0.053656 0.006168
0.136917 0.049697 0.005658
0.166034 0.046070 0.005189
0.200643 0.042765 0.004754
0.241363 0.039751 0.004346
0.288574 0.036977 0.003959
0.342338 0.034398 0.003584
0.402323 0.031982 0.003211
0.467687 0.029701 0.002829
0.537016 0.027529 0.002428
0.608336 0.025448 0.002004
0.679262 0.023451 0.001562
0.747316 0.021542 0.001109
0.810226 0.019731 0.000660
0.866164 0.018034 0.000228
0.913880 0.016474 0.000000
0.952909 0.015085 0.000000
0.983334 0.013906 0.000000
1.000000 0.012976 0.000000
1.000000 0.012332 0.000000
1.000000 0.012002 0.000000
0.006979 0.131894 0.008448
0.007825 0.130441 0.008530
0.009599 0.127661 0.008675
0.012450 0.123762 0.008849
0.016586 0.118989 0.009001
0.022231 0.113594 0.009078
0.029587 0.107797 0.009032
0.038783 0.101772 0.008835
0.049893 0.095651 0.008486
0.062996 0.089539 0.008017
0.078338 0.083545 0.007478
0.096346 0.077776 0.006928
0.117640 0.072317 0.006405
0.142971 0.067219 0.005927
0.173153 0.062504 0.005494
0.208952 0.058156 0.005099
0.250961 0.054141 0.004735
0.299504 0.050408 0.004395
0.354576 0.046914 0.004068
0.415745 0.043622 0.003738
0.482037 0.040499 0.003388
0.551904 0.037520 0.003003
0.623272 0.034661 0.002578
0.693698 0.031916 0.002113
0.760728 0.029294 0.001619
0.822182 0.026807 0.001112
0.876380 0.024476 0.000611
0.922258 0.022331 0.000135
0.959533 0.020420 0.000000
0.988424 0.018798 0.000000
1.000000 0.017518 0.000000
1.000000 0.016629 0.000000
1.000000 0.016172 0.000000
0.007074 0.169631 0.008671
0.008003 0.167886 0.008737
0.009938 0.164543 0.008852
0.013028 0.159840 0.008985
0.017468 0.154056 0.009093
0.023472 0.147478 0.009131
0.031225 0.140363 0.009059
0.040847 0.132925 0.008854
0.052413 0.125343 0.008519
0.066040 0.117763 0.008081
0.082000 0.110325 0.007586
0.100745 0.103151 0.007083
0.122905 0.096332 0.006609
0.149239 0.089924 0.006180
0.180555 0.083946 0.005798
0.217595 0.078387 0.005458
0.260926 0.073211 0.005156
0.310812 0.068371 0.004882
0.367177 0.063821 0.004622
0.429481 0.059520 0.004355
0.496621 0.055429 0.004058
0.566917 0.051515 0.003712
0.638205 0.047757 0.003306
0.708003 0.044147 0.002840
0.773891 0.040692 0.002325
0.833799 0.037410 0.001780
0.886186 0.034328 0.001226
0.930192 0.031489 0.000689
0.965704 0.028955 0.000193
0.993066 0.026801 0.000000
1.000000 0.025098 0.000000
1.000000 0.023913 0.000000
1.000000 0.023302 0.000000
0.007138 0.214899 0.008874
0.008148 0.212828 0.008922
0.010243 0.208860 0.009004
0.013568 0.203265 0.009092
0.018312 0.196370 0.009152
0.024677 0.188498 0.009147
0.032834 0.179949 0.009046
0.042898 0.170982 0.008833
0.054947 0.161814 0.008512
0.069136 0.152634 0.008109
0.085762 0.143605 0.007663
0.105302 0.134864 0.007215
0.128395 0.126513 0.006798
0.155800 0.118613 0.006427
0.188310 0.111190 0.006105
0.226641 0.104238 0.005830
0.271319 0.097728 0.005599
0.322551 0.091614 0.005401
0.380181 0.085850 0.005219
0.443554 0.080387 0.005027
0.511445 0.075185 0.004797
0.582052 0.070204 0.004505
0.653127 0.065421 0.004136
0.722161 0.060826 0.003689
0.786797 0.056424 0.003174
0.845072 0.052236 0.002610
0.895576 0.048298 0.002023
0.937679 0.044667 0.001441
0.971423 0.041423 0.000895
0.997266 0.038655 0.000413
1.000000 0.036462 0.000024
1.000000 0.034930 0.000000
1.000000 0.034137 0.000000
0.007198 0.268105 0.009078
0.008289 0.265688 0.009108
0.010547 0.261054 0.009156
0.014112 0.254513 0.009201
0.019169 0.246438 0.009214
0.025907 0.237200 0.009168
0.034483 0.227147 0.009039
0.045011 0.216575 0.008818
0.057576 0.205740 0.008511
0.072365 0.194863 0.008141
0.089705 0.184129 0.007743
0.110097 0.173691 0.007351
0.134186 0.163658 0.006991
0.162725 0.154104 0.006679
0.196486 0.145065 0.006418
0.236151 0.136545 0.006211
0.282193 0.128523 0.006052
0.334766 0.120959 0.005930
0.393623 0.113805 0.005827
0.457997 0.107015 0.005713
0.526538 0.100539 0.005556
0.597335 0.094339 0.005327
0.668045 0.088385 0.005008
0.736177 0.082665 0.004595
0.799437 0.077186 0.004097
0.855978 0.071972 0.003534
0.904551 0.067069 0.002933
0.944732 0.062550 0.002325
0.976710 0.058512 0.001745
1.000000 0.055063 0.001227
1.000000 0.052324 0.000804
1.000000 0.050407 0.000504
1.000000 0.049415 0.000349
0.007283 0.329247 0.009301
0.008459 0.326476 0.009315
0.010886 0.321163 0.009333
0.014701 0.313668 0.009338
0.020083 0.304409 0.009310
0.027213 0.293805 0.009227
0.036234 0.282247 0.009074
0.047251 0.270068 0.008846
0.060367 0.257551 0.008551
0.075798 0.244943 0.008211
0.093902 0.232453 0.007854
0.115198 0.220245 0.007510
0.140340 0.208439 0.007202
0.170069 0.197120 0.006942
0.205132 0.186336 0.006739
0.246167 0.176105 0.006592
0.293590 0.166416 0.006498
0.347491 0.157237 0.006446
0.407533 0.148526 0.006414
0.472833 0.140237 0.006372
0.541915 0.132319 0.006284
0.612761 0.124732 0.006119
0.682955 0.117445 0.005856
0.750042 0.110445 0.005487
0.811798 0.103741 0.005021
0.866519 0.097365 0.004476
0.913125 0.091374 0.003880
0.951375 0.085857 0.003265
0.981598 0.080927 0.002668
1.000000 0.076718 0.002129
1.000000 0.073374 0.001684
1.000000 0.071036 0.001366
1.000000 0.069827 0.001200
0.007427 0.397745 0.009557
0.008692 0.394638 0.009557
0.011297 0.388685 0.009549
0.015375 0.380294 0.009521
0.021101 0.369928 0.009458
0.028644 0.358047 0.009345
0.038134 0.345076 0.009173
0.049670 0.331377 0.008939
0.063373 0.317260 0.008654
0.079490 0.302989 0.008337
0.098403 0.288790 0.008013
0.120655 0.274837 0.007707
0.146901 0.261257 0.007438
0.177871 0.248143 0.007221
0.214278 0.235559 0.007062
0.256714 0.223540 0.006964
0.305526 0.212086 0.006922
0.360739 0.201175 0.006924
0.421918 0.190774 0.006950
0.488059 0.180840 0.006967
0.557561 0.171327 0.006939
0.628313 0.162194 0.006832
0.697854 0.153414 0.006623
0.763753 0.144976 0.006303
0.823897 0.136894 0.005877
0.876717 0.129211 0.005363
0.921325 0.121997 0.004786
0.957644 0.115357 0.004180
0.986126 0.109427 0.003584
1.000000 0.104367 0.003038
1.000000 0.100349 0.002583
1.000000 0.097544 0.002257
1.000000 0.096096 0.002086
0.007657 0.472253 0.009852
0.009017 0.468872 0.009841
0.011811 0.462397 0.009813
0.016170 0.453270 0.009760
0.022258 0.441986 0.009669
0.030236 0.429036 0.009533
0.040220 0.414866 0.009345
0.052302 0.399861 0.009107
0.066628 0.384348 0.008830
0.083470 0.368605 0.008529
0.103239 0.352864 0.008227
0.126493 0.337305 0.007946
0.153891 0.322064 0.007705
0.186147 0.307244 0.007515
0.223933 0.292918 0.007386
0.267793 0.279138 0.007318
0.318002 0.265917 0.007310
0.374504 0.253239 0.007349
0.436764 0.241084 0.007412
0.503655 0.229419 0.007470
0.573457 0.218209 0.007485
0.643974 0.207414 0.007424
0.712717 0.197013 0.007262
0.777309 0.187004 0.006988
0.835748 0.177410 0.006606
0.886600 0.168285 0.006129
0.929182 0.159716 0.005583
0.963573 0.151831 0.004999
0.990335 0.144790 0.004417
1.000000 0.138784 0.003878
1.000000 0.134018 0.003426
1.000000 0.130692 0.003099
1.000000 0.128975 0.002928
0.007998 0.550582 0.010189
0.009460 0.547040 0.010169
0.012456 0.540247 0.010126
0.017113 0.530657 0.010053
0.023584 0.518776 0.009943
0.032015 0.505107 0.009789
0.042514 0.490107 0.009590
0.055168 0.474167 0.009349
0.070149 0.457619 0.009076
0.087752 0.440744 0.008785
0.108419 0.423778 0.008496
0.132717 0.406900 0.008229
0.161308 0.390255 0.008000
0.194887 0.373954 0.007823
0.234083 0.358079 0.007706
0.279381 0.342693 0.007651
0.330989 0.327820 0.007656
0.388758 0.313458 0.007709
0.452039 0.299596 0.007789
0.519588 0.286218 0.007865
0.589572 0.273298 0.007904
0.659719 0.260808 0.007872
0.727531 0.248729 0.007744
0.790705 0.237073 0.007509
0.847353 0.225880 0.007166
0.896182 0.215222 0.006729
0.936721 0.205202 0.006218
0.969193 0.195974 0.005665
0.994261 0.187730 0.005107
1.000000 0.180695 0.004586
1.000000 0.175110 0.004147
1.000000 0.171211 0.003828
1.000000 0.169198 0.003660
0.008468 0.629826 0.010561
0.010039 0.626258 0.010535
0.013248 0.619424 0.010481
0.018218 0.609748 0.010395
0.025092 0.597711 0.010271
0.033994 0.583810 0.010106
0.045026 0.568498 0.009899
0.058275 0.552151 0.009655
0.073938 0.535090 0.009384
0.092335 0.517588 0.009098
0.113934 0.499882 0.008814
0.139316 0.482146 0.008550
0.169137 0.464526 0.008323
0.204068 0.447136 0.008143
0.244700 0.430064 0.008022
0.291448 0.413383 0.007961
0.344449 0.397123 0.007959
0.403455 0.381300 0.008004
0.467699 0.365918 0.008077
0.535818 0.350972 0.008150
0.605874 0.336451 0.008191
0.675509 0.322338 0.008169
0.742265 0.308631 0.008060
0.803911 0.295354 0.007850
0.858686 0.282568 0.007539
0.905459 0.270363 0.007136
0.943953 0.258864 0.006661
0.974528 0.248253 0.006142
0.997935 0.238756 0.005614
1.000000 0.230641 0.005119
1.000000 0.224192 0.004699
1.000000 0.219684 0.004393
1.000000 0.217356 0.004232
0.009082 0.706609 0.010961
0.010765 0.703195 0.010932
0.014197 0.696635 0.010870
0.019493 0.687311 0.010775
0.026783 0.675642 0.010641
0.036174 0.662088 0.010469
0.047754 0.647081 0.010257
0.061618 0.630973 0.010012
0.077986 0.614052 0.009740
0.097206 0.596567 0.009455
0.119769 0.578758 0.009170
0.146265 0.560784 0.008902
0.177346 0.542782 0.008665
0.213655 0.524863 0.008472
0.255739 0.507117 0.008332
0.303940 0.489624 0.008248
0.358322 0.472421 0.008221
0.418533 0.455537 0.008239
0.483678 0.438986 0.008285
0.552269 0.422779 0.008333
0.622275 0.406917 0.008356
0.691285 0.391403 0.008324
0.756870 0.376252 0.008215
0.816888 0.361507 0.008017
0.869724 0.347249 0.007726
0.914425 0.333587 0.007350
0.950887 0.320676 0.006905
0.979594 0.308727 0.006418
1.000000 0.298005 0.005922
1.000000 0.288825 0.005456
1.000000 0.281514 0.005059
1.000000 0.276393 0.004770
1.000000 0.273742 0.004618
0.009846 0.777683 0.011379
0.011647 0.774593 0.011346
0.015310 0.768609 0.011281
0.020942 0.760033 0.011179
0.028659 0.749240 0.011041
0.038549 0.736635 0.010864
0.050685 0.722577 0.010649
0.065181 0.707387 0.010402
0.082275 0.691317 0.010130
0.102343 0.674577 0.009842
0.125894 0.657379 0.009552
0.153528 0.639888 0.009273
0.185891 0.622219 0.009020
0.223595 0.604464 0.008804
0.267140 0.586711 0.008635
0.316795 0.569050 0.008516
0.372540 0.551518 0.008448
0.433914 0.534142 0.008423
0.499891 0.516948 0.008424
0.568859 0.499961 0.008430
0.638701 0.483200 0.008416
0.706973 0.466682 0.008357
0.771285 0.450441 0.008233
0.829603 0.434539 0.008030
0.880451 0.419077 0.007745
0.923073 0.404186 0.007384
0.957525 0.390053 0.006962
0.984405 0.376923 0.006503
1.000000 0.365102 0.006036
1.000000 0.354946 0.005598
1.000000 0.346833 0.005226
1.000000 0.341135 0.004955
1.000000 0.338179 0.004812
0.010762 0.840421 0.011801
0.012684 0.837758 0.011768
0.016586 0.832571 0.011699
0.022562 0.825087 0.011595
0.030710 0.815598 0.011454
0.041103 0.804432 0.011275
0.053800 0.791892 0.011059
0.068937 0.778220 0.010811
0.086771 0.763632 0.010537
0.107703 0.748323 0.010245
0.132261 0.732468 0.009947
0.161051 0.716198 0.009654
0.194710 0.699610 0.009380
0.233817 0.682772 0.009135
0.278824 0.665764 0.008929
0.329926 0.648665 0.008767
0.387010 0.631524 0.008648
0.449496 0.614360 0.008567
0.516232 0.597190 0.008511
0.585486 0.580063 0.008461
0.655062 0.563007 0.008397
0.722492 0.546053 0.008295
0.785451 0.529248 0.008139
0.842017 0.512667 0.007917
0.890841 0.496439 0.007626
0.931389 0.480713 0.007269
0.963865 0.465705 0.006861
0.988965 0.451692 0.006421
1.000000 0.439015 0.005979
1.000000 0.428077 0.005566
1.000000 0.419301 0.005217
1.000000 0.413116 0.004963
1.000000 0.409898 0.004829
0.011821 0.893323 0.012218
0.013868 0.891124 0.012184
0.018014 0.886824 0.012114
0.024339 0.880590 0.012009
0.032918 0.872644 0.011867
0.043811 0.863230 0.011688
0.057070 0.852576 0.011472
0.072848 0.840872 0.011224
0.091428 0.828280 0.010947
0.113235 0.814947 0.010651
0.138809 0.801027 0.010343
0.168763 0.786614 0.010034
0.203722 0.771756 0.009737
0.244232 0.756521 0.009460
0.290687 0.740977 0.009213
0.343216 0.725178 0.009001
0.401606 0.709171 0.008826
0.465154 0.692967 0.008682
0.532578 0.676567 0.008561
0.602035 0.660019 0.008446
0.671239 0.643378 0.008321
0.737739 0.626679 0.008166
0.799275 0.609969 0.007968
0.854038 0.593333 0.007715
0.900838 0.576928 0.007405
0.939343 0.560917 0.007042
0.969893 0.545533 0.006638
0.993273 0.531077 0.006211
1.000000 0.517924 0.005786
1.000000 0.506515 0.005394
1.000000 0.497317 0.005065
1.000000 0.490807 0.004826
1.000000 0.487409 0.004701
0.013009 0.936084 0.012618
0.015181 0.934341 0.012583
0.019571 0.930922 0.012514
0.026244 0.925949 0.012409
0.035252 0.919580 0.012267
0.046637 0.911990 0.012089
0.060450 0.903345 0.011874
0.076866 0.893787 0.011626
0.096190 0.883436 0.011348
0.118870 0.872400 0.011046
0.145458 0.860782 0.010728
0.176571 0.848640 0.010403
0.212820 0.836007 0.010082
0.254719 0.822915 0.009772
0.302599 0.809402 0.009483
0.356525 0.795525 0.009221
0.416177 0.781294 0.008986
0.480728 0.766700 0.008778
0.548766 0.751760 0.008587
0.618336 0.736521 0.008403
0.687074 0.721017 0.008211
0.752565 0.705291 0.007998
0.812618 0.689393 0.007749
0.865562 0.673408 0.007458
0.910371 0.657493 0.007121
0.946889 0.641842 0.006743
0.975584 0.626691 0.006334
0.997319 0.612347 0.005912
1.000000 0.599208 0.005500
1.000000 0.587752 0.005123
1.000000 0.578470 0.004809
1.000000 0.571868 0.004584
1.000000 0.568407 0.004466
0.014297 0.969248 0.012992
0.016594 0.967924 0.012957
0.021224 0.965322 0.012889
0.028238 0.961525 0.012785
0.037665 0.956645 0.012645
0.049526 0.950801 0.012468
0.063882 0.944108 0.012255
0.080924 0.936667 0.012007
0.100980 0.928562 0.011727
0.124518 0.919865 0.011420
0.152106 0.910636 0.011093
0.184358 0.900907 0.010753
0.221871 0.890696 0.010408
0.265126 0.880014 0.010067
0.314392 0.868877 0.009737
0.369663 0.857303 0.009425
0.430521 0.845288 0.009133
0.496005 0.832814 0.008860
0.564573 0.819881 0.008601
0.634169 0.806527 0.008347
0.702375 0.792777 0.008088
0.766797 0.778647 0.007812
0.825347 0.764194 0.007510
0.876483 0.749519 0.007175
0.919357 0.734770 0.006806
0.953970 0.720137 0.006407
0.980900 0.705857 0.005989
1.000000 0.692227 0.005566
1.000000 0.679655 0.005160
1.000000 0.668625 0.004795
1.000000 0.659652 0.004493
1.000000 0.653242 0.004278
1.000000 0.649862 0.004165
0.015648 0.993902 0.013332
0.018067 0.992945 0.013298
0.022930 0.991062 0.013231
0.030271 0.988308 0.013128
0.040098 0.984757 0.012990
0.052414 0.980488 0.012815
0.067290 0.975575 0.012604
0.084935 0.970086 0.012357
0.105698 0.964074 0.012076
0.130067 0.957580 0.011765
0.158620 0.950633 0.011429
0.191975 0.943247 0.011075
0.230704 0.935421 0.010708
0.275259 0.927152 0.010338
0.325853 0.918435 0.009971
0.382405 0.909264 0.009613
0.444391 0.899621 0.009267
0.510725 0.889485 0.008933
0.579739 0.878847 0.008609
0.649282 0.867717 0.008289
0.716899 0.856106 0.007965
