luts/silbersalz-250d_v0.2-structured_33.cube
TITLE "silbersalz-250d_v0.2-structured_33"
# Generated by silbersalz-look on 2026-08-22
# Input:  Silbersalz flat-scan code values [0,1] (Display P3 tagged)
# Output: graded display code values (Display P3)
# track: v0.2-structured
LUT_3D_SIZE 5
DOMAIN_MIN 0.0 0.0 0.0
DOMAIN_MAX 1.0 1.0 1.0
0.028534 0.023519 0.000012
0.119864 0.034559 0.000024
0.119908 0.034565 0.000025
0.605190 0.152025 0.090194
0.840141 0.265033 0.170860
0.045371 0.115793 0.000060
0.136764 0.127759 0.004701
0.136808 0.127765 0.004705
0.619640 0.230851 0.123210
0.873227 0.307092 0.181058
0.045374 0.115806 0.000061
0.136766 0.127773 0.004704
0.136810 0.127779 0.004708
0.619642 0.230863 0.123216
0.873232 0.307099 0.181059
0.213801 0.514323 0.199450
0.278639 0.526057 0.214095
0.278673 0.526063 0.214097
0.734192 0.605295 0.196358
0.998657 0.635098 0.152006
0.105689 0.869147 0.109450
0.223536 0.882386 0.100964
0.223586 0.882392 0.100959
0.794940 0.949900 0.128222
0.999999 0.984050 0.156354
0.017554 0.025191 0.083811
0.109361 0.036303 0.092744
0.109405 0.036309 0.092748
0.594887 0.151903 0.171979
0.826772 0.266605 0.251310
0.036398 0.117485 0.103861
0.126766 0.129648 0.112041
0.126810 0.129654 0.112045
0.608719 0.231702 0.204454
0.860544 0.308914 0.261973
0.036401 0.117498 0.103863
0.126769 0.129662 0.112044
0.126813 0.129668 0.112048
0.608721 0.231714 0.204459
0.860549 0.308921 0.261974
0.203538 0.516294 0.271322
0.266171 0.528310 0.283537
0.266205 0.528316 0.283539
0.723802 0.607165 0.282241
0.997562 0.636511 0.251297
0.092720 0.871178 0.223578
0.214294 0.884381 0.221315
0.214344 0.884388 0.221313
0.786559 0.951712 0.251989
0.999999 0.985649 0.275583
0.017497 0.025199 0.084414
0.109316 0.036310 0.093301
0.109360 0.036316 0.093305
0.594827 0.151906 0.172460
0.826697 0.266613 0.251762
0.036393 0.117493 0.104393
0.126726 0.129658 0.112572
0.126770 0.129664 0.112576
0.608656 0.231709 0.204921
0.860472 0.308924 0.262433
0.036396 0.117506 0.104396
0.126728 0.129672 0.112575
0.126772 0.129678 0.112579
0.608658 0.231721 0.204926
0.860477 0.308931 0.262434
0.203482 0.516306 0.271754
0.266103 0.528323 0.283957
0.266137 0.528329 0.283959
0.723743 0.607176 0.282734
0.997552 0.636519 0.251851
0.092649 0.871190 0.224174
0.214242 0.884393 0.221929
0.214293 0.884399 0.221928
0.786512 0.951722 0.252629
0.999999 0.985658 0.276213
0.021136 0.028070 0.368241
0.089036 0.040129 0.376802
0.089077 0.040135 0.376806
0.561729 0.159606 0.428714
0.791232 0.270812 0.484312
0.023630 0.122728 0.388231
0.104837 0.134797 0.396714
0.104879 0.134803 0.396718
0.574818 0.239666 0.453860
0.826415 0.313673 0.502092
0.023632 0.122741 0.388234
0.104840 0.134811 0.396717
0.104881 0.134817 0.396720
0.574820 0.239678 0.453864
0.826420 0.313681 0.502094
0.188959 0.523286 0.504451
0.239180 0.536251 0.512654
0.239212 0.536258 0.512658
0.693979 0.612974 0.547291
0.988119 0.641344 0.545676
0.035769 0.877592 0.524330
0.182200 0.890627 0.527619
0.182254 0.890634 0.527621
0.761373 0.956837 0.568718
0.999993 0.990058 0.590689
0.045774 0.041964 0.705832
0.076848 0.056411 0.712506
0.076880 0.056419 0.712508
0.522686 0.188167 0.732650
0.765315 0.273084 0.767769
0.063184 0.137029 0.717657
0.101341 0.150199 0.723691
0.101373 0.150205 0.723693
0.537721 0.262661 0.749457
0.799777 0.316251 0.795956
0.063187 0.137042 0.717658
0.101345 0.150212 0.723692
0.101377 0.150219 0.723695
0.537724 0.262673 0.749460
0.799782 0.316259 0.795960
0.205212 0.535728 0.796827
0.238460 0.548182 0.808085
0.238485 0.548188 0.808090
0.662879 0.619359 0.878646
0.958327 0.644252 0.906834
0.000489 0.884702 0.891807
0.122367 0.896723 0.900131
0.122437 0.896729 0.900135
0.726214 0.962239 0.943959
0.999950 0.994455 0.965095
