luts/silbersalz-500t_v1-paired_33.cube
TITLE "silbersalz-500t_v1-paired_33"
# Generated by saltgate on 2026-08-23
# Input:  Silbersalz flat-scan code values [0,1] (Display P3 tagged)
# Output: graded display code values (Display P3)
# pairs: 5
LUT_3D_SIZE 33
DOMAIN_MIN 0.0 0.0 0.0
DOMAIN_MAX 1.0 1.0 1.0
0.084674 0.041363 0.005697
0.088816 0.041415 0.005926
0.097113 0.041518 0.006396
0.109587 0.041667 0.007130
0.126259 0.041857 0.008160
0.147135 0.042082 0.009525
0.172192 0.042335 0.011268
0.201356 0.042609 0.013431
0.234490 0.042900 0.016052
0.271380 0.043200 0.019161
0.311723 0.043506 0.022775
0.355124 0.043811 0.026898
0.401100 0.044113 0.031521
0.449089 0.044409 0.036617
0.498462 0.044697 0.042149
0.548544 0.044979 0.048065
0.598632 0.045256 0.054304
0.648018 0.045534 0.060798
0.696014 0.045817 0.067470
0.741971 0.046110 0.074241
0.785303 0.046419 0.081027
0.825504 0.046747 0.087741
0.862163 0.047093 0.094296
0.894976 0.047455 0.100604
0.923751 0.047827 0.106579
0.948414 0.048202 0.112138
0.969004 0.048570 0.117201
0.985675 0.048917 0.121693
0.998684 0.049231 0.125548
1.000000 0.049501 0.128707
1.000000 0.049714 0.131120
1.000000 0.049862 0.132751
1.000000 0.049937 0.133573
0.084089 0.041926 0.005073
0.088212 0.041980 0.005292
0.096472 0.042084 0.005742
0.108893 0.042237 0.006448
0.125500 0.042431 0.007442
0.146303 0.042662 0.008765
0.171281 0.042922 0.010462
0.200368 0.043206 0.012576
0.233430 0.043507 0.015148
0.270257 0.043820 0.018209
0.310549 0.044141 0.021778
0.353913 0.044465 0.025861
0.399867 0.044787 0.030448
0.447849 0.045105 0.035513
0.497231 0.045417 0.041017
0.547336 0.045724 0.046908
0.597460 0.046028 0.053124
0.646896 0.046333 0.059597
0.694953 0.046644 0.066250
0.740980 0.046966 0.073001
0.784391 0.047304 0.079768
0.824677 0.047661 0.086463
0.861425 0.048037 0.092998
0.894328 0.048429 0.099287
0.923194 0.048831 0.105243
0.947946 0.049234 0.110783
0.968621 0.049627 0.115828
0.985370 0.049998 0.120304
0.998448 0.050334 0.124144
1.000000 0.050620 0.127290
1.000000 0.050847 0.129694
1.000000 0.051004 0.131318
1.000000 0.051084 0.132137
0.082956 0.043108 0.003871
0.087042 0.043163 0.004071
0.095230 0.043272 0.004483
0.107548 0.043431 0.005132
0.124026 0.043634 0.006055
0.144683 0.043876 0.007295
0.169508 0.044150 0.008900
0.198442 0.044451 0.010918
0.231362 0.044774 0.013393
0.268064 0.045114 0.016360
0.308253 0.045466 0.019841
0.351543 0.045825 0.023844
0.397451 0.046188 0.028359
0.445418 0.046550 0.033361
0.494814 0.046910 0.038808
0.544963 0.047267 0.044649
0.595158 0.047623 0.050820
0.644689 0.047982 0.057251
0.692864 0.048349 0.063863
0.739029 0.048729 0.070575
0.782594 0.049126 0.077302
0.823046 0.049542 0.083958
0.859969 0.049977 0.090454
0.893052 0.050428 0.096703
0.922096 0.050887 0.102619
0.947023 0.051345 0.108121
0.967864 0.051791 0.113130
0.984767 0.052209 0.117572
0.997981 0.052586 0.121382
1.000000 0.052908 0.124504
1.000000 0.053162 0.126888
1.000000 0.053337 0.128498
1.000000 0.053427 0.129310
0.081349 0.045015 0.002180
0.085381 0.045074 0.002351
0.093464 0.045189 0.002707
0.105632 0.045357 0.003276
0.121924 0.045572 0.004096
0.142368 0.045831 0.005215
0.166968 0.046126 0.006686
0.195678 0.046454 0.008563
0.228387 0.046809 0.010895
0.264903 0.047188 0.013723
0.304940 0.047586 0.017074
0.348116 0.047998 0.020958
0.393954 0.048421 0.025365
0.441893 0.048849 0.030272
0.491305 0.049280 0.035634
0.541512 0.049712 0.041399
0.591805 0.050146 0.047501
0.641471 0.050586 0.053866
0.689816 0.051036 0.060416
0.736180 0.051500 0.067067
0.779968 0.051984 0.073733
0.820661 0.052488 0.080327
0.857838 0.053011 0.086761
0.891181 0.053549 0.092948
0.920488 0.054095 0.098804
0.945669 0.054635 0.104247
0.966754 0.055158 0.109199
0.983882 0.055647 0.113590
0.997295 0.056086 0.117355
1.000000 0.056459 0.120437
1.000000 0.056753 0.122791
1.000000 0.056956 0.124381
1.000000 0.057059 0.125183
0.079372 0.047806 0.000123
0.083335 0.047868 0.000259
0.091284 0.047991 0.000545
0.103261 0.048171 0.001011
0.119315 0.048404 0.001700
0.139488 0.048684 0.002665
0.163798 0.049007 0.003964
0.192218 0.049369 0.005658
0.224653 0.049766 0.007806
0.260926 0.050196 0.010454
0.300761 0.050655 0.013635
0.343784 0.051139 0.017361
0.389521 0.051641 0.021627
0.437415 0.052156 0.026406
0.486838 0.052680 0.031655
0.537109 0.053211 0.037316
0.587519 0.053747 0.043322
0.637352 0.054293 0.049597
0.685907 0.054852 0.056060
0.732521 0.055428 0.062626
0.776591 0.056026 0.069206
0.817592 0.056645 0.075715
0.855094 0.057284 0.082063
0.888771 0.057938 0.088164
0.918412 0.058596 0.093935
0.943922 0.059245 0.099296
0.965320 0.059869 0.104171
0.982736 0.060451 0.108490
0.996405 0.060971 0.112192
1.000000 0.061412 0.115221
1.000000 0.061759 0.117534
1.000000 0.061997 0.119096
1.000000 0.062119 0.119883
0.077150 0.051684 0.000000
0.081033 0.051751 0.000000
0.088827 0.051884 0.000000
0.100580 0.052078 0.000000
0.116353 0.052331 0.000000
0.136205 0.052638 0.000000
0.160172 0.052994 0.000913
0.188246 0.053399 0.002392
0.220351 0.053849 0.004318
0.256326 0.054342 0.006748
0.295910 0.054877 0.009722
0.338737 0.055447 0.013256
0.384341 0.056047 0.017346
0.432165 0.056670 0.021966
0.481584 0.057309 0.027070
0.531916 0.057960 0.032599
0.582451 0.058623 0.038482
0.632469 0.059298 0.044639
0.681264 0.059991 0.050988
0.728167 0.060704 0.057440
0.772567 0.061441 0.063908
0.813930 0.062201 0.070303
0.851815 0.062983 0.076537
0.885887 0.063778 0.082525
0.915926 0.064574 0.088185
0.941826 0.065356 0.093438
0.963597 0.066105 0.098212
0.981359 0.066800 0.102439
0.995335 0.067420 0.106059
1.000000 0.067945 0.109020
1.000000 0.068355 0.111280
1.000000 0.068638 0.112805
1.000000 0.068782 0.113573
0.074824 0.056891 0.000000
0.078620 0.056964 0.000000
0.086242 0.057108 0.000000
0.097749 0.057320 0.000000
0.113213 0.057596 0.000000
0.132708 0.057935 0.000000
0.156290 0.058332 0.000000
0.183972 0.058787 0.000000
0.215698 0.059300 0.000649
0.251328 0.059869 0.002830
0.290614 0.060492 0.005564
0.333202 0.061166 0.008872
0.378633 0.061881 0.012754
0.426356 0.062629 0.017183
0.475745 0.063402 0.022111
0.526123 0.064195 0.027476
0.576778 0.065005 0.033205
0.626987 0.065832 0.039214
0.676038 0.066681 0.045417
0.723255 0.067553 0.051726
0.768018 0.068453 0.058050
0.809781 0.069379 0.064300
0.848095 0.070327 0.070390
0.882612 0.071287 0.076235
0.913099 0.072246 0.081754
0.939440 0.073183 0.086872
0.961632 0.074078 0.091519
0.979785 0.074905 0.095629
0.994109 0.075642 0.099147
1.000000 0.076264 0.102023
1.000000 0.076750 0.104216
1.000000 0.077084 0.105696
1.000000 0.077254 0.106441
0.072536 0.063700 0.000000
0.076241 0.063780 0.000000
0.083686 0.063937 0.000000
0.094935 0.064169 0.000000
0.110074 0.064474 0.000000
0.129192 0.064850 0.000000
0.152363 0.065295 0.000000
0.179621 0.065809 0.000000
0.210933 0.066394 0.000000
0.246177 0.067051 0.000000
0.285121 0.067777 0.001403
0.327425 0.068567 0.004457
0.372639 0.069413 0.008099
0.420220 0.070304 0.012304
0.469546 0.071229 0.017024
0.519942 0.072181 0.022193
0.570698 0.073157 0.027734
0.621087 0.074155 0.033561
0.670395 0.075179 0.039586
0.717935 0.076232 0.045716
0.763078 0.077315 0.051861
0.805267 0.078428 0.057933
0.844039 0.079563 0.063843
0.879034 0.080710 0.069511
0.910005 0.081851 0.074857
0.936824 0.082963 0.079810
0.959475 0.084023 0.084301
0.978054 0.085000 0.088271
0.992757 0.085869 0.091665
1.000000 0.086600 0.094437
1.000000 0.087172 0.096550
1.000000 0.087564 0.097975
1.000000 0.087764 0.098692
0.070419 0.072405 0.000000
0.074035 0.072492 0.000000
0.081304 0.072665 0.000000
0.092298 0.072922 0.000000
0.107111 0.073260 0.000000
0.125848 0.073680 0.000000
0.148600 0.074180 0.000000
0.175418 0.074763 0.000000
0.206291 0.075431 0.000000
0.241116 0.076187 0.000000
0.279680 0.077028 0.000000
0.321656 0.077948 0.000254
0.366606 0.078939 0.003629
0.413997 0.079986 0.007579
0.463215 0.081078 0.012057
0.513592 0.082204 0.016995
0.564416 0.083361 0.022313
0.614963 0.084546 0.027922
0.664511 0.085763 0.033731
0.712368 0.087012 0.039646
0.757892 0.088296 0.045575
0.800515 0.089613 0.051429
0.839759 0.090954 0.057124
0.875250 0.092305 0.062578
0.906727 0.093646 0.067718
0.934047 0.094951 0.072472
0.957180 0.096190 0.076779
0.976208 0.097333 0.080580
0.991312 0.098345 0.083827
1.000000 0.099197 0.086477
1.000000 0.099863 0.088495
1.000000 0.100319 0.089855
1.000000 0.100551 0.090540
0.068586 0.083306 0.000000
0.072117 0.083402 0.000000
0.079220 0.083594 0.000000
0.089972 0.083880 0.000000
0.104474 0.084258 0.000000
0.122843 0.084729 0.000000
0.145182 0.085294 0.000000
0.171561 0.085956 0.000000
0.201986 0.086719 0.000000
0.236370 0.087585 0.000000
0.274521 0.088553 0.000000
0.316128 0.089615 0.000000
0.360766 0.090761 0.000000
0.407916 0.091976 0.003236
0.456977 0.093246 0.007440
0.507285 0.094559 0.012112
0.558136 0.095908 0.017171
0.608804 0.097293 0.022525
0.658564 0.098713 0.028080
0.706716 0.100173 0.033740
0.752607 0.101671 0.039413
0.795655 0.103205 0.045011
0.835369 0.104765 0.050451
0.871358 0.106335 0.055654
0.903348 0.107890 0.060550
0.931177 0.109400 0.065073
0.954804 0.110833 0.069164
0.974292 0.112151 0.072770
0.989810 0.113318 0.075847
1.000000 0.114299 0.078355
1.000000 0.115064 0.080263
1.000000 0.115588 0.081549
1.000000 0.115855 0.082195
0.067119 0.096697 0.000000
0.070574 0.096805 0.000000
0.077528 0.097019 0.000000
0.088059 0.097339 0.000000
0.102277 0.097766 0.000000
0.120304 0.098298 0.000000
0.142253 0.098939 0.000000
0.168207 0.099691 0.000000
0.198187 0.100560 0.000000
0.232122 0.101548 0.000000
0.269837 0.102653 0.000000
0.311039 0.103868 0.000000
0.355321 0.105179 0.000000
0.402181 0.106570 0.000000
0.451031 0.108025 0.003369
0.501218 0.109532 0.007744
0.552046 0.111082 0.012509
0.602789 0.112673 0.017571
0.652720 0.114307 0.022832
0.701131 0.115985 0.028198
0.747360 0.117706 0.033575
0.790812 0.119468 0.038878
0.830978 0.121256 0.044023
0.867454 0.123054 0.048939
0.899948 0.124832 0.053556
0.928284 0.126558 0.057813
0.952402 0.128192 0.061658
0.972352 0.129694 0.065041
0.988285 0.131022 0.067924
1.000000 0.132137 0.070271
1.000000 0.133006 0.072055
1.000000 0.133602 0.073256
1.000000 0.133904 0.073860
0.066064 0.112850 0.000000
0.069455 0.112971 0.000000
0.076280 0.113213 0.000000
0.086620 0.113575 0.000000
0.100587 0.114058 0.000000
0.118307 0.114662 0.000000
0.139901 0.115390 0.000000
0.165457 0.116246 0.000000
0.195007 0.117234 0.000000
0.228496 0.118355 0.000000
0.265763 0.119608 0.000000
0.306535 0.120982 0.000000
0.350426 0.122465 0.000000
0.396951 0.124038 0.000000
0.445541 0.125683 0.000000
0.495556 0.127388 0.004044
0.546307 0.129143 0.008484
0.597074 0.130945 0.013219
0.647127 0.132796 0.018151
0.695754 0.134696 0.023185
0.742281 0.136646 0.028229
0.786099 0.138639 0.033198
0.826688 0.140662 0.038012
0.863626 0.142692 0.042603
0.896604 0.144698 0.046907
0.925430 0.146643 0.050867
0.950027 0.148483 0.054436
0.970429 0.150172 0.057572
0.986771 0.151665 0.060238
0.999275 0.152918 0.062406
1.000000 0.153893 0.064052
1.000000 0.154561 0.065159
1.000000 0.154900 0.065715
0.065434 0.131995 0.000000
0.068771 0.132133 0.000000
0.075489 0.132407 0.000000
0.085669 0.132820 0.000000
0.099423 0.133369 0.000000
0.116877 0.134056 0.000000
0.138154 0.134885 0.000000
0.163347 0.135857 0.000000
0.192494 0.136976 0.000000
0.225550 0.138242 0.000000
0.262371 0.139651 0.000000
0.302701 0.141193 0.000000
0.346178 0.142852 0.000000
0.392335 0.144609 0.000000
0.440624 0.146447 0.000000
0.490420 0.148351 0.001109
0.541044 0.150311 0.005199
0.591783 0.152325 0.009579
0.641907 0.154393 0.014152
0.690698 0.156517 0.018822
0.737474 0.158695 0.023498
0.781615 0.160920 0.028099
0.822586 0.163177 0.032550
0.859949 0.165440 0.036784
0.893380 0.167675 0.040744
0.922669 0.169839 0.044379
0.947723 0.171884 0.047647
0.968559 0.173760 0.050511
0.985294 0.175417 0.052942
0.998137 0.176806 0.054914
1.000000 0.177888 0.056409
1.000000 0.178628 0.057414
1.000000 0.179004 0.057918
0.065203 0.154308 0.000000
0.068498 0.154465 0.000000
0.075130 0.154779 0.000000
0.085180 0.155249 0.000000
0.098758 0.155875 0.000000
0.115988 0.156658 0.000000
0.136990 0.157599 0.000000
0.161859 0.158700 0.000000
0.190635 0.159962 0.000000
0.223283 0.161383 0.000000
0.259671 0.162956 0.000000
0.299563 0.164671 0.000000
0.342615 0.166510 0.000000
0.388387 0.168454 0.000000
0.436346 0.170484 0.000000
0.485886 0.172586 0.000000
0.536342 0.174750 0.002706
0.587004 0.176973 0.006710
0.637147 0.179256 0.010898
0.686049 0.181600 0.015178
0.733021 0.184004 0.019460
0.777435 0.186458 0.023666
0.818740 0.188944 0.027725
0.856485 0.191436 0.031577
0.890329 0.193894 0.035169
0.920046 0.196272 0.038455
0.945527 0.198518 0.041401
0.966771 0.200576 0.043975
0.983879 0.202392 0.046153
0.997042 0.203915 0.047917
1.000000 0.205099 0.049252
1.000000 0.205909 0.050147
1.000000 0.206321 0.050597
0.065322 0.179894 0.000000
0.068584 0.180073 0.000000
0.075149 0.180430 0.000000
0.085096 0.180966 0.000000
0.098531 0.181678 0.000000
0.115574 0.182568 0.000000
0.136342 0.183633 0.000000
0.160926 0.184875 0.000000
0.189369 0.186290 0.000000
0.221641 0.187875 0.000000
0.257621 0.189620 0.000000
0.297090 0.191512 0.000000
0.339726 0.193534 0.000000
0.385107 0.195664 0.000000
0.432723 0.197886 0.000000
0.481984 0.200183 0.000000
0.532237 0.202548 0.001002
0.582782 0.204977 0.004617
0.632897 0.207470 0.008405
0.681860 0.210030 0.012276
0.728977 0.212652 0.016145
0.773610 0.215327 0.019936
0.815198 0.218035 0.023586
0.853277 0.220746 0.027036
0.887489 0.223419 0.030241
0.917594 0.226001 0.033163
0.943465 0.228438 0.035772
0.965086 0.230670 0.038042
0.982541 0.232638 0.039957
0.996005 0.234286 0.041503
1.000000 0.235568 0.042670
1.000000 0.236444 0.043451
1.000000 0.236889 0.043843
0.065719 0.208768 0.000000
0.068956 0.208971 0.000000
0.075470 0.209378 0.000000
0.085336 0.209986 0.000000
0.098656 0.210793 0.000000
0.115546 0.211798 0.000000
0.136116 0.212998 0.000000
0.160454 0.214389 0.000000
0.188603 0.215967 0.000000
0.220534 0.217723 0.000000
0.256140 0.219646 0.000000
0.295214 0.221720 0.000000
0.337453 0.223926 0.000000
0.382455 0.226244 0.000000
0.429728 0.228655 0.000000
0.478699 0.231146 0.000000
0.528729 0.233708 0.000043
0.579126 0.236337 0.003264
0.629174 0.239035 0.006643
0.678152 0.241802 0.010095
0.725364 0.244634 0.013540
0.770166 0.247520 0.016906
0.811986 0.250439 0.020135
0.850348 0.253357 0.023174
0.884882 0.256230 0.025984
0.915331 0.259004 0.028532
0.941554 0.261619 0.030795
0.963517 0.264011 0.032755
0.981290 0.266118 0.034401
0.995030 0.267883 0.035724
1.000000 0.269254 0.036719
1.000000 0.270192 0.037383
1.000000 0.270668 0.037716
0.066316 0.240852 0.000000
0.069534 0.241082 0.000000
0.076009 0.241541 0.000000
0.085811 0.242227 0.000000
0.099039 0.243136 0.000000
0.115802 0.244264 0.000000
0.136206 0.245605 0.000000
0.160334 0.247153 0.000000
0.188225 0.248899 0.000000
0.219857 0.250832 0.000000
0.255127 0.252937 0.000000
0.293842 0.255195 0.000000
0.335714 0.257588 0.000000
0.380358 0.260093 0.000000
0.427301 0.262694 0.000000
0.475984 0.265375 0.000000
0.525780 0.268130 0.000000
0.576009 0.270955 0.002578
0.625961 0.273850 0.005547
0.674917 0.276816 0.008578
0.722181 0.279848 0.011596
0.767104 0.282934 0.014536
0.809108 0.286049 0.017341
0.847706 0.289158 0.019968
0.882515 0.292215 0.022382
0.913264 0.295163 0.024556
0.939797 0.297938 0.026473
0.962067 0.300474 0.028122
0.980127 0.302707 0.029498
0.994119 0.304575 0.030598
1.000000 0.306026 0.031421
1.000000 0.307018 0.031969
1.000000 0.307522 0.032243
0.067031 0.275961 0.000000
0.070235 0.276219 0.000000
0.076678 0.276734 0.000000
0.086430 0.277501 0.000000
0.099583 0.278515 0.000000
0.116242 0.279771 0.000000
0.136506 0.281258 0.000000
0.160455 0.282968 0.000000
0.188125 0.284887 0.000000
0.219496 0.287000 0.000000
0.254471 0.289289 0.000000
0.292866 0.291734 0.000000
0.334407 0.294314 0.000000
0.378725 0.297007 0.000000
0.425359 0.299795 0.000000
0.473765 0.302665 0.000000
0.523329 0.305609 0.000025
0.573381 0.308625 0.002463
0.623216 0.311711 0.005026
0.672122 0.314867 0.007641
0.719402 0.318087 0.010237
0.764406 0.321357 0.012756
0.806550 0.324652 0.015146
0.845339 0.327935 0.017367
0.880378 0.331157 0.019391
0.911386 0.334258 0.021198
0.938191 0.337174 0.022777
0.960733 0.339836 0.024122
0.979050 0.342177 0.025234
0.993269 0.344135 0.026115
1.000000 0.345654 0.026770
1.000000 0.346692 0.027204
1.000000 0.347219 0.027419
0.067789 0.313802 0.000000
0.070981 0.314089 0.000000
0.077399 0.314660 0.000000
0.087110 0.315510 0.000000
0.100201 0.316632 0.000000
0.116772 0.318017 0.000000
0.136919 0.319652 0.000000
0.160716 0.321525 0.000000
0.188198 0.323618 0.000000
0.219345 0.325912 0.000000
0.254064 0.328387 0.000000
0.292181 0.331019 0.000000
0.333431 0.333786 0.000000
0.377456 0.336666 0.000000
0.423809 0.339641 0.000000
0.471958 0.342698 0.000000
0.521299 0.345828 0.000755
0.571171 0.349028 0.002811
0.620879 0.352297 0.004977
0.669715 0.355633 0.007185
0.716984 0.359029 0.009372
0.762036 0.362469 0.011481
0.804283 0.365927 0.013469
0.843223 0.369364 0.015299
0.878454 0.372730 0.016948
0.909681 0.375963 0.018403
0.936723 0.378999 0.019656
0.959503 0.381766 0.020710
0.978048 0.384197 0.021568
0.992471 0.386228 0.022240
1.000000 0.387803 0.022734
1.000000 0.388879 0.023058
1.000000 0.389424 0.023218
0.068525 0.353970 0.000779
0.071707 0.354285 0.000602
0.078104 0.354913 0.000263
0.087779 0.355846 0.000000
0.100818 0.357075 0.000000
0.117315 0.358589 0.000000
0.137363 0.360372 0.000000
0.161031 0.362406 0.000000
0.188353 0.364672 0.000000
0.219310 0.367146 0.000000
0.253812 0.369805 0.000000
0.291690 0.372623 0.000000
0.332687 0.375576 0.000000
0.376455 0.378642 0.000000
0.422558 0.381802 0.000000
0.470472 0.385042 0.000298
0.519605 0.388354 0.001825
0.569304 0.391734 0.003510
0.618881 0.395178 0.005291
0.667634 0.398684 0.007107
0.714874 0.402243 0.008899
0.759948 0.405838 0.010617
0.802268 0.409440 0.012221
0.841326 0.413011 0.013680
0.876714 0.416499 0.014975
0.908128 0.419842 0.016097
0.935373 0.422975 0.017044
0.958364 0.425826 0.017823
0.977112 0.428328 0.018444
0.991717 0.430415 0.018920
1.000000 0.432033 0.019262
1.000000 0.433138 0.019484
1.000000 0.433698 0.019592
0.069189 0.395954 0.004106
0.072361 0.396297 0.003930
0.078739 0.396980 0.003590
0.088384 0.397995 0.003107
0.101377 0.399329 0.002517
0.117810 0.400969 0.001860
0.137772 0.402896 0.001185
0.161331 0.405088 0.000546
0.188519 0.407523 0.000000
0.219314 0.410173 0.000000
0.253632 0.413012 0.000000
0.291307 0.416014 0.000000
0.332088 0.419150 0.000000
0.375634 0.422399 0.000166
0.421517 0.425741 0.000938
0.469223 0.429161 0.001937
0.518165 0.432650 0.003125
0.567702 0.436202 0.004452
0.617151 0.439813 0.005863
0.665816 0.443479 0.007304
0.713012 0.447187 0.008721
0.758090 0.450920 0.010069
0.800460 0.454649 0.011312
0.839611 0.458334 0.012424
0.875128 0.461922 0.013389
0.906700 0.465353 0.014202
0.934122 0.468561 0.014866
0.957298 0.471475 0.015392
0.976226 0.474028 0.015795
0.990997 0.476156 0.016090
1.000000 0.477804 0.016294
1.000000 0.478928 0.016422
1.000000 0.479498 0.016483
0.069743 0.439144 0.007522
0.072908 0.439515 0.007346
0.079268 0.440251 0.007004
0.088884 0.441343 0.006517
0.101837 0.442779 0.005916
0.118214 0.444540 0.005238
0.138102 0.446605 0.004528
0.161567 0.448950 0.003835
0.188640 0.451547 0.003208
0.219301 0.454367 0.002695
0.253463 0.457382 0.002339
0.290966 0.460561 0.002176
0.331563 0.463876 0.002228
0.374920 0.467304 0.002504
0.420612 0.470822 0.003000
0.468134 0.474417 0.003694
0.516906 0.478076 0.004555
0.566293 0.481793 0.005539
0.615621 0.485562 0.006598
0.664198 0.489375 0.007683
0.711345 0.493220 0.008748
0.756415 0.497076 0.009749
0.798817 0.500913 0.010657
0.838041 0.504691 0.011447
0.873665 0.508359 0.012109
0.905372 0.511857 0.012640
0.932949 0.515119 0.013047
0.956288 0.518076 0.013345
0.975380 0.520663 0.013550
0.990301 0.522816 0.013683
1.000000 0.524482 0.013762
1.000000 0.525618 0.013805
1.000000 0.526193 0.013824
0.070169 0.482844 0.010928
0.073325 0.483240 0.010751
0.079669 0.484026 0.010407
0.089259 0.485193 0.009915
0.102174 0.486724 0.009302
0.118501 0.488599 0.008602
0.138325 0.490795 0.007856
0.161709 0.493284 0.007108
0.188684 0.496035 0.006402
0.219229 0.499018 0.005784
0.253261 0.502200 0.005292
0.290619 0.505549 0.004959
0.331061 0.509036 0.004808
0.374255 0.512635 0.004848
0.419783 0.516324 0.005078
0.467145 0.520086 0.005481
0.515767 0.523908 0.006030
0.565019 0.527781 0.006689
0.614234 0.531697 0.007416
0.662727 0.535645 0.008167
0.709823 0.539612 0.008901
0.754877 0.543575 0.009582
0.797302 0.547504 0.010180
0.836583 0.551358 0.010677
0.872297 0.555086 0.011063
0.904121 0.558631 0.011340
0.931835 0.561928 0.011517
0.955323 0.564911 0.011611
0.974563 0.567515 0.011641
0.989621 0.569679 0.011631
1.000000 0.571352 0.011601
1.000000 0.572491 0.011570
1.000000 0.573069 0.011551
0.070459 0.526286 0.014236
0.073608 0.526706 0.014058
0.079936 0.527539 0.013712
0.089501 0.528774 0.013213
0.102381 0.530393 0.012586
0.118663 0.532375 0.011863
0.138429 0.534692 0.011080
0.161742 0.537316 0.010276
0.188633 0.540212 0.009493
0.219080 0.543347 0.008771
0.253001 0.546686 0.008147
0.290237 0.550196 0.007651
0.330546 0.553846 0.007305
0.373602 0.557607 0.007120
0.418990 0.561457 0.007097
0.466212 0.565377 0.007224
0.514702 0.569352 0.007480
0.563835 0.573370 0.007834
0.612948 0.577421 0.008250
0.661364 0.581492 0.008691
0.708409 0.585566 0.009120
0.753445 0.589621 0.009505
0.795885 0.593626 0.009821
0.835213 0.597538 0.010052
0.871006 0.601311 0.010191
0.902933 0.604885 0.010242
0.930770 0.608200 0.010216
0.954392 0.611193 0.010130
0.973768 0.613800 0.010008
0.988954 0.615964 0.009874
1.000000 0.617634 0.009749
1.000000 0.618771 0.009654
1.000000 0.619347 0.009603
0.070620 0.568653 0.017370
0.073761 0.569094 0.017191
0.080073 0.569969 0.016841
0.089615 0.571267 0.016334
0.102463 0.572967 0.015694
0.118703 0.575046 0.014947
0.138417 0.577475 0.014126
0.161668 0.580221 0.013267
0.188485 0.583251 0.012409
0.218848 0.586526 0.011587
0.252674 0.590011 0.010836
0.289805 0.593670 0.010185
0.330003 0.597471 0.009655
0.372941 0.601384 0.009259
0.418207 0.605384 0.009000
0.465310 0.609450 0.008870
0.513685 0.613566 0.008852
0.562713 0.617716 0.008923
0.611736 0.621889 0.009052
0.660081 0.626069 0.009207
0.707080 0.630238 0.009356
0.752098 0.634371 0.009472
0.794548 0.638436 0.009533
0.833918 0.642393 0.009526
0.869780 0.646193 0.009446
0.901800 0.649783 0.009298
0.929749 0.653103 0.009094
0.953493 0.656093 0.008854
0.972995 0.658692 0.008602
0.988300 0.660846 0.008361
0.999528 0.662507 0.008156
1.000000 0.663636 0.008007
1.000000 0.664208 0.007928
0.070665 0.609099 0.020268
0.073799 0.609559 0.020088
0.080097 0.610473 0.019733
0.089616 0.611826 0.019218
0.102434 0.613598 0.018562
0.118635 0.615764 0.017791
0.138303 0.618293 0.016933
0.161499 0.621151 0.016022
0.188252 0.624300 0.015092
0.218542 0.627703 0.014176
0.252286 0.631320 0.013306
0.289328 0.635115 0.012511
0.329430 0.639054 0.011810
0.372267 0.643105 0.011219
0.417430 0.647241 0.010742
0.464430 0.651441 0.010376
0.512705 0.655684 0.010109
0.561642 0.659954 0.009921
0.610586 0.664235 0.009788
0.658869 0.668511 0.009683
0.705827 0.672760 0.009579
0.750828 0.676957 0.009453
0.793288 0.681069 0.009287
0.832695 0.685057 0.009068
0.868618 0.688874 0.008795
0.900723 0.692468 0.008474
0.928774 0.695783 0.008117
0.952631 0.698759 0.007746
0.972249 0.701342 0.007382
0.987665 0.703479 0.007053
0.998987 0.705125 0.006781
1.000000 0.706243 0.006587
1.000000 0.706808 0.006486
0.070618 0.646777 0.022880
0.073745 0.647254 0.022697
0.080029 0.648201 0.022338
0.089527 0.649603 0.021814
0.102317 0.651439 0.021143
0.118484 0.653682 0.020348
0.138109 0.656299 0.019455
0.161256 0.659255 0.018494
0.187953 0.662510 0.017497
0.218179 0.666025 0.016495
0.251854 0.669760 0.015517
0.288820 0.673677 0.014590
0.328840 0.677738 0.013735
0.371591 0.681912 0.012967
0.416666 0.686171 0.012294
0.463577 0.690488 0.011716
0.511767 0.694844 0.011224
0.560625 0.699219 0.010804
0.609501 0.703594 0.010436
0.657731 0.707951 0.010099
0.704654 0.712268 0.009770
