luts/silbersalz-250d_v0.2-structured_33.cube
TITLE "silbersalz-250d_v0.2-structured_33"
# Generated by silbersalz-look on 2026-08-22
# Input:  Silbersalz flat-scan code values [0,1] (Display P3 tagged)
# Output: graded display code values (Display P3)
# track: v0.2-structured
LUT_3D_SIZE 33
DOMAIN_MIN 0.0 0.0 0.0
DOMAIN_MAX 1.0 1.0 1.0
0.028534 0.023519 0.000012
0.051775 0.026400 0.000014
0.075270 0.029267 0.000018
0.095103 0.031647 0.000020
0.109677 0.033368 0.000022
0.117796 0.034318 0.000024
0.119625 0.034531 0.000024
0.119839 0.034556 0.000024
0.119864 0.034559 0.000024
0.119867 0.034559 0.000024
0.119867 0.034559 0.000024
0.119867 0.034559 0.000024
0.119867 0.034559 0.000024
0.119867 0.034559 0.000024
0.119868 0.034559 0.000024
0.119872 0.034560 0.000024
0.119908 0.034565 0.000025
0.120215 0.034604 0.000026
0.122846 0.034942 0.000035
0.145355 0.037813 0.000095
0.212040 0.046972 0.000516
0.311361 0.060632 0.003546
0.422251 0.082945 0.025725
0.524230 0.117681 0.063011
0.605190 0.152025 0.090194
0.658184 0.177454 0.108230
0.700549 0.199538 0.124094
0.738220 0.220393 0.139523
0.771025 0.239359 0.153939
0.798392 0.255104 0.166042
0.821681 0.263653 0.171636
0.838228 0.264894 0.170945
0.840141 0.265033 0.170860
0.032585 0.045050 0.000018
0.055930 0.047836 0.000020
0.079498 0.050630 0.000023
0.099371 0.052969 0.000027
0.113963 0.054679 0.000030
0.122076 0.055634 0.000032
0.123901 0.055850 0.000033
0.124115 0.055875 0.000033
0.124139 0.055878 0.000033
0.124142 0.055879 0.000033
0.124143 0.055879 0.000033
0.124143 0.055879 0.000033
0.124143 0.055879 0.000033
0.124143 0.055879 0.000033
0.124143 0.055879 0.000033
0.124147 0.055879 0.000033
0.124183 0.055884 0.000033
0.124489 0.055925 0.000036
0.127100 0.056278 0.000054
0.149416 0.059297 0.000185
0.216119 0.068449 0.001112
0.315452 0.082269 0.007732
0.425604 0.104626 0.034369
0.527599 0.136911 0.070346
0.608572 0.169189 0.096773
0.661518 0.193393 0.115254
0.703830 0.214585 0.131588
0.741455 0.234703 0.147421
0.774283 0.253002 0.162055
0.802137 0.267701 0.173596
0.828593 0.272256 0.174835
0.845453 0.273129 0.173681
0.847397 0.273232 0.173549
0.036683 0.066824 0.000025
0.060174 0.069674 0.000028
0.083818 0.072534 0.000033
0.103728 0.074938 0.000041
0.118294 0.076718 0.000053
0.126248 0.077789 0.000062
0.128036 0.078032 0.000064
0.128245 0.078061 0.000065
0.128270 0.078064 0.000065
0.128273 0.078064 0.000065
0.128273 0.078064 0.000065
0.128273 0.078064 0.000065
0.128273 0.078064 0.000065
0.128273 0.078064 0.000065
0.128273 0.078065 0.000065
0.128278 0.078065 0.000065
0.128313 0.078070 0.000066
0.128618 0.078112 0.000073
0.131222 0.078474 0.000121
0.153476 0.081575 0.000489
0.220272 0.090771 0.003150
0.319626 0.104701 0.012769
0.429036 0.127008 0.043910
0.531060 0.157299 0.078064
0.612032 0.187723 0.104218
0.664930 0.210746 0.123205
0.707192 0.231043 0.140012
0.744796 0.250381 0.156141
0.777848 0.267777 0.170571
0.808036 0.279372 0.178886
0.836150 0.281930 0.177760
0.853193 0.282602 0.176302
0.855158 0.282682 0.176135
0.040147 0.086092 0.000032
0.063821 0.088987 0.000037
0.087543 0.091898 0.000053
0.107452 0.094364 0.000098
0.121755 0.096295 0.000198
0.129669 0.097401 0.000262
0.131452 0.097650 0.000281
0.131661 0.097679 0.000284
0.131685 0.097683 0.000284
0.131688 0.097683 0.000285
0.131689 0.097683 0.000285
0.131689 0.097683 0.000285
0.131689 0.097683 0.000285
0.131689 0.097683 0.000285
0.131689 0.097683 0.000285
0.131693 0.097684 0.000285
0.131729 0.097689 0.000287
0.132034 0.097731 0.000301
0.134643 0.098095 0.000425
0.156946 0.101203 0.001478
0.223860 0.110420 0.006670
0.323217 0.124431 0.017787
0.432032 0.146618 0.052222
0.534096 0.175486 0.084904
0.615046 0.204501 0.111313
0.667901 0.226576 0.130777
0.710128 0.246125 0.147878
0.747740 0.264783 0.164107
0.781128 0.281265 0.178120
0.814523 0.289069 0.181867
0.843104 0.291082 0.179994
0.860200 0.291707 0.178405
0.862172 0.291780 0.178223
0.042826 0.101346 0.000039
0.066643 0.104266 0.000056
0.090427 0.107208 0.000143
0.110147 0.109773 0.000486
0.124373 0.111755 0.001408
0.132296 0.112867 0.001966
0.134082 0.113117 0.002089
0.134291 0.113146 0.002103
0.134315 0.113150 0.002104
0.134318 0.113150 0.002104
0.134318 0.113150 0.002104
0.134318 0.113150 0.002104
0.134318 0.113150 0.002104
0.134318 0.113150 0.002104
0.134319 0.113150 0.002104
0.134323 0.113151 0.002105
0.134359 0.113156 0.002107
0.134665 0.113199 0.002130
0.137279 0.113562 0.002330
0.159632 0.116672 0.004096
0.226617 0.125920 0.009984
0.325647 0.140193 0.023798
0.434364 0.162035 0.058794
0.536488 0.189935 0.090435
0.617409 0.217968 0.117283
0.670234 0.239355 0.137052
0.712442 0.258344 0.154289
0.750081 0.276468 0.170545
0.783839 0.292155 0.184060
0.819858 0.297068 0.183964
0.848721 0.298772 0.181600
0.865838 0.299382 0.179929
0.867813 0.299453 0.179737
0.044585 0.111339 0.000049
0.068487 0.114267 0.000113
0.092319 0.117222 0.000640
0.111826 0.119870 0.001975
0.126052 0.121862 0.003086
0.133989 0.122974 0.003714
0.135779 0.123225 0.003855
0.135988 0.123254 0.003872
0.136012 0.123257 0.003874
0.136015 0.123258 0.003874
0.136016 0.123258 0.003874
0.136016 0.123258 0.003874
0.136016 0.123258 0.003874
0.136016 0.123258 0.003874
0.136016 0.123258 0.003874
0.136020 0.123258 0.003874
0.136056 0.123263 0.003877
0.136362 0.123306 0.003903
0.138981 0.123670 0.004122
0.161368 0.126781 0.006012
0.228392 0.136052 0.012343
0.327131 0.150510 0.028475
0.435888 0.172088 0.063106
0.538051 0.199422 0.094215
0.618952 0.226866 0.121363
0.671761 0.247830 0.141262
0.713966 0.266461 0.158562
0.751709 0.284162 0.174705
0.786599 0.298457 0.186580
0.823495 0.302419 0.185139
0.852455 0.304019 0.182572
0.869575 0.304630 0.180859
0.871551 0.304701 0.180662
0.045280 0.115278 0.000057
0.069219 0.118208 0.000171
0.093059 0.121171 0.001176
0.112480 0.123848 0.002656
0.126709 0.125843 0.003802
0.134652 0.126956 0.004442
0.136443 0.127206 0.004587
0.136653 0.127236 0.004603
0.136677 0.127239 0.004605
0.136680 0.127239 0.004606
0.136680 0.127239 0.004606
0.136680 0.127239 0.004606
0.136680 0.127239 0.004606
0.136680 0.127239 0.004606
0.136681 0.127240 0.004606
0.136685 0.127240 0.004606
0.136721 0.127245 0.004609
0.137027 0.127288 0.004635
0.139647 0.127652 0.004860
0.162048 0.130763 0.006785
0.229087 0.140043 0.013309
0.327716 0.154563 0.030378
0.436491 0.176041 0.064802
0.538667 0.203166 0.095744
0.619560 0.230390 0.122997
0.672364 0.251192 0.142941
0.714571 0.269682 0.160259
0.752383 0.287192 0.176315
0.787925 0.300747 0.187233
0.824961 0.304551 0.185556
0.853939 0.306131 0.182938
0.871058 0.306745 0.181211
0.873033 0.306816 0.181012
0.045362 0.115739 0.000060
0.069305 0.118669 0.000183
0.093145 0.121633 0.001236
0.112558 0.124313 0.002734
0.126786 0.126309 0.003885
0.134730 0.127421 0.004528
0.136521 0.127672 0.004672
0.136730 0.127701 0.004689
0.136755 0.127705 0.004691
0.136758 0.127705 0.004691
0.136758 0.127705 0.004691
0.136758 0.127705 0.004691
0.136758 0.127705 0.004691
0.136758 0.127705 0.004691
0.136759 0.127705 0.004691
0.136763 0.127706 0.004692
0.136799 0.127711 0.004695
0.137105 0.127753 0.004721
0.139725 0.128117 0.004947
0.162128 0.131229 0.006878
0.229167 0.140510 0.013429
0.327786 0.155035 0.030588
0.436561 0.176502 0.065000
0.538739 0.203604 0.095926
0.619631 0.230803 0.123188
0.672435 0.251585 0.143137
0.714643 0.270058 0.160455
0.752468 0.287541 0.176495
0.788075 0.301021 0.187317
0.825131 0.304802 0.185608
0.854112 0.306379 0.182982
0.871231 0.306992 0.181253
0.873207 0.307063 0.181054
0.045371 0.115793 0.000060
0.069314 0.118723 0.000185
0.093155 0.121687 0.001242
0.112567 0.124367 0.002743
0.126795 0.126363 0.003895
0.134739 0.127476 0.004537
0.136530 0.127726 0.004682
0.136739 0.127756 0.004699
0.136764 0.127759 0.004701
0.136767 0.127760 0.004701
0.136767 0.127760 0.004701
0.136767 0.127760 0.004701
0.136767 0.127760 0.004701
0.136767 0.127760 0.004701
0.136768 0.127760 0.004701
0.136772 0.127760 0.004702
0.136808 0.127765 0.004705
0.137114 0.127808 0.004731
0.139735 0.128172 0.004957
0.162137 0.131283 0.006889
0.229176 0.140565 0.013444
0.327794 0.155090 0.030612
0.436570 0.176556 0.065023
0.538747 0.203655 0.095947
0.619640 0.230851 0.123210
0.672443 0.251631 0.143160
0.714652 0.270102 0.160478
0.752478 0.287581 0.176515
0.788092 0.301054 0.187327
0.825150 0.304832 0.185614
0.854132 0.306408 0.182987
0.871252 0.307021 0.181258
0.873227 0.307092 0.181058
0.045372 0.115799 0.000060
0.069316 0.118730 0.000185
0.093156 0.121693 0.001243
0.112568 0.124374 0.002744
0.126796 0.126370 0.003896
0.134740 0.127482 0.004539
0.136531 0.127733 0.004683
0.136741 0.127762 0.004700
0.136765 0.127766 0.004702
0.136768 0.127766 0.004702
0.136768 0.127766 0.004703
0.136768 0.127766 0.004703
0.136768 0.127766 0.004703
0.136768 0.127766 0.004703
0.136769 0.127766 0.004703
0.136773 0.127767 0.004703
0.136809 0.127772 0.004706
0.137115 0.127814 0.004733
0.139736 0.128178 0.004959
0.162138 0.131290 0.006890
0.229177 0.140571 0.013446
0.327795 0.155097 0.030614
0.436571 0.176562 0.065026
0.538748 0.203661 0.095950
0.619641 0.230857 0.123213
0.672444 0.251636 0.143162
0.714653 0.270107 0.160481
0.752479 0.287586 0.176517
0.788094 0.301058 0.187328
0.825152 0.304835 0.185615
0.854134 0.306411 0.182988
0.871254 0.307024 0.181258
0.873229 0.307095 0.181059
0.045373 0.115800 0.000060
0.069316 0.118730 0.000185
0.093156 0.121694 0.001243
0.112568 0.124375 0.002744
0.126796 0.126370 0.003896
0.134740 0.127483 0.004539
0.136531 0.127734 0.004683
0.136741 0.127763 0.004700
0.136765 0.127766 0.004702
0.136768 0.127767 0.004703
0.136768 0.127767 0.004703
0.136768 0.127767 0.004703
0.136768 0.127767 0.004703
0.136768 0.127767 0.004703
0.136769 0.127767 0.004703
0.136773 0.127767 0.004703
0.136809 0.127772 0.004706
0.137115 0.127815 0.004733
0.139736 0.128179 0.004959
0.162138 0.131290 0.006890
0.229177 0.140572 0.013446
0.327795 0.155098 0.030615
0.436571 0.176563 0.065026
0.538748 0.203661 0.095950
0.619641 0.230857 0.123213
0.672445 0.251637 0.143163
0.714653 0.270107 0.160481
0.752479 0.287586 0.176517
0.788094 0.301058 0.187328
0.825153 0.304836 0.185615
0.854135 0.306411 0.182988
0.871254 0.307025 0.181258
0.873230 0.307096 0.181059
0.045373 0.115800 0.000060
0.069316 0.118731 0.000185
0.093156 0.121694 0.001243
0.112568 0.124375 0.002744
0.126796 0.126370 0.003896
0.134740 0.127483 0.004539
0.136531 0.127734 0.004683
0.136741 0.127763 0.004700
0.136765 0.127766 0.004702
0.136768 0.127767 0.004703
0.136768 0.127767 0.004703
0.136768 0.127767 0.004703
0.136768 0.127767 0.004703
0.136769 0.127767 0.004703
0.136769 0.127767 0.004703
0.136773 0.127768 0.004703
0.136809 0.127773 0.004706
0.137116 0.127815 0.004733
0.139736 0.128179 0.004959
0.162138 0.131290 0.006890
0.229177 0.140572 0.013446
0.327795 0.155098 0.030615
0.436571 0.176563 0.065026
0.538748 0.203662 0.095950
0.619641 0.230857 0.123213
0.672445 0.251637 0.143163
0.714653 0.270107 0.160481
0.752480 0.287586 0.176517
0.788094 0.301058 0.187328
0.825153 0.304836 0.185615
0.854135 0.306412 0.182988
0.871254 0.307025 0.181258
0.873230 0.307096 0.181059
0.045373 0.115800 0.000060
0.069316 0.118731 0.000185
0.093156 0.121694 0.001243
0.112568 0.124375 0.002744
0.126796 0.126370 0.003896
0.134740 0.127483 0.004539
0.136531 0.127734 0.004683
0.136741 0.127763 0.004700
0.136765 0.127766 0.004702
0.136768 0.127767 0.004703
0.136768 0.127767 0.004703
0.136768 0.127767 0.004703
0.136768 0.127767 0.004703
0.136769 0.127767 0.004703
0.136769 0.127767 0.004703
0.136773 0.127768 0.004703
0.136809 0.127773 0.004706
0.137116 0.127815 0.004733
0.139736 0.128179 0.004959
0.162138 0.131290 0.006890
0.229177 0.140572 0.013446
0.327795 0.155098 0.030615
0.436571 0.176563 0.065026
0.538748 0.203662 0.095950
0.619641 0.230858 0.123213
0.672445 0.251637 0.143163
0.714653 0.270107 0.160481
0.752480 0.287586 0.176517
0.788094 0.301058 0.187328
0.825153 0.304836 0.185615
0.854135 0.306412 0.182988
0.871254 0.307025 0.181258
0.873230 0.307096 0.181059
0.045373 0.115800 0.000060
0.069316 0.118731 0.000185
0.093156 0.121694 0.001243
0.112568 0.124375 0.002744
0.126796 0.126370 0.003896
0.134740 0.127483 0.004539
0.136531 0.127734 0.004683
0.136741 0.127763 0.004700
0.136765 0.127766 0.004702
0.136768 0.127767 0.004703
0.136768 0.127767 0.004703
0.136768 0.127767 0.004703
0.136768 0.127767 0.004703
0.136769 0.127767 0.004703
0.136769 0.127767 0.004703
0.136773 0.127768 0.004703
0.136809 0.127773 0.004706
0.137116 0.127815 0.004733
0.139736 0.128179 0.004959
0.162138 0.131290 0.006890
0.229177 0.140572 0.013446
0.327795 0.155098 0.030615
0.436571 0.176563 0.065026
0.538748 0.203662 0.095950
0.619641 0.230858 0.123213
0.672445 0.251637 0.143163
0.714653 0.270107 0.160481
0.752480 0.287586 0.176517
0.788094 0.301058 0.187328
0.825153 0.304836 0.185615
0.854135 0.306412 0.182988
0.871254 0.307025 0.181258
0.873230 0.307096 0.181059
0.045373 0.115800 0.000060
0.069316 0.118731 0.000185
0.093156 0.121694 0.001243
0.112568 0.124375 0.002744
0.126796 0.126371 0.003896
0.134740 0.127483 0.004539
0.136531 0.127734 0.004684
0.136741 0.127763 0.004700
0.136765 0.127767 0.004702
0.136768 0.127767 0.004703
0.136768 0.127767 0.004703
0.136768 0.127767 0.004703
0.136768 0.127767 0.004703
0.136769 0.127767 0.004703
0.136769 0.127767 0.004703
0.136773 0.127768 0.004703
0.136809 0.127773 0.004706
0.137116 0.127815 0.004733
0.139736 0.128179 0.004959
0.162138 0.131291 0.006890
0.229177 0.140572 0.013446
0.327795 0.155098 0.030615
0.436571 0.176563 0.065026
0.538748 0.203662 0.095950
0.619641 0.230858 0.123213
0.672445 0.251637 0.143163
0.714653 0.270107 0.160481
0.752480 0.287586 0.176517
0.788094 0.301058 0.187328
0.825153 0.304836 0.185615
0.854135 0.306412 0.182988
0.871254 0.307025 0.181258
0.873230 0.307096 0.181059
0.045373 0.115801 0.000061
0.069316 0.118731 0.000185
0.093156 0.121695 0.001243
0.112568 0.124375 0.002745
0.126796 0.126371 0.003896
0.134740 0.127484 0.004539
0.136531 0.127734 0.004684
0.136741 0.127764 0.004701
0.136765 0.127767 0.004703
0.136768 0.127768 0.004703
0.136769 0.127768 0.004703
0.136769 0.127768 0.004703
0.136769 0.127768 0.004703
0.136769 0.127768 0.004703
0.136769 0.127768 0.004703
0.136773 0.127768 0.004703
0.136809 0.127773 0.004706
0.137116 0.127816 0.004733
0.139736 0.128180 0.004959
0.162138 0.131291 0.006890
0.229177 0.140573 0.013446
0.327795 0.155098 0.030615
0.436571 0.176563 0.065026
0.538749 0.203662 0.095951
0.619641 0.230858 0.123214
0.672445 0.251638 0.143163
0.714653 0.270108 0.160481
0.752480 0.287587 0.176517
0.788095 0.301059 0.187329
0.825153 0.304836 0.185615
0.854135 0.306412 0.182988
0.871255 0.307025 0.181258
0.873230 0.307096 0.181059
0.045374 0.115806 0.000061
0.069317 0.118737 0.000186
0.093157 0.121700 0.001245
0.112569 0.124381 0.002746
0.126797 0.126377 0.003898
0.134741 0.127489 0.004540
0.136532 0.127740 0.004685
0.136742 0.127769 0.004702
0.136766 0.127773 0.004704
0.136769 0.127773 0.004704
0.136769 0.127773 0.004704
0.136769 0.127773 0.004704
0.136770 0.127773 0.004704
0.136770 0.127773 0.004704
0.136770 0.127773 0.004704
0.136774 0.127774 0.004705
0.136810 0.127779 0.004708
0.137117 0.127821 0.004734
0.139737 0.128185 0.004960
0.162139 0.131297 0.006892
0.229178 0.140578 0.013448
0.327796 0.155104 0.030617
0.436572 0.176569 0.065029
0.538749 0.203667 0.095953
0.619642 0.230863 0.123216
0.672446 0.251643 0.143165
0.714654 0.270112 0.160484
0.752481 0.287591 0.176519
0.788096 0.301062 0.187329
0.825155 0.304840 0.185616
0.854137 0.306415 0.182988
0.871257 0.307029 0.181259
0.873232 0.307099 0.181059
0.045382 0.115853 0.000068
0.069325 0.118783 0.000195
0.093165 0.121747 0.001254
0.112577 0.124428 0.002756
0.126805 0.126424 0.003908
0.134749 0.127536 0.004551
0.136540 0.127787 0.004696
0.136750 0.127816 0.004713
0.136774 0.127820 0.004715
0.136777 0.127820 0.004715
0.136777 0.127820 0.004715
0.136778 0.127820 0.004715
0.136778 0.127820 0.004715
0.136778 0.127820 0.004715
0.136778 0.127820 0.004715
0.136782 0.127821 0.004716
0.136818 0.127826 0.004719
0.137125 0.127868 0.004745
0.139745 0.128232 0.004972
0.162147 0.131344 0.006905
0.229187 0.140625 0.013464
0.327804 0.155151 0.030638
0.436579 0.176615 0.065049
0.538757 0.203712 0.095973
0.619650 0.230905 0.123236
0.672453 0.251683 0.143185
0.714663 0.270151 0.160502
0.752492 0.287626 0.176534
0.788112 0.301092 0.187337
0.825173 0.304868 0.185620
0.854155 0.306443 0.182992
0.871275 0.307056 0.181262
0.873250 0.307127 0.181063
0.045454 0.116251 0.000122
0.069396 0.119183 0.000265
0.093230 0.122148 0.001336
0.112643 0.124829 0.002843
0.126872 0.126825 0.003999
0.134817 0.127937 0.004644
0.136609 0.128188 0.004790
0.136818 0.128217 0.004807
0.136843 0.128221 0.004809
0.136846 0.128221 0.004809
0.136846 0.128221 0.004809
0.136846 0.128221 0.004809
0.136846 0.128221 0.004809
0.136846 0.128221 0.004809
0.136847 0.128221 0.004809
0.136851 0.128222 0.004809
0.136887 0.128227 0.004813
0.137193 0.128269 0.004840
0.139814 0.128633 0.005069
0.162217 0.131745 0.007011
0.229257 0.141027 0.013598
0.327869 0.155553 0.030826
0.436644 0.177009 0.065225
0.538822 0.204091 0.096144
0.619714 0.231267 0.123409
0.672520 0.252029 0.143357
0.714736 0.270479 0.160664
0.752586 0.287926 0.176663
0.788253 0.301344 0.187393
0.825325 0.305106 0.185655
0.854309 0.306679 0.183021
0.871428 0.307293 0.181290
0.873404 0.307364 0.181090
0.046066 0.119657 0.000570
0.070007 0.122594 0.000873
0.093787 0.125576 0.002042
0.113206 0.128260 0.003592
0.127448 0.130255 0.004776
0.135400 0.131367 0.005439
0.137194 0.131617 0.005590
0.137404 0.131646 0.005608
0.137428 0.131650 0.005610
0.137431 0.131650 0.005611
0.137431 0.131650 0.005611
0.137431 0.131650 0.005611
0.137431 0.131650 0.005611
0.137432 0.131650 0.005611
0.137432 0.131650 0.005611
0.137436 0.131651 0.005611
0.137472 0.131656 0.005615
0.137779 0.131698 0.005644
0.140402 0.132062 0.005887
0.162815 0.135173 0.007904
0.229861 0.144457 0.014720
0.328421 0.158996 0.032493
0.437198 0.180388 0.066724
0.539375 0.207335 0.097599
0.620266 0.234358 0.124894
0.673084 0.254989 0.144835
0.715349 0.273299 0.162069
0.753364 0.290518 0.177804
0.789485 0.303460 0.187826
0.826638 0.307134 0.185933
0.855627 0.308699 0.183265
0.872743 0.309316 0.181523
0.874718 0.309388 0.181321
0.051301 0.148772 0.004218
0.075280 0.151748 0.006115
0.098489 0.154904 0.008130
0.118009 0.157598 0.009999
0.132376 0.159581 0.011430
0.140391 0.160686 0.012243
0.142198 0.160934 0.012434
0.142409 0.160963 0.012457
0.142434 0.160967 0.012460
0.142437 0.160967 0.012461
0.142437 0.160967 0.012461
0.142437 0.160967 0.012461
0.142437 0.160967 0.012461
0.142437 0.160967 0.012461
0.142438 0.160967 0.012461
0.142442 0.160968 0.012461
0.142478 0.160973 0.012466
0.142786 0.161015 0.012505
0.145419 0.161377 0.012824
0.167931 0.164479 0.015375
0.235092 0.173776 0.023992
0.333091 0.188517 0.047479
0.441938 0.209343 0.079416
0.544106 0.235093 0.109971
0.624972 0.260761 0.137629
0.677872 0.280307 0.157539
0.720466 0.297493 0.174278
0.759723 0.312920 0.188013
0.800400 0.321163 0.190966
0.837937 0.324387 0.188191
0.866902 0.325959 0.185329
0.883980 0.326616 0.183511
0.885949 0.326692 0.183300
0.062675 0.217736 0.021508
0.086529 0.220838 0.024092
0.110306 0.223970 0.027224
0.130405 0.226568 0.031108
0.145111 0.228476 0.034178
0.153280 0.229540 0.035940
0.155115 0.229780 0.036331
0.155328 0.229808 0.036374
0.155353 0.229812 0.036379
0.155356 0.229812 0.036379
0.155356 0.229812 0.036380
0.155356 0.229812 0.036380
0.155356 0.229812 0.036380
0.155356 0.229812 0.036380
0.155357 0.229812 0.036380
0.155361 0.229813 0.036380
0.155397 0.229818 0.036388
0.155705 0.229859 0.036451
0.158348 0.230214 0.037019
0.181050 0.233238 0.042190
0.248193 0.242437 0.058079
0.345706 0.257177 0.081750
0.454249 0.277085 0.110651
0.556117 0.300781 0.141627
0.637091 0.323853 0.169050
0.690855 0.340916 0.187165
0.735896 0.354660 0.199475
0.783666 0.362101 0.198608
0.827720 0.366907 0.195306
0.865386 0.369815 0.191482
0.894186 0.371458 0.188238
0.911145 0.372205 0.186234
0.913098 0.372292 0.186001
0.094924 0.312053 0.073807
0.117439 0.315029 0.077513
0.140135 0.318048 0.081421
0.159321 0.320607 0.084941
0.173421 0.322495 0.087614
0.181273 0.323551 0.089128
0.183036 0.323789 0.089471
0.183241 0.323817 0.089511
0.183265 0.323820 0.089515
0.183267 0.323821 0.089516
0.183268 0.323821 0.089516
0.183268 0.323821 0.089516
0.183268 0.323821 0.089516
0.183268 0.323821 0.089516
0.183268 0.323821 0.089516
0.183272 0.323821 0.089517
0.183307 0.323826 0.089524
0.183603 0.323868 0.089583
0.186151 0.324222 0.090099
0.208071 0.327241 0.094533
0.273192 0.336450 0.108423
0.368369 0.351086 0.130967
0.475114 0.370194 0.159580
0.576494 0.391904 0.188003
0.659915 0.411303 0.207610
0.721486 0.422201 0.207551
0.773628 0.430039 0.204769
0.822505 0.435840 0.200170
0.866628 0.440057 0.195192
0.903995 0.442904 0.190526
0.932431 0.444639 0.186743
0.949110 0.445485 0.184449
0.951012 0.445584 0.184187
0.151771 0.415814 0.136364
0.170340 0.418743 0.140284
0.189746 0.421720 0.144372
0.206551 0.424252 0.147944
0.219095 0.426124 0.150632
0.226127 0.427175 0.152120
0.227709 0.427414 0.152444
0.227893 0.427442 0.152480
0.227914 0.427446 0.152484
0.227917 0.427446 0.152484
0.227917 0.427446 0.152484
0.227917 0.427446 0.152484
0.227917 0.427446 0.152484
0.227917 0.427446 0.152484
0.227918 0.427446 0.152484
0.227921 0.427447 0.152485
0.227953 0.427452 0.152490
0.228223 0.427494 0.152539
0.230543 0.427853 0.152977
0.250477 0.430897 0.156995
0.310779 0.440158 0.169731
0.401170 0.454723 0.190245
0.505069 0.473152 0.213802
0.610012 0.492348 0.214101
0.699862 0.507387 0.209850
0.762628 0.516495 0.204236
0.815346 0.523125 0.198287
0.864152 0.528369 0.191948
0.908019 0.532353 0.185689
0.944899 0.535170 0.180028
0.972049 0.536983 0.175561
0.987347 0.537955 0.173043
0.989003 0.538073 0.172774
0.213801 0.514323 0.199450
0.229217 0.517256 0.203185
0.245668 0.520242 0.207043
0.260165 0.522785 0.210388
0.271110 0.524670 0.212871
0.277139 0.525764 0.213936
0.278463 0.526023 0.214076
0.278620 0.526053 0.214093
0.278639 0.526057 0.214095
0.278641 0.526057 0.214095
0.278642 0.526057 0.214095
0.278642 0.526057 0.214095
0.278642 0.526057 0.214095
0.278642 0.526057 0.214095
0.278642 0.526057 0.214095
0.278645 0.526058 0.214095
0.278673 0.526063 0.214097
0.278910 0.526109 0.214110
0.280903 0.526502 0.214204
0.297613 0.529901 0.214776
0.349980 0.540214 0.215945
0.433876 0.555913 0.216249
0.536945 0.574254 0.213737
0.643113 0.591797 0.205957
0.734192 0.605295 0.196358
0.797405 0.613587 0.188143
0.850335 0.619708 0.180277
0.899189 0.624658 0.172298
0.942839 0.628513 0.164608
0.978087 0.631337 0.157779
0.995056 0.633324 0.152930
0.998196 0.634916 0.152099
0.998657 0.635098 0.152006
0.235162 0.598805 0.210577
0.248567 0.602095 0.211067
0.263180 0.605442 0.211523
0.276282 0.608291 0.211858
0.286310 0.610399 0.212065
0.292019 0.611581 0.212137
0.293314 0.611848 0.212148
0.293467 0.611879 0.212151
0.293485 0.611883 0.212151
0.293487 0.611883 0.212151
0.293487 0.611883 0.212151
0.293487 0.611883 0.212151
0.293487 0.611883 0.212151
0.293488 0.611883 0.212151
0.293488 0.611884 0.212151
0.293491 0.611884 0.212151
0.293519 0.611890 0.212151
0.293752 0.611936 0.212150
0.295740 0.612331 0.212129
0.312656 0.615717 0.211882
0.365855 0.625912 0.210548
0.451220 0.641233 0.206674
0.556234 0.658833 0.198959
0.664129 0.675445 0.187423
0.756379 0.688207 0.174691
0.820207 0.696093 0.164302
0.873526 0.701968 0.154633
0.922556 0.706790 0.145264
0.965596 0.710639 0.136828
0.994339 0.713602 0.129680
0.998940 0.716416 0.128485
0.999709 0.718417 0.129557
0.999828 0.718644 0.129666
0.234213 0.657464 0.202249
0.248267 0.660789 0.202174
0.263502 0.664170 0.202012
0.277115 0.667046 0.201799
0.287513 0.669171 0.201593
0.293437 0.670358 0.201458
0.294782 0.670626 0.201427
0.294940 0.670657 0.201423
0.294958 0.670661 0.201423
0.294961 0.670661 0.201423
0.294961 0.670661 0.201423
0.294961 0.670661 0.201423
0.294961 0.670661 0.201423
0.294961 0.670661 0.201423
0.294961 0.670661 0.201423
0.294965 0.670662 0.201423
0.294993 0.670667 0.201422
0.295235 0.670713 0.201414
0.297296 0.671107 0.201345
0.314892 0.674467 0.200736
