luts/silbersalz-250d_v1-bridged_33.cube
TITLE "silbersalz-250d_v1-bridged_33"
# Generated by silbersalz-look on 2026-08-23
# Input:  Silbersalz flat-scan code values [0,1] (Display P3 tagged)
# Output: graded display code values (Display P3)
# track: v1-bridged
# base: silbersalz-gold200_v1-paired_33.cube
LUT_3D_SIZE 5
DOMAIN_MIN 0.0 0.0 0.0
DOMAIN_MAX 1.0 1.0 1.0
0.000000 0.016709 0.003909
0.000721 0.016505 0.003932
0.209231 0.013794 0.012217
0.741228 0.017448 0.027143
1.000000 0.013421 0.016482
0.009837 0.085121 0.002063
0.013068 0.084519 0.002031
0.222126 0.067984 0.008883
0.754571 0.063524 0.031882
1.000000 0.059687 0.022769
0.073592 0.355782 0.001624
0.076921 0.354349 0.001371
0.283022 0.296933 0.001086
0.798335 0.260042 0.039503
1.000000 0.256426 0.036039
0.193461 0.764789 0.010614
0.197568 0.763484 0.010409
0.428050 0.701825 0.006982
0.879531 0.641255 0.033154
1.000000 0.632067 0.033961
0.302560 1.000000 0.017774
0.307663 1.000000 0.017689
0.576455 0.990547 0.015320
0.961564 0.967055 0.020080
1.000000 0.959963 0.018489
0.000000 0.010743 0.045837
0.000000 0.010623 0.045770
0.189100 0.013737 0.055890
0.716989 0.018448 0.072881
0.986698 0.013327 0.060160
0.000000 0.068664 0.039970
0.000131 0.067667 0.039749
0.192619 0.055468 0.047040
0.730939 0.058226 0.076891
0.996173 0.056166 0.065672
0.053229 0.325695 0.033776
0.055972 0.323655 0.033299
0.226020 0.247918 0.020315
0.768937 0.230298 0.083241
1.000000 0.240388 0.075997
0.164389 0.740875 0.039317
0.167979 0.739238 0.038910
0.367191 0.662770 0.025950
0.842187 0.605464 0.064499
1.000000 0.609386 0.064520
0.266480 0.997464 0.046491
0.271297 0.997274 0.046318
0.527991 0.980993 0.039345
0.934855 0.955930 0.040459
1.000000 0.950161 0.038397
0.000000 0.021384 0.260180
0.000000 0.021711 0.260130
0.155613 0.038096 0.271086
0.637163 0.028749 0.272993
0.911027 0.015150 0.257874
0.000000 0.069245 0.240020
0.000000 0.069020 0.239379
0.171217 0.083786 0.249977
0.670278 0.063350 0.261008
0.939204 0.051922 0.255731
0.022744 0.286460 0.209557
0.025103 0.284204 0.208296
0.165982 0.222218 0.180496
0.739832 0.197885 0.227201
0.997838 0.206567 0.241805
0.098563 0.691408 0.206371
0.101472 0.689284 0.205317
0.247970 0.598377 0.151722
0.787992 0.539994 0.196607
1.000000 0.555582 0.198467
0.169571 0.987515 0.213917
0.173694 0.986994 0.213527
0.400864 0.963988 0.191080
0.871923 0.944841 0.156824
1.000000 0.937524 0.157496
0.000000 0.032579 0.681100
0.000000 0.032772 0.680984
0.081364 0.040854 0.680315
0.478480 0.028564 0.669780
0.754409 0.010867 0.652600
0.000000 0.084164 0.662706
0.000000 0.084115 0.662336
0.082187 0.086647 0.658654
0.526354 0.071433 0.660668
0.802813 0.049727 0.646248
0.000000 0.292158 0.625326
0.000000 0.290835 0.624446
0.068238 0.244936 0.598531
0.661302 0.247237 0.642096
0.925393 0.219637 0.618036
0.035515 0.675047 0.610521
0.037863 0.673437 0.609856
0.179631 0.608880 0.583773
0.770540 0.593704 0.567669
0.995552 0.591061 0.564068
0.074763 0.979270 0.610068
0.078272 0.978902 0.610005
0.284600 0.966402 0.604574
0.821520 0.983745 0.550185
1.000000 0.971464 0.552973
0.000000 0.022396 0.988444
0.000000 0.022335 0.988342
0.022410 0.019220 0.984795
0.340594 0.008592 0.976443
0.618247 0.000000 0.962982
0.000000 0.077807 0.981112
0.000000 0.077577 0.980999
0.025238 0.067367 0.979444
0.381489 0.052598 0.981145
0.671106 0.037017 0.965131
0.000000 0.297365 0.963494
0.000000 0.296638 0.963446
0.038651 0.265758 0.971823
0.499179 0.252337 0.999961
0.820561 0.231392 0.977698
0.000000 0.679590 0.950878
0.000132 0.678837 0.951118
0.113103 0.649784 0.975192
0.658800 0.674725 1.000000
0.968312 0.654705 0.997220
0.023028 0.977026 0.941596
0.026076 0.976831 0.942005
0.219646 0.972334 0.966921
0.790992 0.999318 0.999834
1.000000 0.979411 0.998798
