luts/silbersalz-500t_v1.1-paired_33.cube
TITLE "500t_stageC_holdout"
# Generated by saltgate on 2026-08-24
# Input:  Silbersalz flat-scan code values [0,1] (Display P3 tagged)
# Output: graded display code values (Display P3)
# pairs: 5
LUT_3D_SIZE 33
DOMAIN_MIN 0.0 0.0 0.0
DOMAIN_MAX 1.0 1.0 1.0
0.080831 0.042180 0.005543
0.085008 0.042268 0.005794
0.093378 0.042439 0.006307
0.105966 0.042682 0.007099
0.122798 0.042981 0.008198
0.143883 0.043321 0.009635
0.169199 0.043683 0.011446
0.198669 0.044050 0.013663
0.232151 0.044408 0.016318
0.269417 0.044744 0.019430
0.310152 0.045047 0.023013
0.353948 0.045312 0.027065
0.400312 0.045536 0.031573
0.448669 0.045718 0.036515
0.498383 0.045865 0.041855
0.548773 0.045984 0.047549
0.599129 0.046088 0.053547
0.648742 0.046189 0.059789
0.696916 0.046301 0.066210
0.743000 0.046437 0.072737
0.786406 0.046605 0.079293
0.826625 0.046812 0.085799
0.863246 0.047060 0.092168
0.895968 0.047347 0.098317
0.924605 0.047665 0.104159
0.949091 0.048004 0.109608
0.969477 0.048350 0.114584
0.985930 0.048688 0.119010
0.998723 0.049002 0.122815
1.000000 0.049275 0.125939
1.000000 0.049494 0.128328
1.000000 0.049647 0.129944
1.000000 0.049725 0.130759
0.080292 0.042805 0.004964
0.084449 0.042896 0.005207
0.092781 0.043071 0.005702
0.105316 0.043320 0.006468
0.122082 0.043628 0.007534
0.143094 0.043976 0.008933
0.168332 0.044348 0.010700
0.197725 0.044726 0.012873
0.231135 0.045095 0.015482
0.268339 0.045443 0.018550
0.309022 0.045760 0.022091
0.352780 0.046039 0.026104
0.399118 0.046277 0.030577
0.447464 0.046475 0.035486
0.497182 0.046639 0.040795
0.547589 0.046776 0.046462
0.597978 0.046898 0.052433
0.647635 0.047018 0.058649
0.695866 0.047150 0.065044
0.742018 0.047306 0.071546
0.785500 0.047496 0.078077
0.825802 0.047727 0.084557
0.862511 0.047998 0.090902
0.895323 0.048309 0.097025
0.924051 0.048652 0.102842
0.948626 0.049014 0.108267
0.969097 0.049383 0.113221
0.985628 0.049742 0.117626
0.998489 0.050073 0.121413
1.000000 0.050362 0.124521
1.000000 0.050593 0.126898
1.000000 0.050754 0.128506
1.000000 0.050836 0.129317
0.079253 0.044104 0.003851
0.083372 0.044199 0.004075
0.091630 0.044384 0.004536
0.104060 0.044646 0.005252
0.120697 0.044969 0.006253
0.141562 0.045335 0.007576
0.166646 0.045726 0.009259
0.195889 0.046125 0.011343
0.229157 0.046517 0.013862
0.266236 0.046889 0.016843
0.306816 0.047232 0.020301
0.350496 0.047540 0.024238
0.396782 0.047808 0.028639
0.445104 0.048038 0.033482
0.494826 0.048235 0.038731
0.545266 0.048407 0.044341
0.595714 0.048566 0.050259
0.645458 0.048724 0.056423
0.693799 0.048897 0.062767
0.740084 0.049095 0.069218
0.783716 0.049330 0.075698
0.824181 0.049606 0.082127
0.861063 0.049925 0.088420
0.894053 0.050284 0.094492
0.922959 0.050675 0.100258
0.947709 0.051085 0.105635
0.968346 0.051498 0.110542
0.985031 0.051898 0.114905
0.998028 0.052266 0.118655
1.000000 0.052585 0.121732
1.000000 0.052840 0.124086
1.000000 0.053017 0.125677
1.000000 0.053108 0.126479
0.077789 0.046171 0.002284
0.081853 0.046273 0.002484
0.090004 0.046471 0.002894
0.102282 0.046752 0.003537
0.118730 0.047098 0.004445
0.139382 0.047491 0.005658
0.164242 0.047912 0.007218
0.193261 0.048342 0.009172
0.226320 0.048767 0.011560
0.263213 0.049176 0.014413
0.303638 0.049559 0.017748
0.347198 0.049909 0.021570
0.393403 0.050224 0.025867
0.441683 0.050503 0.030612
0.491405 0.050750 0.035771
0.541886 0.050975 0.041295
0.592417 0.051190 0.047131
0.642283 0.051406 0.053216
0.690783 0.051639 0.059482
0.737258 0.051902 0.065856
0.781107 0.052203 0.072258
0.821810 0.052548 0.078608
0.858943 0.052939 0.084822
0.892193 0.053371 0.090815
0.921359 0.053833 0.096504
0.946364 0.054313 0.101807
0.967245 0.054793 0.106644
0.984155 0.055255 0.110943
0.997351 0.055678 0.114636
1.000000 0.056043 0.117666
1.000000 0.056333 0.119982
1.000000 0.056535 0.121548
1.000000 0.056638 0.122338
0.076006 0.049146 0.000382
0.080001 0.049258 0.000549
0.088017 0.049473 0.000897
0.100101 0.049778 0.001448
0.116308 0.050156 0.002238
0.136688 0.050584 0.003310
0.161258 0.051043 0.004714
0.189988 0.051515 0.006501
0.222774 0.051986 0.008719
0.259421 0.052444 0.011405
0.299639 0.052880 0.014582
0.343035 0.053288 0.018255
0.389124 0.053664 0.022412
0.437340 0.054008 0.027029
0.487050 0.054325 0.032066
0.537574 0.054622 0.037477
0.588203 0.054911 0.043203
0.638217 0.055206 0.049182
0.686915 0.055521 0.055342
0.733629 0.055869 0.061609
0.777753 0.056260 0.067904
0.818758 0.056698 0.074146
0.856213 0.057184 0.080251
0.889795 0.057711 0.086137
0.919296 0.058270 0.091720
0.944628 0.058843 0.096921
0.965822 0.059412 0.101662
0.983021 0.059954 0.105873
0.996474 0.060449 0.109490
1.000000 0.060875 0.112455
1.000000 0.061212 0.114722
1.000000 0.061446 0.116253
1.000000 0.061566 0.117026
0.074033 0.053210 0.000000
0.077947 0.053332 0.000000
0.085806 0.053569 0.000000
0.097663 0.053905 0.000000
0.113589 0.054320 0.000000
0.133646 0.054791 0.000696
0.157873 0.055299 0.001915
0.186256 0.055823 0.003505
0.218709 0.056351 0.005521
0.255055 0.056871 0.008006
0.295012 0.057374 0.010990
0.338197 0.057855 0.014480
0.384131 0.058309 0.018467
0.432251 0.058737 0.022924
0.481930 0.059141 0.027811
0.532489 0.059530 0.033079
0.583218 0.059914 0.038666
0.633397 0.060309 0.044508
0.682318 0.060727 0.050532
0.729310 0.061183 0.056662
0.773755 0.061685 0.062819
0.815116 0.062239 0.068922
0.852952 0.062843 0.074887
0.886927 0.063490 0.080633
0.916825 0.064168 0.086080
0.942548 0.064856 0.091149
0.964115 0.065535 0.095768
0.981659 0.066178 0.099867
0.995419 0.066762 0.103385
1.000000 0.067262 0.106268
1.000000 0.067658 0.108470
1.000000 0.067931 0.109958
1.000000 0.068071 0.110708
0.072008 0.058580 0.000000
0.075834 0.058715 0.000000
0.083520 0.058976 0.000000
0.095131 0.059347 0.000000
0.110745 0.059806 0.000000
0.130445 0.060329 0.000000
0.154285 0.060895 0.000000
0.182274 0.061482 0.000379
0.214345 0.062079 0.002166
0.250337 0.062673 0.004423
0.289981 0.063258 0.007184
0.332905 0.063828 0.010462
0.378638 0.064378 0.014249
0.426625 0.064907 0.018517
0.476242 0.065418 0.023224
0.526816 0.065919 0.028319
0.577636 0.066419 0.033738
0.627983 0.066934 0.039412
0.677143 0.067478 0.045269
0.724435 0.068063 0.051230
0.769234 0.068699 0.057215
0.810991 0.069391 0.063143
0.849252 0.070137 0.068934
0.883670 0.070926 0.074507
0.914015 0.071744 0.079785
0.940178 0.072570 0.084692
0.962167 0.073378 0.089158
0.980103 0.074141 0.093119
0.994211 0.074829 0.096516
1.000000 0.075417 0.099297
1.000000 0.075881 0.101421
1.000000 0.076202 0.102856
1.000000 0.076366 0.103579
0.070067 0.065503 0.000000
0.073802 0.065652 0.000000
0.081311 0.065940 0.000000
0.092665 0.066350 0.000000
0.107955 0.066859 0.000000
0.127277 0.067442 0.000000
0.150704 0.068074 0.000000
0.178265 0.068736 0.000000
0.209913 0.069414 0.000000
0.245503 0.070097 0.000874
0.284784 0.070779 0.003389
0.327396 0.071454 0.006429
0.372878 0.072117 0.009988
0.420686 0.072767 0.014039
0.470202 0.073406 0.018538
0.520760 0.074038 0.023431
0.571652 0.074676 0.028650
0.622155 0.075332 0.034125
0.671553 0.076021 0.039781
0.719156 0.076757 0.045537
0.764326 0.077549 0.051314
0.806504 0.078401 0.057033
0.845219 0.079309 0.062613
0.880114 0.080263 0.067977
0.910943 0.081243 0.073051
0.937584 0.082225 0.077763
0.960031 0.083181 0.082047
0.978393 0.084080 0.085842
0.992880 0.084888 0.089094
1.000000 0.085576 0.091754
1.000000 0.086118 0.093785
1.000000 0.086492 0.095156
1.000000 0.086683 0.095846
0.068332 0.074252 0.000000
0.071979 0.074415 0.000000
0.079314 0.074732 0.000000
0.090414 0.075184 0.000000
0.105381 0.075747 0.000000
0.124321 0.076395 0.000000
0.147326 0.077104 0.000000
0.174440 0.077851 0.000000
0.205636 0.078623 0.000000
0.240787 0.079410 0.000000
0.279659 0.080205 0.000000
0.321908 0.081002 0.002602
0.367087 0.081798 0.005910
0.414664 0.082588 0.009719
0.464033 0.083373 0.013984
0.514534 0.084158 0.018645
0.565465 0.084953 0.023634
0.616102 0.085770 0.028877
0.665723 0.086626 0.034297
0.713630 0.087533 0.039812
0.759174 0.088501 0.045345
0.801780 0.089533 0.050815
0.840965 0.090624 0.056147
0.876354 0.091760 0.061265
0.907689 0.092921 0.066099
0.934830 0.094078 0.070583
0.957760 0.095199 0.074653
0.976571 0.096247 0.078255
0.991459 0.097188 0.081337
1.000000 0.097988 0.083857
1.000000 0.098616 0.085778
1.000000 0.099049 0.087075
1.000000 0.099269 0.087728
0.066898 0.085109 0.000000
0.070463 0.085287 0.000000
0.077636 0.085633 0.000000
0.088497 0.086129 0.000000
0.103155 0.086751 0.000000
0.121727 0.087471 0.000000
0.144315 0.088263 0.000000
0.170979 0.089107 0.000000
0.201707 0.089986 0.000000
0.236392 0.090892 0.000000
0.274818 0.091817 0.000000
0.316657 0.092756 0.000000
0.361482 0.093702 0.002223
0.408776 0.094651 0.005768
0.457948 0.095602 0.009772
0.508347 0.096559 0.014175
0.559275 0.097530 0.018904
0.610012 0.098528 0.023882
0.659829 0.099568 0.029031
0.708019 0.100664 0.034270
0.753923 0.101826 0.039520
0.796951 0.103056 0.044704
0.836603 0.104346 0.049749
0.872490 0.105683 0.054584
0.904337 0.107040 0.059143
0.931989 0.108387 0.063364
0.955412 0.109686 0.067190
0.974683 0.110898 0.070570
0.989984 0.111983 0.073459
1.000000 0.112902 0.075818
1.000000 0.113623 0.077616
1.000000 0.114119 0.078828
1.000000 0.114372 0.079438
0.065829 0.098359 0.000000
0.069321 0.098552 0.000000
0.076347 0.098929 0.000000
0.086993 0.099471 0.000000
0.101368 0.100154 0.000000
0.119596 0.100951 0.000000
0.141787 0.101835 0.000000
0.168011 0.102786 0.000000
0.198271 0.103787 0.000000
0.232475 0.104827 0.000000
0.270428 0.105899 0.000000
0.311822 0.106996 0.000000
0.356249 0.108111 0.000000
0.403213 0.109238 0.002359
0.452138 0.110372 0.006082
0.502385 0.111517 0.010202
0.553266 0.112681 0.014642
0.604060 0.113876 0.019325
0.654034 0.115117 0.024170
0.702476 0.116419 0.029097
0.748713 0.117790 0.034029
0.792140 0.119232 0.038891
0.832244 0.120737 0.043613
0.868617 0.122287 0.048129
0.900968 0.123854 0.052378
0.929126 0.125403 0.056304
0.953041 0.126892 0.059856
0.972774 0.128276 0.062988
0.988490 0.129512 0.065661
1.000000 0.130558 0.067841
1.000000 0.131377 0.069500
1.000000 0.131941 0.070618
1.000000 0.132227 0.071180
0.065149 0.114275 0.000000
0.068577 0.114484 0.000000
0.075478 0.114892 0.000000
0.085934 0.115481 0.000000
0.100059 0.116229 0.000000
0.117976 0.117108 0.000000
0.139800 0.118093 0.000000
0.165607 0.119161 0.000000
0.195411 0.120296 0.000000
0.229135 0.121486 0.000000
0.266602 0.122721 0.000000
0.307527 0.123993 0.000000
0.351526 0.125293 0.000000
0.398121 0.126611 0.000000
0.446756 0.127945 0.003046
0.496807 0.129293 0.006862
0.547594 0.130664 0.010990
0.598398 0.132069 0.015350
0.648486 0.133525 0.019861
0.697137 0.135044 0.024445
0.743668 0.136636 0.029026
0.787461 0.138303 0.033532
0.827987 0.140033 0.037898
0.864822 0.141807 0.042063
0.897657 0.143593 0.045972
0.926305 0.145351 0.049574
0.950699 0.147037 0.052825
0.970884 0.148600 0.055685
0.987008 0.149993 0.058121
0.999312 0.151169 0.060105
1.000000 0.152089 0.061612
1.000000 0.152722 0.062627
1.000000 0.153043 0.063137
0.064847 0.133099 0.000000
0.068222 0.133324 0.000000
0.075017 0.133765 0.000000
0.085313 0.134404 0.000000
0.099220 0.135220 0.000000
0.116863 0.136187 0.000000
0.138355 0.137280 0.000000
0.163777 0.138476 0.000000
0.193148 0.139757 0.000000
0.226406 0.141110 0.000000
0.263391 0.142522 0.000000
0.303841 0.143983 0.000000
0.347395 0.145480 0.000000
0.393597 0.147004 0.000000
0.441912 0.148547 0.000741
0.491729 0.150110 0.004239
0.542378 0.151699 0.008035
0.593147 0.153325 0.012050
0.643301 0.155005 0.016203
0.692114 0.156752 0.020418
0.738894 0.158574 0.024620
0.783010 0.160472 0.028744
0.823919 0.162434 0.032727
0.861180 0.164438 0.036515
0.894469 0.166447 0.040057
0.923581 0.168420 0.043311
0.948432 0.170305 0.046239
0.969050 0.172049 0.048807
0.985568 0.173600 0.050989
0.998208 0.174909 0.052762
1.000000 0.175931 0.054106
1.000000 0.176632 0.055010
1.000000 0.176989 0.055465
0.064882 0.155025 0.000000
0.068214 0.155267 0.000000
0.074921 0.155743 0.000000
0.085083 0.156436 0.000000
0.098806 0.157325 0.000000
0.116211 0.158387 0.000000
0.137409 0.159595 0.000000
0.162480 0.160928 0.000000
0.191451 0.162366 0.000000
0.224269 0.163892 0.000000
0.260791 0.165492 0.000000
0.300777 0.167151 0.000000
0.343886 0.168856 0.000000
0.389687 0.170594 0.000000
0.437663 0.172356 0.000000
0.487220 0.174141 0.002364
0.537698 0.175955 0.005815
0.588391 0.177810 0.009469
0.638565 0.179721 0.013247
0.687491 0.181701 0.017073
0.734470 0.183758 0.020878
0.778860 0.185892 0.024599
0.820106 0.188089 0.028179
0.857751 0.190323 0.031570
0.891455 0.192557 0.034727
0.920996 0.194742 0.037615
0.946274 0.196826 0.040203
0.967300 0.198749 0.042465
0.984190 0.200457 0.044380
0.997151 0.201895 0.045931
1.000000 0.203017 0.047105
1.000000 0.203786 0.047893
1.000000 0.204178 0.048288
0.065192 0.180182 0.000000
0.068489 0.180442 0.000000
0.075125 0.180955 0.000000
0.085174 0.181706 0.000000
0.098742 0.182674 0.000000
0.115942 0.183836 0.000000
0.136882 0.185168 0.000000
0.161643 0.186645 0.000000
0.190251 0.188248 0.000000
0.222664 0.189955 0.000000
0.258755 0.191750 0.000000
0.298300 0.193616 0.000000
0.340982 0.195534 0.000000
0.386389 0.197490 0.000000
0.434024 0.199476 0.000000
0.483306 0.201489 0.001220
0.533588 0.203534 0.004319
0.584171 0.205621 0.007602
0.634324 0.207766 0.010993
0.683317 0.209982 0.014420
0.730446 0.212277 0.017817
0.775061 0.214646 0.021124
0.816594 0.217076 0.024290
0.854576 0.219538 0.027273
0.888651 0.221991 0.030035
0.918582 0.224384 0.032547
0.944251 0.226660 0.034786
0.965654 0.228757 0.036733
0.982891 0.230615 0.038373
0.996151 0.232177 0.039696
1.000000 0.233396 0.040694
1.000000 0.234231 0.041362
1.000000 0.234655 0.041697
0.065704 0.208615 0.000000
0.068973 0.208895 0.000000
0.075549 0.209449 0.000000
0.085506 0.210261 0.000000
0.098942 0.211313 0.000000
0.115966 0.212581 0.000000
0.136683 0.214042 0.000000
0.161170 0.215670 0.000000
0.189456 0.217442 0.000000
0.221507 0.219336 0.000000
0.257205 0.221331 0.000000
0.296346 0.223405 0.000000
0.338629 0.225540 0.000000
0.383663 0.227719 0.000000
0.430965 0.229931 0.000000
0.479971 0.232174 0.000751
0.530044 0.234450 0.003496
0.580492 0.236772 0.006405
0.630591 0.239153 0.009405
0.679610 0.241605 0.012430
0.726843 0.244133 0.015414
0.771634 0.246734 0.018305
0.813406 0.249392 0.021056
0.851676 0.252074 0.023629
0.886076 0.254737 0.025994
0.916354 0.257329 0.028129
0.942377 0.259787 0.030017
0.964124 0.262047 0.031646
0.981678 0.264046 0.033010
0.995214 0.265725 0.034104
1.000000 0.267033 0.034925
1.000000 0.267929 0.035473
1.000000 0.268384 0.035747
0.066341 0.240274 0.000000
0.069586 0.240576 0.000000
0.076112 0.241172 0.000000
0.085991 0.242049 0.000000
0.099315 0.243189 0.000000
0.116189 0.244568 0.000000
0.136714 0.246162 0.000000
0.160963 0.247944 0.000000
0.188968 0.249889 0.000000
0.220699 0.251972 0.000000
0.256050 0.254167 0.000000
0.294828 0.256452 0.000000
0.336750 0.258804 0.000000
0.381440 0.261205 0.000000
0.428429 0.263644 0.000000
0.477167 0.266116 0.000873
0.527027 0.268626 0.003264
0.577326 0.271181 0.005800
0.627346 0.273795 0.008414
0.676358 0.276479 0.011039
0.723656 0.279237 0.013617
0.768579 0.282062 0.016097
0.810542 0.284937 0.018439
0.849055 0.287828 0.020609
0.883735 0.290689 0.022583
0.914318 0.293465 0.024347
0.940654 0.296091 0.025890
0.962710 0.298501 0.027208
0.980552 0.300629 0.028301
0.994341 0.302414 0.029169
1.000000 0.303802 0.029816
1.000000 0.304753 0.030246
1.000000 0.305235 0.030459
0.067031 0.275001 0.000000
0.070255 0.275325 0.000000
0.076739 0.275966 0.000000
0.086550 0.276911 0.000000
0.099778 0.278141 0.000000
0.116523 0.279634 0.000000
0.136882 0.281362 0.000000
0.160926 0.283300 0.000000
0.188689 0.285418 0.000000
0.220143 0.287689 0.000000
0.255192 0.290084 0.000000
0.293653 0.292577 0.000000
0.335255 0.295144 0.000000
0.379636 0.297767 0.000000
0.426339 0.300431 0.000000
0.474825 0.303132 0.001482
0.524477 0.305871 0.003524
0.574622 0.308657 0.005694
0.624545 0.311501 0.007928
0.673525 0.314411 0.010163
0.720854 0.317389 0.012346
0.765871 0.320428 0.014428
0.807985 0.323508 0.016374
0.846698 0.326593 0.018156
0.881616 0.329636 0.019755
0.912463 0.332578 0.021162
0.939076 0.335355 0.022374
0.961406 0.337898 0.023392
0.979508 0.340139 0.024223
0.993525 0.342017 0.024875
1.000000 0.343476 0.025354
1.000000 0.344474 0.025670
1.000000 0.344981 0.025826
0.067710 0.312525 0.000000
0.070916 0.312872 0.000000
0.077363 0.313558 0.000000
0.087115 0.314572 0.000000
0.100259 0.315894 0.000000
0.116892 0.317500 0.000000
0.137108 0.319364 0.000000
0.160977 0.321455 0.000000
0.188532 0.323744 0.000000
0.219750 0.326200 0.000000
0.254539 0.328791 0.000000
0.292727 0.331489 0.000000
0.334052 0.334269 0.000000
0.378160 0.337109 0.000000
0.424607 0.339995 0.000939
0.472862 0.342920 0.002470
0.522318 0.345886 0.004170
0.572309 0.348898 0.005982
0.622128 0.351964 0.007847
0.671058 0.355091 0.009706
0.718394 0.358280 0.011509
0.763473 0.361520 0.013213
0.805704 0.364788 0.014783
0.844579 0.368050 0.016197
0.879698 0.371255 0.017441
0.910771 0.374345 0.018512
0.937627 0.377253 0.019412
0.960201 0.379910 0.020148
0.978535 0.382248 0.020734
0.992758 0.384203 0.021181
1.000000 0.385722 0.021503
1.000000 0.386759 0.021711
1.000000 0.387286 0.021813
0.068329 0.352457 0.002811
0.071518 0.352827 0.002673
0.077931 0.353560 0.002407
0.087630 0.354642 0.002035
0.100700 0.356055 0.001588
0.117236 0.357773 0.001105
0.137328 0.359769 0.000632
0.161046 0.362011 0.000220
0.188424 0.364466 0.000000
0.219442 0.367101 0.000000
0.254012 0.369883 0.000000
0.291967 0.372781 0.000149
0.333053 0.375768 0.000695
0.376925 0.378820 0.001488
0.423146 0.381923 0.002510
0.471194 0.385068 0.003727
0.520469 0.388254 0.005094
0.570312 0.391484 0.006560
0.620025 0.394764 0.008070
0.668894 0.398098 0.009570
0.716218 0.401484 0.011013
0.761337 0.404909 0.012358
0.803655 0.408349 0.013576
0.842662 0.411768 0.014647
0.877949 0.415115 0.015563
0.909219 0.418330 0.016323
0.936286 0.421349 0.016935
0.959077 0.424100 0.017412
0.977619 0.426516 0.017771
0.992029 0.428534 0.018031
1.000000 0.430099 0.018208
1.000000 0.431168 0.018318
1.000000 0.431710 0.018370
0.068850 0.394298 0.006088
0.072024 0.394691 0.005946
0.078406 0.395469 0.005671
0.088057 0.396618 0.005284
0.101060 0.398119 0.004813
0.117509 0.399946 0.004294
0.137494 0.402069 0.003769
0.161082 0.404455 0.003285
0.188310 0.407071 0.002890
0.219157 0.409878 0.002627
0.253541 0.412844 0.002535
0.291299 0.415934 0.002642
0.332182 0.419121 0.002965
0.375851 0.422378 0.003502
0.421875 0.425691 0.004241
0.469739 0.429048 0.005153
0.518850 0.432445 0.006198
0.568556 0.435884 0.007331
0.618164 0.439367 0.008501
0.666967 0.442896 0.009660
0.714269 0.446464 0.010764
0.759410 0.450057 0.011775
0.801794 0.453651 0.012667
0.840909 0.457206 0.013423
0.876338 0.460673 0.014038
0.907777 0.463993 0.014515
0.935032 0.467100 0.014867
0.958016 0.469925 0.015110
0.976746 0.472401 0.015266
0.991327 0.474466 0.015357
1.000000 0.476066 0.015405
1.000000 0.477157 0.015425
1.000000 0.477710 0.015433
0.069251 0.437443 0.009420
0.072411 0.437857 0.009274
0.078763 0.438678 0.008990
0.088370 0.439891 0.008586
0.101313 0.441476 0.008090
0.117684 0.443406 0.007533
0.137574 0.445651 0.006955
0.161050 0.448175 0.006397
0.188148 0.450941 0.005903
0.218851 0.453913 0.005514
0.253077 0.457053 0.005266
0.290668 0.460327 0.005185
0.331378 0.463703 0.005288
0.374872 0.467158 0.005576
0.420726 0.470670 0.006041
0.468428 0.474229 0.006658
0.517393 0.477828 0.007395
0.566972 0.481464 0.008209
0.616482 0.485137 0.009057
0.665219 0.488845 0.009895
0.712492 0.492579 0.010681
0.757644 0.496323 0.011383
0.800079 0.500051 0.011975
0.839281 0.503722 0.012445
0.874833 0.507288 0.012789
0.906421 0.510691 0.013013
0.933842 0.513865 0.013133
0.957001 0.516745 0.013169
0.975903 0.519263 0.013145
0.990641 0.521360 0.013089
1.000000 0.522982 0.013022
1.000000 0.524088 0.012965
1.000000 0.524649 0.012933
0.069522 0.481191 0.012717
0.072668 0.481626 0.012566
0.078993 0.482487 0.012272
0.088558 0.483761 0.011852
0.101446 0.485425 0.011328
0.117747 0.487452 0.010732
0.137552 0.489809 0.010099
0.160930 0.492461 0.009467
0.187916 0.495369 0.008875
0.218494 0.498495 0.008361
0.252585 0.501798 0.007959
0.290033 0.505244 0.007694
0.330595 0.508801 0.007584
0.373940 0.512440 0.007633
0.419646 0.516141 0.007834
0.467207 0.519890 0.008170
0.516041 0.523677 0.008611
0.565507 0.527497 0.009124
0.614926 0.531345 0.009669
0.663599 0.535216 0.010205
0.710840 0.539100 0.010697
0.755996 0.542977 0.011113
0.798471 0.546818 0.011433
0.837749 0.550586 0.011645
0.873407 0.554231 0.011747
0.905128 0.557696 0.011747
0.932700 0.560919 0.011664
0.956019 0.563834 0.011520
0.975079 0.566379 0.011341
0.989964 0.568494 0.011157
1.000000 0.570128 0.010992
1.000000 0.571241 0.010869
1.000000 0.571805 0.010804
0.069665 0.524769 0.015900
0.072798 0.525222 0.015744
0.079098 0.526121 0.015439
0.088624 0.527450 0.015001
0.101460 0.529186 0.014450
0.117697 0.531302 0.013814
0.137426 0.533764 0.013125
0.160716 0.536534 0.012418
0.187603 0.539573 0.011729
0.218073 0.542839 0.011094
0.252048 0.546294 0.010543
0.289373 0.549900 0.010102
0.329808 0.553623 0.009788
0.373023 0.557434 0.009608
0.418601 0.561310 0.009560
0.466038 0.565235 0.009629
0.514756 0.569195 0.009793
0.564121 0.573183 0.010021
0.613456 0.577190 0.010281
0.662071 0.581208 0.010538
0.709281 0.585223 0.010757
0.754437 0.589214 0.010914
0.796946 0.593152 0.010987
0.836290 0.596997 0.010967
0.872044 0.600702 0.010855
0.903884 0.604211 0.010661
0.931595 0.607465 0.010402
0.955062 0.610400 0.010103
0.974270 0.612957 0.009793
0.989293 0.615078 0.009501
1.000000 0.616715 0.009255
1.000000 0.617829 0.009076
1.000000 0.618393 0.008983
0.069692 0.567344 0.018902
0.072813 0.567814 0.018741
0.079087 0.568746 0.018425
0.088577 0.570125 0.017968
0.101365 0.571928 0.017389
0.117544 0.574124 0.016713
0.137203 0.576680 0.015969
0.160414 0.579557 0.015189
0.187214 0.582714 0.014407
0.217589 0.586109 0.013655
0.251462 0.589702 0.012962
0.288680 0.593453 0.012354
0.329004 0.597328 0.011848
0.372107 0.601296 0.011454
0.417572 0.605332 0.011171
0.464900 0.609416 0.010991
0.513517 0.613533 0.010896
0.562792 0.617672 0.010861
0.612053 0.621821 0.010858
0.660614 0.625968 0.010856
0.707796 0.630097 0.010826
0.752952 0.634184 0.010746
0.795490 0.638200 0.010598
0.834893 0.642106 0.010373
0.870734 0.645854 0.010074
0.902685 0.649392 0.009710
0.930523 0.652662 0.009302
0.954128 0.655604 0.008873
0.973476 0.658161 0.008453
0.988629 0.660278 0.008072
0.999722 0.661910 0.007758
1.000000 0.663020 0.007534
1.000000 0.663581 0.007418
0.069621 0.608053 0.021669
0.072730 0.608539 0.021502
0.078982 0.609501 0.021175
0.088438 0.610925 0.020699
0.101181 0.612785 0.020092
0.117306 0.615053 0.019377
0.136902 0.617693 0.018581
0.160042 0.620665 0.017731
0.186764 0.623927 0.016860
0.217054 0.627437 0.015998
0.250838 0.631153 0.015174
0.287961 0.635035 0.014410
0.328188 0.639046 0.013727
0.371193 0.643154 0.013134
0.416560 0.647332 0.012636
0.463793 0.651559 0.012227
0.512320 0.655815 0.011894
0.561515 0.660087 0.011617
0.610711 0.664360 0.011372
0.659225 0.668618 0.011135
0.706382 0.672843 0.010880
0.751538 0.677011 0.010588
0.794104 0.681089 0.010242
0.833561 0.685039 0.009837
0.869482 0.688817 0.009375
0.901535 0.692370 0.008866
0.929492 0.695644 0.008331
0.953225 0.698583 0.007794
0.972703 0.701131 0.007284
0.987978 0.703237 0.006831
0.999175 0.704859 0.006463
1.000000 0.705960 0.006203
1.000000 0.706517 0.006068
0.069476 0.646031 0.024156
0.072574 0.646529 0.023985
0.078805 0.647518 0.023646
0.088229 0.648980 0.023152
0.100932 0.650891 0.022519
0.117007 0.653221 0.021767
0.136547 0.655933 0.020921
0.159623 0.658988 0.020007
0.186275 0.662343 0.019054
0.216490 0.665953 0.018092
0.250195 0.669777 0.017146
0.287235 0.673773 0.016242
0.327377 0.677903 0.015397
0.370295 0.682134 0.014626
0.415577 0.686437 0.013933
0.462726 0.690788 0.013316
0.511176 0.695165 0.012768
0.560302 0.699552 0.012273
0.609441 0.703930 0.011812
0.657914 0.708282 0.011364
0.705050 0.712587 0.010909
