src/silbersalz_look/luts/silbersalz-250d_v0-statistical_33.cube
TITLE "silbersalz-250d_v0-statistical_33"
# Generated by silbersalz-look on 2026-08-22
# Input:  Silbersalz flat-scan code values [0,1] (Display P3 tagged)
# Output: graded display code values (Display P3)
# track: v0-statistical
LUT_3D_SIZE 5
DOMAIN_MIN 0.0 0.0 0.0
DOMAIN_MAX 1.0 1.0 1.0
0.018749 0.033393 0.046282
0.060949 0.027643 0.043106
0.173380 0.016645 0.034692
0.870460 0.003346 0.007582
0.998149 0.002455 0.005102
0.015417 0.067331 0.043231
0.056429 0.061582 0.040055
0.168860 0.046349 0.031643
0.866488 0.004636 0.007139
0.998110 0.003080 0.004907
0.010360 0.164660 0.034483
0.043468 0.158910 0.031308
0.155895 0.143675 0.023303
0.854892 0.050378 0.006112
0.997984 0.015549 0.004424
0.003430 0.758944 0.007532
0.005493 0.753364 0.007063
0.077329 0.738554 0.006075
0.777783 0.644540 0.003319
0.996454 0.603423 0.002774
0.002252 0.998355 0.004108
0.002960 0.998315 0.003976
0.022003 0.998197 0.003666
0.718727 0.996725 0.002471
0.991274 0.994895 0.002161
0.016971 0.030719 0.074031
0.058761 0.024979 0.070855
0.171192 0.015405 0.062440
0.868535 0.003271 0.014062
0.998131 0.002416 0.007581
0.014208 0.064657 0.070980
0.054240 0.058908 0.067805
0.166671 0.043676 0.059389
0.864549 0.004493 0.012710
0.998090 0.003018 0.007165
0.009799 0.161986 0.062231
0.041279 0.156236 0.059056
0.153707 0.141001 0.050640
0.852854 0.047867 0.009950
0.997962 0.014227 0.006201
0.003366 0.756336 0.013905
0.005326 0.750755 0.012530
0.075192 0.735941 0.009902
0.775618 0.641875 0.004262
0.996377 0.600749 0.003406
0.002225 0.998337 0.005610
0.002913 0.998296 0.005371
0.020277 0.998175 0.004828
0.716538 0.996648 0.002962
0.990785 0.994689 0.002529
0.013431 0.023312 0.153310
0.052508 0.019239 0.150134
0.164938 0.012328 0.141719
0.863057 0.003073 0.089226
0.998073 0.002309 0.066537
0.011645 0.057018 0.150260
0.047988 0.051268 0.147084
0.160418 0.036041 0.138668
0.859010 0.004127 0.086181
0.998030 0.002854 0.063499
0.008496 0.154346 0.141511
0.035029 0.148597 0.138335
0.147454 0.133362 0.129919
0.846897 0.040926 0.077461
0.997893 0.011366 0.054859
0.003195 0.748917 0.087962
0.004899 0.743332 0.084796
0.069127 0.728502 0.076416
0.769424 0.634261 0.025951
0.996119 0.593110 0.011948
0.002150 0.998282 0.048270
0.002786 0.998237 0.045168
0.016379 0.998108 0.036964
0.710285 0.996391 0.007817
0.989174 0.993910 0.005336
0.005880 0.006686 0.645608
0.016051 0.006050 0.642447
0.126114 0.004871 0.634066
0.826244 0.002246 0.581617
0.997612 0.001813 0.558853
0.005509 0.014072 0.642569
0.013614 0.011698 0.639408
0.121601 0.008060 0.631024
0.821838 0.002764 0.578567
0.997545 0.002136 0.555802
0.004675 0.106971 0.633856
0.009451 0.101281 0.630692
0.108712 0.086325 0.622294
0.809229 0.010903 0.569820
0.997324 0.004886 0.547053
0.002437 0.702490 0.580342
0.003302 0.696789 0.577167
0.033240 0.681649 0.568753
0.730731 0.586871 0.516243
0.992641 0.545661 0.493476
0.001780 0.997826 0.540328
0.002195 0.997754 0.537152
0.006885 0.997536 0.528737
0.671446 0.992230 0.476226
0.973716 0.981438 0.453458
0.003719 0.003625 0.997649
0.006148 0.003443 0.997602
0.087675 0.003042 0.997465
0.788397 0.001767 0.995855
0.996865 0.001490 0.994012
0.003569 0.005141 0.997605
0.005747 0.004787 0.997556
0.083254 0.004053 0.997413
0.783962 0.002072 0.995687
0.996746 0.001701 0.993622
0.003201 0.060464 0.997464
0.004851 0.054881 0.997407
0.070634 0.040656 0.997244
0.771167 0.004633 0.995046
0.996330 0.003045 0.992033
0.001965 0.655274 0.995713
0.002487 0.649554 0.995505
0.010934 0.634386 0.994818
0.691862 0.539376 0.984234
0.982910 0.498164 0.976893
0.001517 0.997050 0.990483
0.001808 0.996912 0.989731
0.004154 0.996468 0.987700
0.632565 0.978120 0.967838
0.936733 0.943336 0.946418
