src/silbersalz_look/luts/silbersalz-250d_hybrid-cool_33.cube
TITLE "SILBERSALZ 250D cooled hybrid: v4 tone, colour cooled 0.15 toward the author's graded archive (measured free point)"
# Generated by saltgate on 2026-08-26
# Input:  Silbersalz flat-scan code values [0,1] (Display P3 tagged)
# Output: graded display code values (Display P3)
LUT_3D_SIZE 33
DOMAIN_MIN 0.0 0.0 0.0
DOMAIN_MAX 1.0 1.0 1.0
0.017067 0.025373 0.018290
0.066936 0.052285 0.025000
0.070362 0.053877 0.025736
0.073852 0.055930 0.026493
0.079026 0.057144 0.025593
0.086060 0.057676 0.025078
0.089911 0.057996 0.027137
0.095552 0.057214 0.030374
0.102939 0.057571 0.031910
0.113995 0.055037 0.031746
0.129446 0.051759 0.032051
0.149654 0.049488 0.033552
0.175775 0.048751 0.036589
0.208823 0.049567 0.041017
0.250228 0.051042 0.045598
0.302965 0.047707 0.048498
0.360694 0.048254 0.052502
0.423116 0.053539 0.057020
0.491114 0.058206 0.059311
0.563030 0.060039 0.058640
0.636564 0.056647 0.054578
0.708898 0.045892 0.047597
0.776550 0.030391 0.039272
0.836495 0.019116 0.032987
0.888304 0.006578 0.028306
0.931023 0.000000 0.025687
0.963826 0.000000 0.027801
0.988581 0.000000 0.030916
0.999950 0.001012 0.033506
0.999958 0.000969 0.035324
0.999963 0.000951 0.036907
0.999970 0.000914 0.038079
0.999980 0.000831 0.038665
0.016814 0.029395 0.016947
0.027215 0.031959 0.017387
0.036341 0.036419 0.019514
0.050449 0.043504 0.022649
0.059317 0.049074 0.022676
0.079965 0.060628 0.025188
0.090598 0.064490 0.027148
0.096560 0.063640 0.028383
0.103920 0.061637 0.029373
0.113700 0.057897 0.029780
0.128179 0.054342 0.030410
0.147640 0.052051 0.032070
0.173057 0.051331 0.035189
0.205443 0.052221 0.039706
0.246286 0.053740 0.044424
0.298564 0.050801 0.047395
0.355950 0.051675 0.051359
0.418178 0.057047 0.055804
0.486244 0.061474 0.058134
0.558545 0.062452 0.057651
0.632582 0.057940 0.053754
0.705320 0.046594 0.046708
0.773322 0.031044 0.038263
0.833700 0.019586 0.031848
0.885980 0.006981 0.027030
0.929172 0.000000 0.024247
0.962407 0.000000 0.026215
0.987525 0.000000 0.029219
0.999942 0.001050 0.031759
0.999950 0.001007 0.033481
0.999956 0.000987 0.034952
0.999962 0.000950 0.036025
0.999973 0.000862 0.036563
0.019461 0.030886 0.017085
0.022324 0.031263 0.016927
0.025374 0.030690 0.017097
0.036318 0.031761 0.019936
0.056174 0.045430 0.022363
0.079025 0.062424 0.025342
0.089915 0.066954 0.027441
0.096471 0.066782 0.028205
0.104608 0.065055 0.028956
0.113134 0.061531 0.029318
0.126531 0.058082 0.030126
0.144946 0.055784 0.031980
0.169107 0.054905 0.035274
0.200230 0.055521 0.039909
0.240042 0.056736 0.044624
0.291580 0.053702 0.047494
0.348487 0.054205 0.051250
0.410456 0.058985 0.055426
0.478505 0.062828 0.057500
0.551016 0.063248 0.056765
0.625455 0.058217 0.052572
0.698732 0.046471 0.045118
0.767250 0.031552 0.036398
0.828403 0.019982 0.029683
0.881539 0.007347 0.024587
0.925599 0.000000 0.021544
0.959645 0.000000 0.023278
0.985469 0.000000 0.026079
0.999941 0.001438 0.028534
0.999946 0.001194 0.030077
0.999949 0.001056 0.031407
0.999954 0.000953 0.032370
0.999965 0.000864 0.032839
0.019187 0.036983 0.017996
0.021623 0.036692 0.017316
0.024431 0.035518 0.017332
0.032090 0.035002 0.018872
0.053593 0.044715 0.022131
0.077391 0.061324 0.025911
0.088438 0.068343 0.028527
0.094055 0.070108 0.029551
0.104316 0.068568 0.030004
0.112581 0.066063 0.030170
0.124727 0.063179 0.030794
0.141724 0.061057 0.032727
0.163963 0.060099 0.036326
0.193101 0.060289 0.041181
0.231394 0.060753 0.045794
0.281918 0.057376 0.048425
0.338197 0.057235 0.051802
0.399844 0.061077 0.055527
0.467851 0.064089 0.057134
0.540568 0.063856 0.055906
0.615472 0.058332 0.051165
0.689453 0.046176 0.043044
0.758658 0.032260 0.033982
0.820878 0.020565 0.026823
0.875193 0.007896 0.021329
0.920464 0.000000 0.017928
0.955652 0.000000 0.019342
0.982485 0.000000 0.021863
0.999945 0.002252 0.024208
0.999948 0.001911 0.025506
0.999950 0.001703 0.026643
0.999954 0.001554 0.027473
0.999964 0.001414 0.027873
0.017529 0.040530 0.016358
0.019526 0.040391 0.016282
0.023038 0.040329 0.016737
0.030427 0.041417 0.018263
0.047704 0.047141 0.021261
0.070633 0.058824 0.025814
0.087051 0.068122 0.030051
0.093953 0.072180 0.030334
0.103606 0.072253 0.031727
0.112624 0.071303 0.032250
0.124087 0.069523 0.032130
0.138803 0.067729 0.034059
0.158165 0.066975 0.038284
0.184404 0.066970 0.043608
0.220746 0.066446 0.048052
0.270057 0.062236 0.050294
0.325602 0.061012 0.053124
0.386880 0.063698 0.056218
0.454823 0.065697 0.057168
0.527750 0.064681 0.055253
0.603160 0.058594 0.049761
0.677953 0.045999 0.040751
0.747963 0.033319 0.031339
0.811464 0.021463 0.023619
0.867204 0.008735 0.017629
0.913963 0.000000 0.013792
0.950571 0.000000 0.014817
0.978671 0.000330 0.017002
0.999572 0.003348 0.019203
0.999954 0.002957 0.020229
0.999954 0.002660 0.021136
0.999958 0.002452 0.021805
0.999967 0.002283 0.022122
0.015050 0.043159 0.013997
0.016937 0.043389 0.014258
0.020940 0.044202 0.015093
0.028600 0.046265 0.016814
0.043428 0.050632 0.019430
0.062434 0.058459 0.023371
0.080647 0.066663 0.027708
0.093357 0.072563 0.029895
0.103045 0.075507 0.032043
0.112703 0.076065 0.034255
0.124609 0.075827 0.033377
0.136565 0.074845 0.035368
0.152424 0.074944 0.040820
0.174766 0.075435 0.047142
0.208903 0.073818 0.051351
0.256899 0.068697 0.053148
0.311600 0.066096 0.055329
0.372392 0.067052 0.057622
0.440184 0.067789 0.057742
0.513273 0.065896 0.054973
0.589177 0.059184 0.048570
0.664789 0.046135 0.038487
0.735627 0.034815 0.028758
0.800537 0.022758 0.020392
0.857876 0.009949 0.013842
0.906321 0.000000 0.009516
0.944565 0.000000 0.010112
0.974138 0.001303 0.011925
0.996294 0.004315 0.013807
0.999967 0.004405 0.014706
0.999965 0.004003 0.015356
0.999966 0.003726 0.015847
0.999975 0.003523 0.016074
0.012682 0.046022 0.011834
0.014574 0.046518 0.012200
0.018725 0.047772 0.013109
0.026191 0.050133 0.014719
0.039223 0.053749 0.016828
0.054936 0.059326 0.019825
0.071710 0.065526 0.023082
0.087708 0.071221 0.025663
0.102538 0.076563 0.028216
0.112290 0.078394 0.032711
0.123261 0.080029 0.033741
0.134739 0.080861 0.035760
0.148305 0.082138 0.042594
0.166434 0.083786 0.050660
0.197677 0.081780 0.054985
0.243929 0.076230 0.056719
0.297454 0.072512 0.058349
0.357453 0.071685 0.059722
0.424843 0.070658 0.058869
0.497917 0.067562 0.055120
0.574202 0.060199 0.047705
0.650560 0.046720 0.036504
0.722177 0.036811 0.026447
0.788515 0.024520 0.017400
0.847532 0.011612 0.010265
0.897787 0.000320 0.005436
0.937812 0.000000 0.005587
0.969014 0.002689 0.007016
0.992567 0.005693 0.008566
0.999987 0.006329 0.009350
0.999982 0.005813 0.009730
0.999983 0.005461 0.010035
0.999991 0.005218 0.010166
0.010773 0.049656 0.010173
0.012659 0.050257 0.010542
0.016751 0.051618 0.011384
0.023810 0.053894 0.012776
0.035586 0.056915 0.014476
0.049167 0.061209 0.016917
0.064409 0.066058 0.019769
0.080598 0.071044 0.022899
0.097333 0.076431 0.026940
0.111694 0.080932 0.032352
0.124165 0.084515 0.035408
0.135837 0.085511 0.036248
0.148769 0.086848 0.042071
0.164870 0.088814 0.050893
0.190685 0.088400 0.057261
0.233354 0.083860 0.060522
0.284725 0.079789 0.062096
0.343265 0.077462 0.062401
0.409796 0.074661 0.060367
0.482525 0.070003 0.055580
0.558936 0.061660 0.047130
0.635537 0.049344 0.035339
0.708146 0.039333 0.024513
0.775850 0.026804 0.014814
0.836527 0.013794 0.007122
0.888619 0.002448 0.001808
0.930498 0.001914 0.001530
0.963424 0.004577 0.002586
0.988476 0.007575 0.003813
1.000000 0.008812 0.004502
1.000000 0.008178 0.004610
1.000000 0.007745 0.004727
1.000000 0.007462 0.004762
0.009367 0.054330 0.009068
0.011211 0.054920 0.009410
0.015149 0.056189 0.010162
0.021770 0.058194 0.011367
0.032628 0.060675 0.012799
0.044837 0.064135 0.014989
0.058742 0.068116 0.017794
0.074111 0.072451 0.021338
0.090442 0.077263 0.026039
0.106523 0.082205 0.031968
0.122020 0.086921 0.037491
0.137097 0.089502 0.040365
0.151485 0.091442 0.041312
0.166336 0.093586 0.049055
0.189316 0.093743 0.058100
0.227872 0.090894 0.064296
0.274840 0.087426 0.065983
0.330896 0.083996 0.065191
0.395988 0.079556 0.061845
0.467929 0.073374 0.056043
0.544087 0.063866 0.046655
0.620633 0.052300 0.034419
0.694022 0.042331 0.022950
0.762935 0.029655 0.012705
0.825179 0.016563 0.004539
0.879060 0.005177 0.000000
0.922802 0.004489 0.000000
0.957496 0.007071 0.000000
0.984107 0.010066 0.000216
1.000000 0.011948 0.001172
1.000000 0.011192 0.001154
1.000000 0.010678 0.001126
1.000000 0.010354 0.001068
0.008405 0.060216 0.008505
0.010172 0.060724 0.008819
0.013906 0.061794 0.009492
0.020095 0.063444 0.010553
0.030211 0.065404 0.011796
0.041441 0.068202 0.013829
0.054125 0.071503 0.016564
0.068465 0.075240 0.020170
0.084105 0.079474 0.024884
0.100569 0.084152 0.030719
0.117677 0.089073 0.037012
0.135253 0.093526 0.042241
0.151434 0.097272 0.042345
0.167667 0.099824 0.046905
0.189742 0.100324 0.056181
0.224256 0.098074 0.064626
0.267217 0.095352 0.068063
0.320840 0.090810 0.066823
0.384154 0.084914 0.062615
0.454840 0.077416 0.056044
0.530281 0.066920 0.045976
0.606382 0.055799 0.033544
0.680225 0.045699 0.021667
0.750113 0.033126 0.011063
0.813751 0.019997 0.002563
0.869316 0.008599 0.000000
0.914883 0.007775 0.000000
0.951347 0.010286 0.000000
0.979542 0.013283 0.000000
1.000000 0.015843 0.001199
1.000000 0.014969 0.001180
1.000000 0.014371 0.001152
1.000000 0.014005 0.001094
0.007818 0.067407 0.008472
0.009480 0.067802 0.008756
0.012968 0.068630 0.009359
0.018711 0.069892 0.010294
0.028152 0.071345 0.011364
0.038491 0.073534 0.013214
0.050127 0.076208 0.015754
0.063402 0.079350 0.019133
0.078255 0.083021 0.023502
0.094506 0.087263 0.028887
0.112039 0.092018 0.035028
0.130599 0.097047 0.041216
0.149528 0.101990 0.045938
0.167570 0.105975 0.049299
0.191141 0.108074 0.053879
0.223354 0.106144 0.062435
0.263093 0.102742 0.067141
0.314000 0.097057 0.066085
0.374941 0.090149 0.061868
0.443760 0.081791 0.055141
0.517949 0.070668 0.044789
0.593190 0.060004 0.032520
0.667089 0.049736 0.020553
0.737637 0.037297 0.009826
0.802455 0.024195 0.001172
0.859560 0.012824 0.000000
0.906870 0.011888 0.000000
0.945069 0.014339 0.000000
0.974843 0.017345 0.000000
0.997058 0.020011 0.001040
1.000000 0.019616 0.001213
1.000000 0.018936 0.001184
1.000000 0.018526 0.001125
0.007582 0.076017 0.008986
0.009112 0.076283 0.009235
0.012312 0.076846 0.009758
0.017578 0.077707 0.010560
0.026362 0.078658 0.011440
0.035828 0.080256 0.013051
0.046569 0.082311 0.015292
0.058759 0.084838 0.018270
0.072748 0.087919 0.022111
0.088519 0.091641 0.026862
0.106021 0.096046 0.032443
0.125126 0.101096 0.038531
0.145632 0.106581 0.044409
0.167541 0.111677 0.048899
0.193589 0.113903 0.051194
0.225415 0.111159 0.057263
0.263174 0.107014 0.061661
0.310481 0.101648 0.062315
0.368288 0.094783 0.059302
0.434669 0.086274 0.053141
0.507153 0.075019 0.042939
0.581182 0.064922 0.031233
0.654793 0.054730 0.019518
0.725703 0.042684 0.008918
0.791454 0.029354 0.000296
0.849928 0.017972 0.000000
0.898871 0.016952 0.000000
0.938743 0.019359 0.000000
0.970070 0.022381 0.000000
0.993607 0.025099 0.000862
1.000000 0.025255 0.001252
1.000000 0.024495 0.001222
1.000000 0.024043 0.001163
0.007725 0.086227 0.010092
0.009100 0.086358 0.010297
0.011977 0.086648 0.010728
0.016741 0.087107 0.011377
0.024869 0.087562 0.012037
0.033484 0.088570 0.013363
0.043478 0.089999 0.015245
0.054547 0.091874 0.017738
0.067579 0.094296 0.020968
0.082676 0.097364 0.024993
0.099831 0.101143 0.029769
0.119097 0.105596 0.035093
0.140447 0.110474 0.040556
0.164047 0.114980 0.045281
0.191161 0.117162 0.048951
0.224609 0.114258 0.052783
0.262233 0.110133 0.056118
0.307475 0.105434 0.057602
0.362768 0.099153 0.055745
0.426846 0.091015 0.050300
0.497541 0.080070 0.040515
0.570210 0.070677 0.029703
0.643320 0.060792 0.018512
0.714381 0.049341 0.008259
0.780858 0.036306 0.000000
0.840524 0.024575 0.000000
0.890961 0.023219 0.000000
0.932423 0.025479 0.000000
0.965259 0.028512 0.000000
0.990099 0.031284 0.000688
1.000000 0.032007 0.001298
1.000000 0.031168 0.001267
1.000000 0.030672 0.001208
0.008159 0.098330 0.011753
0.009363 0.098322 0.011840
0.011893 0.098338 0.012160
0.016136 0.098400 0.012636
0.023614 0.098369 0.013058
0.031387 0.098793 0.014072
0.040576 0.099583 0.015562
0.050735 0.100775 0.017552
0.062721 0.102467 0.020154
0.076959 0.104747 0.023432
0.093456 0.107679 0.027331
0.112414 0.111159 0.031795
0.133841 0.114918 0.036553
0.157870 0.118314 0.041296
0.185664 0.119898 0.045439
0.220658 0.117104 0.048121
0.258911 0.113439 0.050851
0.303349 0.109541 0.052730
0.357077 0.104035 0.051642
0.419402 0.096528 0.046924
0.488483 0.086325 0.037760
0.559931 0.077573 0.028000
0.632486 0.068137 0.017513
0.703589 0.057395 0.007770
0.770652 0.045414 0.000000
0.831369 0.033559 0.000000
0.883173 0.031714 0.000000
0.926138 0.033592 0.000000
0.960427 0.036355 0.000000
0.986540 0.038988 0.000517
1.000000 0.040173 0.001350
1.000000 0.039193 0.001319
1.000000 0.038626 0.001260
0.008717 0.112906 0.012909
0.009068 0.112744 0.012962
0.011235 0.112484 0.013156
0.014946 0.112150 0.013446
0.021765 0.111635 0.013645
0.028696 0.111473 0.014339
0.036959 0.111609 0.015421
0.046559 0.112090 0.016907
0.057475 0.112999 0.018860
0.070740 0.114422 0.021357
0.086455 0.116380 0.024394
0.104814 0.118763 0.027967
0.125916 0.121304 0.031998
0.149900 0.123553 0.036274
0.178103 0.124444 0.040331
0.214095 0.121762 0.042452
0.252935 0.118664 0.044864
0.297160 0.115550 0.047089
0.350093 0.110817 0.046757
0.411361 0.103951 0.042873
0.479168 0.094781 0.034809
0.549791 0.086412 0.026098
0.621929 0.077333 0.016468
0.693089 0.067214 0.007367
0.760687 0.056219 0.000000
0.822370 0.045410 0.000000
0.875454 0.043105 0.000000
0.919857 0.044422 0.000000
0.955556 0.046649 0.000000
0.982917 0.048785 0.000349
1.000000 0.050144 0.001410
1.000000 0.049103 0.001378
1.000000 0.048496 0.001319
0.003949 0.131243 0.008506
0.003917 0.130935 0.008513
0.004970 0.130385 0.008567
0.008154 0.129659 0.008698
0.014240 0.128673 0.008802
0.020277 0.127932 0.009213
0.027562 0.127404 0.009888
0.036523 0.127154 0.010864
0.047248 0.127247 0.012184
0.060216 0.127758 0.013927
0.075714 0.128695 0.016127
0.093747 0.130005 0.018774
0.114296 0.131547 0.021827
0.137921 0.132958 0.025223
0.166140 0.133461 0.028661
0.202484 0.131228 0.031019
0.241692 0.128950 0.033653
0.286061 0.126780 0.036261
0.338847 0.123070 0.037345
0.400039 0.116929 0.035271
0.467423 0.108802 0.030285
0.538308 0.099977 0.023379
0.610764 0.090341 0.015128
0.682341 0.080117 0.006958
0.750616 0.069516 0.000000
0.813306 0.059450 0.000000
0.867672 0.056622 0.000000
0.913476 0.057225 0.000000
0.950562 0.058797 0.000000
0.979159 0.060413 0.000152
0.999810 0.061709 0.001387
1.000000 0.060731 0.001415
1.000000 0.060048 0.001360
0.002490 0.152129 0.007330
0.002460 0.151674 0.007294
0.002454 0.150821 0.007235
0.005020 0.149678 0.007217
0.010474 0.148196 0.007177
0.015784 0.146835 0.007327
0.022240 0.145602 0.007660
0.030316 0.144573 0.008216
0.040301 0.143815 0.009035
0.052607 0.143386 0.010180
0.067529 0.143299 0.011706
0.085026 0.143524 0.013629
0.105141 0.143970 0.015944
0.128471 0.144396 0.018622
0.156563 0.144253 0.021469
0.192540 0.142166 0.023700
0.231525 0.140289 0.026175
0.275478 0.138749 0.028774
0.327801 0.135855 0.030200
0.388509 0.130681 0.029573
0.455825 0.123078 0.026207
0.526857 0.114291 0.020772
0.599589 0.104553 0.013705
0.671563 0.094474 0.006399
0.740445 0.084486 0.000005
0.804084 0.075170 0.000000
0.859718 0.071859 0.000000
0.906907 0.071817 0.000000
0.945368 0.072808 0.000000
0.975199 0.073948 0.000000
0.996849 0.074876 0.001248
1.000000 0.074162 0.001466
1.000000 0.073321 0.001420
0.002790 0.176513 0.009318
0.002781 0.175904 0.009244
0.002810 0.174752 0.009106
0.004032 0.173159 0.008935
0.009013 0.171149 0.008733
0.013749 0.169137 0.008648
0.019534 0.167158 0.008685
0.026869 0.165311 0.008885
0.036078 0.163669 0.009290
0.047474 0.162279 0.009945
0.061522 0.161168 0.010914
0.078282 0.160318 0.012227
0.097947 0.159652 0.013901
0.120958 0.159038 0.015921
0.148824 0.158073 0.018143
0.184450 0.155667 0.019931
0.223093 0.153618 0.022025
0.266532 0.152044 0.024396
0.318180 0.149388 0.025953
0.378249 0.144659 0.025846
0.445138 0.137511 0.023293
0.515948 0.129057 0.018733
0.588676 0.119638 0.012456
0.660881 0.110008 0.005797
0.730300 0.100632 0.000000
0.794813 0.092001 0.000000
0.851605 0.088578 0.000000
0.900129 0.088057 0.000000
0.939954 0.088527 0.000000
0.971028 0.089217 0.000000
0.993687 0.089801 0.001131
1.000000 0.089302 0.001552
1.000000 0.088351 0.001515
0.002447 0.205369 0.010590
0.002432 0.204602 0.010482
0.002450 0.203142 0.010279
0.002748 0.201096 0.009998
0.006958 0.198545 0.009673
0.011154 0.195864 0.009399
0.016372 0.193124 0.009196
0.023107 0.190434 0.009105
0.031690 0.187885 0.009167
0.042396 0.185528 0.009420
0.055725 0.183400 0.009918
0.071872 0.181495 0.010704
0.091027 0.179773 0.011804
0.113606 0.178161 0.013217
0.141003 0.176383 0.014853
0.175966 0.173585 0.016233
0.213992 0.171223 0.017937
0.256694 0.169434 0.019985
0.307480 0.166869 0.021534
0.366803 0.162506 0.021842
0.433330 0.155756 0.020101
0.504117 0.147514 0.016463
0.577052 0.138214 0.011024
0.649650 0.128793 0.005028
0.719704 0.119781 0.000000
0.785134 0.111581 0.000000
0.843111 0.107878 0.000000
0.892955 0.106883 0.000000
0.934140 0.106862 0.000000
0.966467 0.107127 0.000000
0.990151 0.107382 0.000972
1.000000 0.107044 0.001609
1.000000 0.106049 0.001575
0.002104 0.239097 0.009982
0.002074 0.238166 0.009851
0.002057 0.236390 0.009601
0.002261 0.233897 0.009257
0.004844 0.230799 0.008849
0.008426 0.227447 0.008439
0.013000 0.223941 0.008055
0.019043 0.220411 0.007739
0.026907 0.216958 0.007530
0.036857 0.213647 0.007465
0.049562 0.210515 0.007584
0.065182 0.207585 0.007933
0.083868 0.204847 0.008542
0.105983 0.202267 0.009421
0.132739 0.199678 0.010524
0.166619 0.196479 0.011544
0.203725 0.193748 0.012859
0.245443 0.191655 0.014513
0.295039 0.189156 0.015952
0.353293 0.185263 0.016633
0.419376 0.179077 0.015853
0.490381 0.171071 0.013391
0.563932 0.161683 0.009065
0.637271 0.152124 0.003912
0.708190 0.143119 0.000000
0.774674 0.135022 0.000000
0.833884 0.130919 0.000000
0.885039 0.129487 0.000000
0.927583 0.129057 0.000000
0.961173 0.128972 0.000000
0.985900 0.128947 0.000638
1.000000 0.128725 0.001505
1.000000 0.127590 0.001487
0.000822 0.278026 0.007722
0.000779 0.276926 0.007577
0.000726 0.274827 0.007300
0.000803 0.271881 0.006915
0.001814 0.268246 0.006452
0.004788 0.264221 0.005952
0.008763 0.259949 0.005445
0.014169 0.255577 0.004971
0.021359 0.251220 0.004566
0.030622 0.246960 0.004264
0.042612 0.242842 0.004097
0.057916 0.238909 0.004107
0.076279 0.235173 0.004322
0.098038 0.231629 0.004758
0.124140 0.228194 0.005393
0.156706 0.224495 0.006049
0.192707 0.221268 0.006961
0.233297 0.218706 0.008171
0.281374 0.216130 0.009363
0.338009 0.212723 0.010252
0.403081 0.207391 0.010330
0.474118 0.200008 0.009136
0.548545 0.190706 0.006210
0.623044 0.180895 0.002180
0.695141 0.171645 0.000000
0.762881 0.163388 0.000000
0.823408 0.158840 0.000000
0.875851 0.157114 0.000000
0.919730 0.156447 0.000000
0.954574 0.156160 0.000000
0.980354 0.155964 0.000000
0.997334 0.155674 0.000843
1.000000 0.154598 0.001006
0.000000 0.322254 0.004876
0.000000 0.320985 0.004726
0.000000 0.318565 0.004438
0.000000 0.315167 0.004031
0.000000 0.310984 0.003528
0.000000 0.306285 0.002970
0.003402 0.301252 0.002389
0.008218 0.296042 0.001812
0.014786 0.290790 0.001275
0.023417 0.285594 0.000807
0.034455 0.280513 0.000436
0.049647 0.275602 0.000195
0.067974 0.270888 0.000112
0.089585 0.266381 0.000200
0.115253 0.262048 0.000444
0.146643 0.257689 0.000740
0.181609 0.253785 0.001271
0.221128 0.250527 0.002051
0.267615 0.247555 0.002927
0.322231 0.244329 0.003764
0.385488 0.239839 0.004255
0.455738 0.233473 0.003997
0.530667 0.224823 0.002415
0.606427 0.215096 0.000000
0.679956 0.205666 0.000000
0.749176 0.197186 0.000000
0.811110 0.192230 0.000000
0.864779 0.190409 0.000000
0.909932 0.189723 0.000000
0.945996 0.189425 0.000000
0.972809 0.189211 0.000000
0.990554 0.188877 0.000000
0.997729 0.188004 0.000000
0.000000 0.371623 0.002049
0.000000 0.370193 0.001901
0.000000 0.367461 0.001616
0.000000 0.363621 0.001209
0.000000 0.358895 0.000691
0.000000 0.353539 0.000112
0.000000 0.347769 0.000000
0.000181 0.341749 0.000000
0.006211 0.335631 0.000000
0.014276 0.329528 0.000000
0.024638 0.323515 0.000000
0.038989 0.317651 0.000000
0.057949 0.311980 0.000000
0.079860 0.306521 0.000000
0.105447 0.301265 0.000000
0.136055 0.296121 0.000000
0.170259 0.291403 0.000000
0.208940 0.287282 0.000000
0.254026 0.283622 0.000000
0.306593 0.280154 0.000000
0.367484 0.276149 0.000000
0.435939 0.270846 0.000000
0.510381 0.263384 0.000000
0.586936 0.254390 0.000000
0.661877 0.245215 0.000000
0.732733 0.236724 0.000000
0.796210 0.231463 0.000000
0.851001 0.229766 0.000000
0.897305 0.229290 0.000000
0.934501 0.229187 0.000000
0.962301 0.229118 0.000000
0.980787 0.228863 0.000000
0.990250 0.228140 0.000000
0.000000 0.425656 0.000000
0.000000 0.424073 0.000000
0.000000 0.421044 0.000000
0.000000 0.416786 0.000000
0.000000 0.411540 0.000000
0.000000 0.405561 0.000000
0.000000 0.399089 0.000000
0.000000 0.392307 0.000000
0.000000 0.385373 0.000000
0.001959 0.378413 0.000000
0.011821 0.371514 0.000000
0.024905 0.364744 0.000000
0.044358 0.358152 0.000000
0.067681 0.351767 0.000000
0.093914 0.345595 0.000000
0.124384 0.339602 0.000000
0.158287 0.333995 0.000000
0.196509 0.328917 0.000000
0.240596 0.324358 0.000000
0.291467 0.320244 0.000000
0.350005 0.316158 0.000000
0.416062 0.311480 0.000000
0.488890 0.305233 0.000000
0.565184 0.297456 0.000000
0.640945 0.289122 0.000000
0.713235 0.281079 0.000000
0.778325 0.275683 0.000000
0.834110 0.274234 0.000000
0.881409 0.274090 0.000000
0.919623 0.274296 0.000000
0.948333 0.274473 0.000000
0.967513 0.274385 0.000000
0.977407 0.273755 0.000000
0.000000 0.483443 0.000000
0.000000 0.481721 0.000000
0.000000 0.478428 0.000000
0.000000 0.473795 0.000000
0.000000 0.468078 0.000000
0.000000 0.461539 0.000000
0.000000 0.454427 0.000000
0.000000 0.446943 0.000000
0.000000 0.439258 0.000000
0.000000 0.431507 0.000000
0.000000 0.423789 0.000000
0.007686 0.416174 0.000000
0.025644 0.408712 0.000000
0.051447 0.401444 0.000000
0.079840 0.394384 0.000000
0.111169 0.387529 0.000000
0.145440 0.381016 0.000000
0.183685 0.374960 0.000000
0.227272 0.369405 0.000000
0.277019 0.364379 0.000000
0.333724 0.359696 0.000000
0.397513 0.354962 0.000000
0.468193 0.349373 0.000000
0.543233 0.342656 0.000000
0.618863 0.335346 0.000000
0.691933 0.328059 0.000000
0.758452 0.322684 0.000000
0.815114 0.321362 0.000000
0.863280 0.321423 0.000000
0.902417 0.321844 0.000000
0.931969 0.322205 0.000000
0.951802 0.322259 0.000000
0.962086 0.321754 0.000000
0.000000 0.543591 0.000000
0.000000 0.541754 0.000000
0.000000 0.538237 0.000000
0.000000 0.533283 0.000000
0.000000 0.527161 0.000000
0.000000 0.520144 0.000000
0.000000 0.512482 0.000000
0.000000 0.504392 0.000000
0.000000 0.496051 0.000000
0.000000 0.487604 0.000000
0.000000 0.479157 0.000000
0.000000 0.470784 0.000000
0.004877 0.462532 0.000000
0.029655 0.454449 0.000000
0.062532 0.446554 0.000000
0.096233 0.438863 0.000000
0.131709 0.431470 0.000000
0.170509 0.424466 0.000000
0.214095 0.417910 0.000000
0.263309 0.411857 0.000000
0.318904 0.406252 0.000000
0.381093 0.400886 0.000000
0.449924 0.395191 0.000000
0.523464 0.388848 0.000000
0.598370 0.382122 0.000000
0.671541 0.375401 0.000000
0.738973 0.370079 0.000000
0.796506 0.368488 0.000000
0.845497 0.368400 0.000000
0.885516 0.368741 0.000000
0.915890 0.369058 0.000000
0.936369 0.369096 0.000000
0.947028 0.368636 0.000000
0.000000 0.604294 0.000000
0.000000 0.602369 0.000000
0.000000 0.598681 0.000000
0.000000 0.593478 0.000000
0.000000 0.587041 0.000000
0.000000 0.579642 0.000000
0.000000 0.571536 0.000000
0.000000 0.562950 0.000000
0.000000 0.554065 0.000000
0.000000 0.545032 0.000000
0.000000 0.535962 0.000000
0.000000 0.526934 0.000000
0.000000 0.517998 0.000000
0.007007 0.509200 0.000000
0.041047 0.500567 0.000000
0.079351 0.492124 0.000000
0.117078 0.483929 0.000000
0.156989 0.476062 0.000000
