src/silbersalz_look/luts/silbersalz-250d_v0-statistical_33.cube
TITLE "silbersalz-250d_v0-statistical_33"
# Generated by silbersalz-look on 2026-08-22
# Input:  Silbersalz flat-scan code values [0,1] (Display P3 tagged)
# Output: graded display code values (Display P3)
# track: v0-statistical
LUT_3D_SIZE 33
DOMAIN_MIN 0.0 0.0 0.0
DOMAIN_MAX 1.0 1.0 1.0
0.018749 0.033393 0.046282
0.018893 0.033373 0.046271
0.019664 0.033267 0.046213
0.023646 0.032722 0.045912
0.044198 0.029920 0.044364
0.053276 0.028685 0.043682
0.057168 0.028156 0.043389
0.059219 0.027878 0.043236
0.060949 0.027643 0.043106
0.062667 0.027411 0.042978
0.063895 0.027246 0.042886
0.065139 0.027081 0.042793
0.067382 0.026791 0.042625
0.073088 0.026089 0.042198
0.092119 0.023877 0.040773
0.141382 0.019119 0.037086
0.173380 0.016645 0.034692
0.193467 0.015286 0.033197
0.229844 0.013294 0.030517
0.290370 0.010667 0.026221
0.376996 0.008127 0.021010
0.481933 0.006257 0.016534
0.608893 0.004894 0.012619
0.745108 0.003956 0.009533
0.870460 0.003346 0.007582
0.968272 0.002937 0.006383
0.991229 0.002716 0.005774
0.996040 0.002638 0.005561
0.997084 0.002610 0.005483
0.997391 0.002590 0.005432
0.997568 0.002568 0.005375
0.997780 0.002531 0.005285
0.998149 0.002455 0.005102
0.016833 0.051518 0.044653
0.016976 0.051498 0.044642
0.017737 0.051392 0.044583
0.021660 0.050847 0.044282
0.041855 0.048046 0.042735
0.050873 0.046810 0.042052
0.054756 0.046281 0.041760
0.056805 0.046003 0.041606
0.058535 0.045768 0.041477
0.060252 0.045536 0.041348
0.061481 0.045370 0.041256
0.062725 0.045203 0.041163
0.064968 0.044906 0.040995
0.070674 0.044160 0.040568
0.089705 0.041690 0.039144
0.138967 0.035358 0.035457
0.170966 0.031385 0.033063
0.191052 0.029014 0.031569
0.227430 0.024817 0.028902
0.287956 0.018409 0.024694
0.374582 0.012360 0.019951
0.479520 0.008618 0.015799
0.606485 0.006256 0.012095
0.742733 0.004805 0.009187
0.868302 0.003934 0.007355
0.967555 0.003379 0.006223
0.991065 0.003090 0.005643
0.995974 0.002992 0.005439
0.997037 0.002956 0.005365
0.997350 0.002931 0.005315
0.997532 0.002903 0.005261
0.997750 0.002857 0.005174
0.998129 0.002758 0.005000
0.016088 0.059378 0.043946
0.016229 0.059358 0.043935
0.016983 0.059252 0.043877
0.020865 0.058707 0.043576
0.040858 0.055906 0.042028
0.049836 0.054670 0.041346
0.053711 0.054141 0.041054
0.055759 0.053863 0.040900
0.057488 0.053628 0.040770
0.059205 0.053396 0.040642
0.060434 0.053230 0.040550
0.061678 0.053062 0.040457
0.063921 0.052760 0.040289
0.069627 0.051995 0.039862
0.088658 0.049442 0.038437
0.137920 0.042830 0.034750
0.169919 0.038568 0.032357
0.190005 0.035943 0.030865
0.226383 0.031256 0.028208
0.286909 0.023860 0.024064
0.373535 0.015370 0.019494
0.478474 0.010146 0.015465
0.605443 0.007062 0.011848
0.741713 0.005273 0.009023
0.867397 0.004244 0.007248
0.967209 0.003605 0.006148
0.990975 0.003277 0.005583
0.995940 0.003167 0.005384
0.997015 0.003127 0.005311
0.997332 0.003099 0.005263
0.997516 0.003068 0.005210
0.997736 0.003016 0.005125
0.998120 0.002907 0.004954
0.015807 0.062565 0.043660
0.015947 0.062545 0.043649
0.016696 0.062439 0.043590
0.020557 0.061894 0.043289
0.040460 0.059092 0.041742
0.049417 0.057857 0.041059
0.053287 0.057328 0.040767
0.055334 0.057050 0.040613
0.057064 0.056815 0.040484
0.058781 0.056582 0.040355
0.060009 0.056416 0.040263
0.061253 0.056248 0.040170
0.063497 0.055944 0.040002
0.069202 0.055173 0.039575
0.088234 0.052600 0.038151
0.137496 0.045937 0.034464
0.169494 0.041619 0.032071
0.189581 0.038932 0.030580
0.225959 0.034123 0.027929
0.286485 0.026428 0.023815
0.373110 0.016993 0.019310
0.478050 0.010953 0.015327
0.605021 0.007467 0.011745
0.741302 0.005498 0.008954
0.867036 0.004387 0.007203
0.967063 0.003707 0.006116
0.990933 0.003361 0.005558
0.995924 0.003244 0.005361
0.997006 0.003202 0.005289
0.997325 0.003173 0.005242
0.997510 0.003140 0.005189
0.997731 0.003087 0.005105
0.998116 0.002972 0.004935
0.015677 0.064114 0.043521
0.015816 0.064094 0.043510
0.016563 0.063988 0.043451
0.020413 0.063443 0.043150
0.040268 0.060642 0.041603
0.049214 0.059406 0.040920
0.053082 0.058877 0.040628
0.055128 0.058599 0.040474
0.056857 0.058365 0.040345
0.058575 0.058132 0.040216
0.059803 0.057965 0.040124
0.061047 0.057797 0.040031
0.063290 0.057493 0.039863
0.068996 0.056720 0.039436
0.088027 0.054143 0.038011
0.137289 0.047470 0.034324
0.169288 0.043140 0.031932
0.189374 0.040437 0.030441
0.225752 0.035592 0.027793
0.286278 0.027785 0.023697
0.372904 0.017945 0.019221
0.477844 0.011424 0.015261
0.604816 0.007697 0.011696
0.741103 0.005622 0.008921
0.866861 0.004464 0.007181
0.966991 0.003761 0.006101
0.990913 0.003405 0.005546
0.995916 0.003284 0.005350
0.997001 0.003241 0.005279
0.997321 0.003211 0.005231
0.997507 0.003178 0.005179
0.997728 0.003123 0.005095
0.998114 0.003006 0.004925
0.015571 0.065412 0.043404
0.015710 0.065392 0.043393
0.016455 0.065286 0.043334
0.020296 0.064741 0.043033
0.040106 0.061940 0.041486
0.049043 0.060704 0.040803
0.052909 0.060175 0.040511
0.054955 0.059897 0.040357
0.056685 0.059662 0.040228
0.058402 0.059430 0.040099
0.059630 0.059263 0.040007
0.060874 0.059095 0.039914
0.063117 0.058791 0.039746
0.068823 0.058018 0.039319
0.087854 0.055439 0.037895
0.137117 0.048765 0.034208
0.169115 0.044432 0.031815
0.189202 0.041724 0.030325
0.225580 0.036863 0.027680
0.286105 0.028993 0.023599
0.372731 0.018864 0.019150
0.477671 0.011864 0.015209
0.604645 0.007905 0.011657
0.740935 0.005732 0.008895
0.866710 0.004531 0.007164
0.966932 0.003808 0.006089
0.990897 0.003443 0.005536
0.995910 0.003319 0.005341
0.996997 0.003275 0.005270
0.997318 0.003245 0.005223
0.997504 0.003210 0.005171
0.997726 0.003154 0.005087
0.998112 0.003036 0.004918
0.015498 0.066318 0.043322
0.015637 0.066298 0.043311
0.016380 0.066192 0.043253
0.020215 0.065647 0.042952
0.039993 0.062846 0.041404
0.048924 0.061610 0.040722
0.052789 0.061081 0.040430
0.054835 0.060803 0.040276
0.056564 0.060568 0.040146
0.058281 0.060336 0.040018
0.059509 0.060169 0.039926
0.060753 0.060001 0.039833
0.062997 0.059697 0.039665
0.068702 0.058924 0.039238
0.087734 0.056345 0.037813
0.136996 0.049670 0.034126
0.168995 0.045336 0.031734
0.189081 0.042627 0.030244
0.225459 0.037757 0.027601
0.285985 0.029851 0.023530
0.372611 0.019559 0.019101
0.477551 0.012195 0.015172
0.604524 0.008060 0.011629
0.740817 0.005812 0.008877
0.866605 0.004580 0.007152
0.966891 0.003842 0.006081
0.990886 0.003470 0.005529
0.995906 0.003345 0.005335
0.996995 0.003300 0.005264
0.997316 0.003268 0.005217
0.997502 0.003234 0.005165
0.997724 0.003177 0.005082
0.998111 0.003057 0.004913
0.015450 0.066914 0.043269
0.015589 0.066894 0.043258
0.016332 0.066788 0.043199
0.020162 0.066243 0.042898
0.039920 0.063442 0.041351
0.048846 0.062206 0.040668
0.052710 0.061677 0.040376
0.054755 0.061399 0.040222
0.056485 0.061164 0.040093
0.058202 0.060931 0.039964
0.059430 0.060765 0.039872
0.060674 0.060596 0.039779
0.062917 0.060292 0.039611
0.068623 0.059519 0.039184
0.087654 0.056940 0.037760
0.136917 0.050265 0.034073
0.168915 0.045932 0.031680
0.189002 0.043221 0.030191
0.225379 0.038347 0.027549
0.285905 0.030420 0.023486
0.372531 0.020040 0.019068
0.477471 0.012424 0.015148
0.604446 0.008166 0.011611
0.740740 0.005866 0.008866
0.866536 0.004613 0.007145
0.966863 0.003864 0.006075
0.990879 0.003488 0.005525
0.995903 0.003361 0.005331
0.996993 0.003316 0.005261
0.997314 0.003284 0.005213
0.997501 0.003249 0.005162
0.997723 0.003192 0.005078
0.998110 0.003070 0.004910
0.015417 0.067331 0.043231
0.015556 0.067311 0.043220
0.016298 0.067206 0.043162
0.020125 0.066660 0.042861
0.039868 0.063859 0.041313
0.048791 0.062624 0.040631
0.052654 0.062095 0.040339
0.054700 0.061816 0.040185
0.056429 0.061582 0.040055
0.058146 0.061349 0.039927
0.059374 0.061183 0.039835
0.060618 0.061014 0.039742
0.062862 0.060710 0.039574
0.068567 0.059937 0.039147
0.087599 0.057358 0.037722
0.136861 0.050683 0.034035
0.168860 0.046349 0.031643
0.188946 0.043638 0.030154
0.225324 0.038761 0.027512
0.285850 0.030822 0.023455
0.372476 0.020390 0.019046
0.477416 0.012591 0.015131
0.604390 0.008243 0.011599
0.740686 0.005906 0.008857
0.866488 0.004636 0.007139
0.966844 0.003880 0.006072
0.990874 0.003501 0.005522
0.995901 0.003373 0.005329
0.996992 0.003327 0.005258
0.997313 0.003296 0.005211
0.997500 0.003260 0.005159
0.997723 0.003203 0.005076
0.998110 0.003080 0.004907
0.015387 0.067714 0.043197
0.015526 0.067695 0.043186
0.016267 0.067589 0.043127
0.020092 0.067044 0.042826
0.039821 0.064242 0.041279
0.048741 0.063007 0.040596
0.052603 0.062478 0.040304
0.054649 0.062199 0.040150
0.056378 0.061965 0.040021
0.058095 0.061732 0.039892
0.059323 0.061566 0.039800
0.060567 0.061397 0.039707
0.062811 0.061093 0.039539
0.068516 0.060320 0.039112
0.087548 0.057741 0.037688
0.136810 0.051066 0.034001
0.168809 0.046732 0.031608
0.188895 0.044020 0.030119
0.225273 0.039141 0.027479
0.285799 0.031192 0.023426
0.372425 0.020717 0.019025
0.477365 0.012749 0.015115
0.604340 0.008317 0.011587
0.740636 0.005944 0.008850
0.866444 0.004659 0.007134
0.966826 0.003896 0.006068
0.990869 0.003513 0.005519
0.995899 0.003384 0.005326
0.996990 0.003338 0.005255
0.997312 0.003306 0.005208
0.997499 0.003271 0.005157
0.997722 0.003213 0.005073
0.998109 0.003090 0.004905
0.015349 0.068216 0.043152
0.015487 0.068196 0.043141
0.016227 0.068090 0.043082
0.020048 0.067545 0.042781
0.039759 0.064744 0.041234
0.048675 0.063508 0.040551
0.052537 0.062979 0.040259
0.054582 0.062701 0.040105
0.056311 0.062466 0.039976
0.058028 0.062234 0.039847
0.059257 0.062067 0.039755
0.060500 0.061899 0.039662
0.062744 0.061595 0.039494
0.068449 0.060821 0.039067
0.087481 0.058243 0.037643
0.136743 0.051568 0.033956
0.168742 0.047233 0.031563
0.188828 0.044521 0.030075
0.225206 0.039639 0.027436
0.285732 0.031678 0.023389
0.372358 0.021151 0.018997
0.477298 0.012966 0.015095
0.604273 0.008420 0.011572
0.740571 0.005999 0.008840
0.866387 0.004692 0.007128
0.966802 0.003918 0.006063
0.990862 0.003531 0.005515
0.995897 0.003400 0.005322
0.996989 0.003353 0.005252
0.997311 0.003321 0.005205
0.997498 0.003285 0.005153
0.997721 0.003227 0.005070
0.998109 0.003103 0.004902
0.015287 0.069029 0.043079
0.015425 0.069009 0.043068
0.016164 0.068903 0.043009
0.019977 0.068358 0.042708
0.039660 0.065556 0.041161
0.048569 0.064321 0.040478
0.052429 0.063792 0.040186
0.054474 0.063514 0.040032
0.056203 0.063279 0.039903
0.057920 0.063046 0.039774
0.059148 0.062880 0.039682
0.060392 0.062711 0.039589
0.062636 0.062407 0.039421
0.068341 0.061634 0.038994
0.087373 0.059055 0.037570
0.136635 0.052380 0.033883
0.168633 0.048046 0.031490
0.188720 0.045333 0.030002
0.225098 0.040447 0.027365
0.285624 0.032470 0.023329
0.372250 0.021865 0.018953
0.477190 0.013347 0.015061
0.604166 0.008617 0.011547
0.740467 0.006109 0.008823
0.866294 0.004761 0.007117
0.966764 0.003964 0.006056
0.990851 0.003565 0.005509
0.995892 0.003431 0.005317
0.996986 0.003382 0.005247
0.997309 0.003349 0.005200
0.997496 0.003312 0.005148
0.997720 0.003252 0.005065
0.998108 0.003126 0.004898
0.015178 0.070549 0.042942
0.015315 0.070529 0.042931
0.016050 0.070423 0.042873
0.019849 0.069878 0.042571
0.039477 0.067077 0.041024
0.048372 0.065841 0.040342
0.052228 0.065312 0.040049
0.054272 0.065034 0.039896
0.056000 0.064800 0.039766
0.057717 0.064567 0.039638
0.058946 0.064400 0.039546
0.060190 0.064232 0.039453
0.062433 0.063928 0.039285
0.068139 0.063155 0.038858
0.087170 0.060576 0.037433
0.136432 0.053901 0.033746
0.168431 0.049566 0.031355
0.188517 0.046852 0.029868
0.224895 0.041961 0.027236
0.285421 0.033958 0.023219
0.372047 0.023236 0.018870
0.476988 0.014184 0.014998
0.603965 0.009114 0.011499
0.740272 0.006416 0.008791
0.866122 0.004953 0.007096
0.966688 0.004089 0.006041
0.990827 0.003656 0.005498
0.995883 0.003508 0.005306
0.996981 0.003453 0.005237
0.997305 0.003417 0.005190
0.997493 0.003377 0.005139
0.997717 0.003314 0.005056
0.998106 0.003183 0.004889
0.014939 0.074219 0.042612
0.015074 0.074199 0.042601
0.015797 0.074093 0.042543
0.019554 0.073548 0.042242
0.039045 0.070747 0.040694
0.047898 0.069511 0.040012
0.051743 0.068982 0.039720
0.053784 0.068704 0.039566
0.055512 0.068469 0.039436
0.057229 0.068237 0.039308
0.058457 0.068070 0.039216
0.059701 0.067902 0.039123
0.061944 0.067598 0.038955
0.067650 0.066824 0.038528
0.086681 0.064246 0.037104
0.135943 0.057570 0.033418
0.167942 0.053235 0.031028
0.188028 0.050520 0.029547
0.224406 0.045621 0.026931
0.284932 0.037578 0.022961
0.371559 0.026661 0.018671
0.476500 0.016702 0.014844
0.603480 0.010846 0.011382
0.739802 0.007571 0.008715
0.865712 0.005677 0.007046
0.966494 0.004544 0.006006
0.990764 0.003979 0.005470
0.995859 0.003777 0.005281
0.996968 0.003701 0.005212
0.997295 0.003653 0.005166
0.997485 0.003602 0.005116
0.997710 0.003523 0.005034
0.998101 0.003374 0.004868
0.014180 0.086850 0.041477
0.014308 0.086830 0.041466
0.014999 0.086724 0.041407
0.018611 0.086179 0.041106
0.037549 0.083378 0.039559
0.046257 0.082142 0.038876
0.050069 0.081614 0.038584
0.052103 0.081335 0.038430
0.053830 0.081101 0.038301
0.055546 0.080868 0.038172
0.056774 0.080702 0.038080
0.058018 0.080533 0.037987
0.060262 0.080229 0.037819
0.065967 0.079456 0.037393
0.084999 0.076877 0.035970
0.134261 0.070202 0.032287
0.166260 0.065866 0.029907
0.186346 0.063148 0.028449
0.222724 0.058238 0.025908
0.283250 0.050131 0.022123
0.369876 0.038865 0.018035
0.474819 0.026951 0.014353
0.601808 0.018505 0.011016
0.738168 0.012841 0.008479
0.864261 0.008911 0.006892
0.965815 0.006522 0.005897
0.990563 0.005369 0.005382
0.995786 0.004949 0.005201
0.996926 0.004791 0.005134
0.997263 0.004692 0.005090
0.997457 0.004590 0.005041
0.997687 0.004439 0.004961
0.998084 0.004185 0.004800
0.011763 0.131310 0.037480
0.011878 0.131290 0.037469
0.012495 0.131184 0.037411
0.015683 0.130639 0.037110
0.032142 0.127837 0.035563
0.040426 0.126602 0.034880
0.044163 0.126073 0.034588
0.046184 0.125795 0.034434
0.047908 0.125560 0.034305
0.049624 0.125327 0.034176
0.050853 0.125161 0.034084
0.052096 0.124992 0.033991
0.054340 0.124688 0.033824
0.060045 0.123915 0.033398
0.079077 0.121336 0.031979
0.128339 0.114661 0.028312
0.160338 0.110325 0.025978
0.180424 0.107605 0.024621
0.216802 0.102684 0.022449
0.277328 0.094520 0.019442
0.363955 0.082940 0.016063
0.468900 0.069311 0.012868
0.595903 0.053766 0.009941
0.732344 0.037741 0.007796
0.858917 0.023650 0.006436
0.963402 0.015235 0.005565
0.989991 0.011505 0.005107
0.995574 0.010234 0.004944
0.996788 0.009765 0.004884
0.997148 0.009454 0.004844
0.997357 0.009121 0.004799
0.997604 0.008621 0.004727
0.998029 0.007746 0.004581
0.010360 0.164660 0.034483
0.010461 0.164640 0.034472
0.011005 0.164534 0.034414
0.013805 0.163989 0.034113
0.028181 0.161188 0.032566
0.036076 0.159952 0.031884
0.039740 0.159423 0.031592
0.041746 0.159145 0.031438
0.043468 0.158910 0.031308
0.045183 0.158678 0.031180
0.046411 0.158511 0.031088
0.047655 0.158343 0.030995
0.049898 0.158039 0.030828
0.055603 0.157265 0.030405
0.074635 0.154687 0.028999
0.123897 0.148011 0.025407
0.155895 0.143675 0.023303
0.175982 0.140954 0.022120
0.212360 0.136028 0.020274
0.272886 0.127838 0.017695
0.359513 0.116143 0.014707
0.464461 0.102057 0.011813
0.591475 0.085161 0.009196
0.727980 0.067115 0.007317
0.854892 0.050378 0.006112
0.961176 0.035888 0.005328
0.989452 0.026751 0.004910
0.995384 0.023426 0.004761
0.996673 0.022167 0.004706
0.997056 0.021230 0.004668
0.997277 0.020180 0.004627
0.997538 0.018578 0.004560
0.997984 0.015549 0.004424
0.009730 0.182722 0.032864
0.009821 0.182702 0.032853
0.010309 0.182596 0.032795
0.012852 0.182051 0.032495
0.026120 0.179250 0.030949
0.033753 0.178014 0.030268
0.037356 0.177485 0.029977
0.039349 0.177207 0.029823
0.041067 0.176972 0.029694
0.042781 0.176740 0.029566
0.044008 0.176573 0.029475
0.045251 0.176405 0.029382
0.047494 0.176101 0.029217
0.053199 0.175328 0.028800
0.072230 0.172749 0.027422
0.121491 0.166073 0.023962
0.153490 0.161737 0.022006
0.173576 0.159016 0.020914
0.209954 0.154087 0.019210
0.270480 0.145889 0.016807
0.357108 0.134160 0.013987
0.462057 0.119967 0.011242
0.589079 0.102810 0.008802
0.725620 0.084360 0.007062
0.852705 0.067038 0.005940
0.959749 0.051472 0.005201
0.989057 0.041362 0.004805
0.995248 0.037582 0.004664
0.996601 0.036124 0.004611
0.997001 0.035036 0.004576
0.997231 0.033779 0.004536
0.997501 0.031679 0.004472
0.997958 0.027011 0.004341
0.009067 0.206151 0.030784
0.009145 0.206131 0.030773
0.009566 0.206025 0.030716
0.011783 0.205480 0.030418
0.023505 0.202679 0.028881
0.030776 0.201443 0.028207
0.034291 0.200914 0.027920
0.036260 0.200636 0.027769
0.037968 0.200401 0.027642
0.039678 0.200169 0.027516
0.040902 0.200002 0.027427
0.042143 0.199834 0.027337
0.044383 0.199530 0.027176
0.050085 0.198757 0.026776
0.069112 0.196178 0.025467
0.118372 0.189502 0.022310
0.150369 0.185166 0.020551
0.170455 0.182444 0.019559
0.206833 0.177515 0.018006
0.267359 0.169314 0.015787
0.353987 0.157578 0.013154
0.458938 0.143361 0.010589
0.585966 0.126151 0.008368
0.722537 0.107620 0.006780
0.849768 0.090178 0.005744
0.957538 0.074418 0.005054
0.988476 0.064131 0.004681
0.995056 0.060256 0.004549
0.996499 0.058751 0.004500
0.996925 0.057627 0.004466
0.997168 0.056317 0.004428
0.997449 0.054101 0.004367
0.997923 0.049183 0.004242
0.008095 0.247914 0.027174
0.008156 0.247894 0.027164
0.008481 0.247788 0.027110
0.010179 0.247243 0.026828
0.019089 0.244441 0.025348
0.025616 0.243206 0.024715
0.028931 0.242677 0.024450
0.030837 0.242399 0.024313
0.032515 0.242164 0.024198
0.034203 0.241931 0.024086
0.035413 0.241765 0.024006
0.036642 0.241596 0.023926
0.038870 0.241292 0.023784
0.044556 0.240519 0.023437
0.063567 0.237940 0.022337
0.112816 0.231265 0.019797
0.144809 0.226929 0.018334
0.164893 0.224207 0.017481
0.201270 0.219278 0.016137
0.261797 0.211076 0.014188
0.348425 0.199338 0.011849
0.453376 0.185116 0.009602
0.580411 0.167896 0.007719
0.717014 0.149349 0.006351
0.844405 0.131882 0.005440
0.952974 0.116087 0.004821
0.987384 0.105767 0.004483
0.994704 0.101873 0.004362
0.996309 0.100357 0.004317
0.996781 0.099224 0.004286
0.997047 0.097903 0.004252
0.997351 0.095663 0.004195
0.997858 0.090706 0.004079
0.006947 0.311802 0.022271
0.006989 0.311782 0.022262
0.007209 0.311676 0.022217
0.008327 0.311131 0.021993
0.013987 0.308330 0.020901
0.018520 0.307094 0.020427
0.021290 0.306565 0.020227
0.022994 0.306287 0.020123
0.024544 0.306052 0.020038
0.026129 0.305820 0.019955
0.027270 0.305653 0.019895
0.028444 0.305485 0.019834
0.030610 0.305181 0.019726
0.036222 0.304408 0.019456
0.055140 0.301829 0.018619
0.104336 0.295154 0.016701
0.136308 0.290818 0.015539
0.156386 0.288096 0.014835
0.192761 0.283167 0.013723
0.253287 0.274965 0.012097
0.339915 0.263226 0.010157
0.444868 0.249003 0.008388
0.571910 0.231782 0.006908
0.708555 0.213232 0.005799
0.836154 0.195760 0.005037
0.945788 0.179959 0.004505
0.985653 0.169633 0.004211
0.994128 0.165734 0.004105
0.995987 0.164217 0.004066
0.996534 0.163082 0.004038
0.996840 0.161758 0.004008
0.997185 0.159513 0.003958
0.997750 0.154551 0.003854
0.005848 0.395562 0.017635
0.005874 0.395542 0.017628
0.006013 0.395437 0.017592
0.006704 0.394892 0.017424
0.010124 0.392091 0.016665
0.012607 0.390855 0.016320
0.014105 0.390327 0.016172
0.015088 0.390048 0.016095
0.016045 0.389814 0.016032
0.017099 0.389581 0.015972
0.017921 0.389415 0.015928
0.018843 0.389246 0.015882
0.020717 0.388942 0.015799
0.025970 0.388170 0.015591
0.044362 0.385591 0.014955
0.093298 0.378917 0.013506
0.125183 0.374582 0.012595
0.145235 0.371861 0.012030
0.181605 0.366932 0.011151
0.242129 0.358731 0.009889
0.328757 0.346994 0.008464
0.433712 0.332771 0.007182
0.560764 0.315550 0.006075
0.697459 0.297000 0.005210
0.825321 0.279528 0.004592
0.936316 0.263726 0.004150
0.983233 0.253399 0.003901
0.993266 0.249500 0.003811
0.995483 0.247982 0.003777
0.996145 0.246846 0.003754
0.996518 0.245522 0.003727
0.996931 0.243276 0.003684
0.997588 0.238313 0.003594
0.004887 0.498706 0.013545
0.004904 0.498687 0.013539
0.004990 0.498581 0.013511
0.005414 0.498037 0.013384
0.007501 0.495238 0.012845
0.008864 0.494003 0.012591
0.009640 0.493475 0.012480
0.010140 0.493197 0.012423
0.010619 0.492963 0.012377
0.011140 0.492731 0.012332
0.011557 0.492565 0.012299
0.012059 0.492396 0.012265
0.013201 0.492093 0.012202
0.016943 0.491322 0.012045
0.032262 0.488746 0.011568
0.079985 0.482075 0.010490
0.111539 0.477744 0.009818
0.131512 0.475026 0.009412
0.167864 0.470102 0.008808
0.228384 0.461907 0.007963
0.315012 0.450174 0.007002
0.419969 0.435956 0.006107
0.547032 0.418739 0.005296
0.683785 0.400191 0.004633
0.811954 0.382721 0.004143
0.924559 0.366921 0.003783
0.979881 0.356594 0.003576
0.991949 0.352695 0.003501
0.994672 0.351178 0.003473
0.995520 0.350042 0.003453
0.996011 0.348718 0.003431
0.996541 0.346472 0.003395
0.997351 0.341508 0.003318
0.004071 0.623012 0.010005
0.004082 0.622992 0.010001
0.004136 0.622888 0.009982
0.004400 0.622348 0.009895
0.005699 0.619557 0.009539
0.006477 0.618329 0.009370
0.006895 0.617804 0.009296
0.007155 0.617528 0.009258
0.007398 0.617295 0.009228
0.007656 0.617063 0.009199
0.007866 0.616898 0.009177
0.008138 0.616731 0.009154
0.008828 0.616430 0.009113
0.011317 0.615665 0.009010
0.022059 0.613102 0.008707
0.064670 0.606454 0.008037
0.095199 0.602142 0.007616
0.114969 0.599441 0.007360
0.151280 0.594538 0.006978
0.211792 0.586370 0.006437
0.298419 0.574667 0.005800
0.403378 0.560472 0.005180
0.530452 0.543272 0.004592
0.667265 0.524740 0.004090
0.795756 0.507282 0.003707
0.910098 0.491491 0.003418
0.974821 0.481169 0.003250
0.989719 0.477271 0.003188
0.993239 0.475754 0.003165
0.994431 0.474619 0.003149
0.995155 0.473295 0.003130
0.995911 0.471049 0.003100
0.996990 0.466085 0.003036
0.003430 0.758944 0.007532
0.003437 0.758926 0.007530
0.003472 0.758828 0.007518
0.003644 0.758307 0.007465
0.004491 0.755565 0.007252
0.004968 0.754368 0.007149
0.005213 0.753858 0.007105
0.005359 0.753591 0.007081
0.005493 0.753364 0.007063
0.005634 0.753138 0.007045
0.005749 0.752977 0.007032
0.005907 0.752815 0.007018
0.006344 0.752525 0.006993
0.008026 0.751786 0.006931
0.015587 0.749291 0.006747
0.048594 0.742766 0.006336
0.077329 0.738554 0.006075
0.096757 0.735932 0.005915
0.133002 0.731137 0.005670
0.193502 0.723118 0.005313
0.280126 0.711574 0.004878
0.385086 0.697494 0.004438
0.512169 0.680384 0.004004
0.649031 0.661932 0.003620
0.777783 0.644540 0.003319
0.893555 0.628793 0.003087
0.966228 0.618493 0.002951
0.985601 0.614604 0.002901
0.990542 0.613090 0.002881
0.992447 0.611956 0.002868
0.993673 0.610632 0.002853
0.994886 0.608386 0.002827
0.996454 0.603423 0.002774
0.002973 0.883798 0.006032
0.002978 0.883783 0.006030
0.003002 0.883704 0.006023
0.003123 0.883270 0.005990
0.003724 0.880825 0.005852
0.004048 0.879786 0.005787
0.004208 0.879348 0.005759
0.004302 0.879117 0.005744
0.004386 0.878920 0.005732
0.004474 0.878721 0.005721
0.004545 0.878582 0.005712
0.004646 0.878443 0.005703
0.004931 0.878195 0.005687
0.006050 0.877569 0.005647
0.011126 0.875405 0.005528
0.033687 0.869598 0.005253
0.060274 0.865899 0.005078
0.079268 0.863631 0.004971
0.115426 0.859381 0.004801
0.175909 0.852161 0.004547
0.262531 0.841496 0.004229
0.367491 0.827994 0.003899
0.494579 0.811335 0.003562
0.631466 0.793297 0.003258
0.760343 0.776253 0.003014
0.876703 0.760742 0.002823
0.951992 0.750540 0.002709
0.977892 0.746685 0.002667
0.985320 0.745182 0.002651
0.988763 0.744052 0.002640
0.991117 0.742731 0.002627
0.993274 0.740488 0.002605
0.995705 0.735526 0.002560
0.002633 0.973437 0.005070
0.002636 0.973430 0.005069
0.002654 0.973397 0.005064
0.002745 0.973253 0.005042
0.003196 0.972706 0.004945
0.003433 0.972426 0.004900
0.003547 0.972299 0.004881
0.003612 0.972232 0.004870
0.003670 0.972179 0.004862
0.003731 0.972127 0.004854
0.003779 0.972088 0.004848
0.003846 0.972046 0.004842
0.004033 0.971968 0.004831
0.004740 0.971762 0.004803
0.007810 0.971132 0.004718
0.020521 0.969630 0.004520
0.044079 0.968519 0.004394
0.062478 0.967713 0.004315
0.098522 0.966212 0.004189
0.158984 0.963296 0.003997
