src/silbersalz_look/luts/silbersalz-250d_hybrid-cool_33.cube
TITLE "SILBERSALZ 250D cooled hybrid: v4 tone, colour cooled 0.15 toward the author's graded archive (measured free point)"
# Generated by saltgate on 2026-08-26
# Input:  Silbersalz flat-scan code values [0,1] (Display P3 tagged)
# Output: graded display code values (Display P3)
LUT_3D_SIZE 5
DOMAIN_MIN 0.0 0.0 0.0
DOMAIN_MAX 1.0 1.0 1.0
0.017067 0.025373 0.018290
0.102939 0.057571 0.031910
0.360694 0.048254 0.052502
0.888304 0.006578 0.028306
0.999980 0.000831 0.038665
0.009367 0.054330 0.009068
0.090442 0.077263 0.026039
0.274840 0.087426 0.065983
0.825179 0.016563 0.004539
1.000000 0.010354 0.001068
0.002490 0.152129 0.007330
0.040301 0.143815 0.009035
0.231525 0.140289 0.026175
0.740445 0.084486 0.000005
1.000000 0.073321 0.001420
0.000000 0.483443 0.000000
0.000000 0.439258 0.000000
0.145440 0.381016 0.000000
0.618863 0.335346 0.000000
0.962086 0.321754 0.000000
0.000000 0.848793 0.000000
0.000000 0.794168 0.000000
0.084085 0.709437 0.000000
0.542976 0.626833 0.000000
0.914208 0.588671 0.000000
0.029616 0.049950 0.101976
0.099744 0.032984 0.141484
0.392624 0.051214 0.215166
0.909489 0.011015 0.258953
1.000000 0.000466 0.304285
0.036913 0.085830 0.060119
0.054912 0.045192 0.030425
0.288868 0.076669 0.099394
0.832670 0.028601 0.136866
1.000000 0.022392 0.166901
0.008511 0.202207 0.018712
0.055341 0.186140 0.021549
0.224774 0.182639 0.051215
0.740206 0.140505 0.100776
1.000000 0.127145 0.095284
0.000000 0.585125 0.000000
0.000000 0.539097 0.000000
0.158232 0.488495 0.001127
0.661149 0.445542 0.034349
0.978100 0.406706 0.028468
0.000000 0.934172 0.000000
0.000000 0.894029 0.000000
0.110821 0.828090 0.000000
0.584141 0.753455 0.000000
0.939120 0.703396 0.000000
0.091463 0.077119 0.587190
0.156528 0.082801 0.648706
0.462621 0.104841 0.742721
0.969013 0.015598 0.762824
1.000000 0.000000 0.790694
0.037096 0.101680 0.365300
0.094155 0.092203 0.380120
0.349843 0.096890 0.458892
0.889454 0.043329 0.552770
1.000000 0.028195 0.626224
0.026160 0.283848 0.151019
0.060732 0.229063 0.153211
0.243394 0.201070 0.164723
0.776531 0.157948 0.206715
1.000000 0.167600 0.346408
0.003358 0.730786 0.028292
0.015908 0.675359 0.035229
0.198750 0.623272 0.064308
0.794054 0.633987 0.196783
0.995316 0.538976 0.143093
0.001190 0.999948 0.009791
0.007457 0.989857 0.007871
0.156307 0.960889 0.002757
0.665682 0.932970 0.026052
0.980870 0.879624 0.013887
0.094255 0.071076 0.978713
0.152600 0.068084 0.979281
0.488101 0.093986 0.989951
0.966659 0.062358 0.953651
1.000000 0.027826 0.936486
0.079144 0.135383 0.914889
0.121515 0.117194 0.922839
0.404094 0.118232 0.945476
0.924872 0.093303 0.944035
1.000000 0.071637 0.936722
0.099522 0.387446 0.699586
0.060870 0.273527 0.690127
0.218836 0.235097 0.716069
0.827724 0.220944 0.765103
1.000000 0.216536 0.838820
0.097358 0.853562 0.383399
0.077735 0.789991 0.422473
0.188103 0.710106 0.510111
0.810574 0.689507 0.546149
1.000000 0.657827 0.608742
0.059796 0.998262 0.211308
0.064094 0.998388 0.241584
0.186415 0.999263 0.311473
0.724134 1.000000 0.404239
0.991673 0.999600 0.417352
0.013018 0.062411 1.000000
0.121548 0.052856 1.000000
0.506248 0.056404 1.000000
0.957782 0.058611 1.000000
1.000000 0.024265 0.999394
0.021333 0.161608 1.000000
0.099426 0.142105 1.000000
0.434744 0.124691 1.000000
0.925437 0.111441 1.000000
1.000000 0.086912 1.000000
0.135568 0.480870 1.000000
0.129465 0.422621 1.000000
0.328820 0.353865 1.000000
0.860505 0.302593 1.000000
1.000000 0.274902 1.000000
0.146982 0.922026 0.854369
0.134500 0.884616 0.902455
0.242216 0.823422 0.995426
0.806753 0.762482 1.000000
1.000000 0.724550 1.000000
0.105306 0.994939 0.551827
0.090186 0.995594 0.634503
0.202221 0.997621 0.779857
0.748170 1.000000 0.968053
0.990210 0.992276 0.986155
