src/silbersalz_look/luts/silbersalz-250d_hybrid-cool_33.cube
TITLE "SILBERSALZ 250D cooled hybrid: v4 tone, colour cooled 0.15 toward the author's graded archive (measured free point)"
# Generated by saltgate on 2026-08-26
# Input:  Silbersalz flat-scan code values [0,1] (Display P3 tagged)
# Output: graded display code values (Display P3)
LUT_3D_SIZE 9
DOMAIN_MIN 0.0 0.0 0.0
DOMAIN_MAX 1.0 1.0 1.0
0.017067 0.025373 0.018290
0.079026 0.057144 0.025593
0.102939 0.057571 0.031910
0.175775 0.048751 0.036589
0.360694 0.048254 0.052502
0.636564 0.056647 0.054578
0.888304 0.006578 0.028306
0.999950 0.001012 0.033506
0.999980 0.000831 0.038665
0.017529 0.040530 0.016358
0.047704 0.047141 0.021261
0.103606 0.072253 0.031727
0.158165 0.066975 0.038284
0.325602 0.061012 0.053124
0.603160 0.058594 0.049761
0.867204 0.008735 0.017629
0.999572 0.003348 0.019203
0.999967 0.002283 0.022122
0.009367 0.054330 0.009068
0.032628 0.060675 0.012799
0.090442 0.077263 0.026039
0.151485 0.091442 0.041312
0.274840 0.087426 0.065983
0.544087 0.063866 0.046655
0.825179 0.016563 0.004539
0.984107 0.010066 0.000216
1.000000 0.010354 0.001068
0.007725 0.086227 0.010092
0.024869 0.087562 0.012037
0.067579 0.094296 0.020968
0.140447 0.110474 0.040556
0.262233 0.110133 0.056118
0.497541 0.080070 0.040515
0.780858 0.036306 0.000000
0.965259 0.028512 0.000000
1.000000 0.030672 0.001208
0.002490 0.152129 0.007330
0.010474 0.148196 0.007177
0.040301 0.143815 0.009035
0.105141 0.143970 0.015944
0.231525 0.140289 0.026175
0.455825 0.123078 0.026207
0.740445 0.084486 0.000005
0.945368 0.072808 0.000000
1.000000 0.073321 0.001420
0.000822 0.278026 0.007722
0.001814 0.268246 0.006452
0.021359 0.251220 0.004566
0.076279 0.235173 0.004322
0.192707 0.221268 0.006961
0.403081 0.207391 0.010330
0.695141 0.171645 0.000000
0.919730 0.156447 0.000000
1.000000 0.154598 0.001006
0.000000 0.483443 0.000000
0.000000 0.468078 0.000000
0.000000 0.439258 0.000000
0.025644 0.408712 0.000000
0.145440 0.381016 0.000000
0.333724 0.359696 0.000000
0.618863 0.335346 0.000000
0.863280 0.321423 0.000000
0.962086 0.321754 0.000000
0.000000 0.718129 0.000000
0.000000 0.699951 0.000000
0.000000 0.664618 0.000000
0.000000 0.624944 0.000000
0.098367 0.586171 0.000000
0.286201 0.550634 0.000000
0.558139 0.517848 0.000000
0.809595 0.497641 0.000000
0.919403 0.493252 0.000000
0.000000 0.848793 0.000000
0.000000 0.830553 0.000000
0.000000 0.794168 0.000000
0.000000 0.752011 0.000000
0.084085 0.709437 0.000000
0.268941 0.668181 0.000000
0.542976 0.626833 0.000000
0.798455 0.597897 0.000000
0.914208 0.588671 0.000000
0.028503 0.047945 0.052833
0.053239 0.041787 0.049991
0.094133 0.033875 0.051580
0.180770 0.037821 0.066096
0.371495 0.046188 0.087089
0.647155 0.059397 0.097986
0.894615 0.008346 0.092921
1.000000 0.001353 0.106391
1.000000 0.001007 0.115136
0.029801 0.050708 0.037844
0.039976 0.037990 0.029203
0.088725 0.041969 0.037183
0.159950 0.049153 0.052838
0.336462 0.057518 0.076387
0.612350 0.060711 0.083350
0.872611 0.011038 0.069838
1.000000 0.005053 0.079967
1.000000 0.003871 0.087147
0.018465 0.064376 0.024275
0.031924 0.064415 0.020727
0.080044 0.073996 0.028666
0.129400 0.072557 0.041517
0.277425 0.088157 0.074093
0.545193 0.066005 0.066459
0.826427 0.020814 0.037494
0.983700 0.014276 0.039184
1.000000 0.014454 0.042466
0.014501 0.097920 0.018390
0.031664 0.098189 0.019507
0.071674 0.100777 0.024349
0.131909 0.106539 0.039637
0.256414 0.111724 0.064057
0.488970 0.086939 0.057791
0.776517 0.047753 0.024938
0.962447 0.038644 0.021066
1.000000 0.040062 0.020433
0.003701 0.168596 0.012563
0.014757 0.164005 0.011763
0.044930 0.158403 0.012482
0.106499 0.157364 0.020476
0.232532 0.154745 0.037679
0.456916 0.138241 0.047468
0.741014 0.102964 0.025246
0.944137 0.091551 0.022003
1.000000 0.090197 0.019470
0.002418 0.303833 0.009945
0.004630 0.293442 0.008835
0.024941 0.275697 0.007403
0.079816 0.260080 0.008899
0.196664 0.247524 0.016678
0.411252 0.233074 0.027197
0.704465 0.197409 0.018354
0.923876 0.181164 0.018693
1.000000 0.177064 0.018432
0.000000 0.517971 0.000000
0.000000 0.502316 0.000000
0.000000 0.473175 0.000000
0.028136 0.442907 0.000000
0.149637 0.416440 0.000000
0.342523 0.395513 0.000000
0.631458 0.368534 0.000000
0.871831 0.350370 0.000109
0.966744 0.347616 0.000000
0.000000 0.753628 0.000000
0.000000 0.736194 0.000000
0.000000 0.702207 0.000000
0.000000 0.663994 0.000000
0.104209 0.626855 0.000000
0.295080 0.592372 0.000000
0.570973 0.558093 0.000000
0.820034 0.534082 0.000000
0.926394 0.526930 0.000000
0.000000 0.880427 0.000000
0.000000 0.864001 0.000000
0.000000 0.830612 0.000000
0.000000 0.791247 0.000000
0.092535 0.750939 0.000000
0.278343 0.711096 0.000000
0.556138 0.669234 0.000000
0.809892 0.637892 0.000000
0.922327 0.626705 0.000000
0.029616 0.049950 0.101976
0.053297 0.046619 0.119182
0.099744 0.032984 0.141484
0.193757 0.036079 0.173583
0.392624 0.051214 0.215166
0.668416 0.068402 0.248779
0.909489 0.011015 0.258953
1.000000 0.001275 0.287473
1.000000 0.000466 0.304285
0.035655 0.066087 0.079673
0.056566 0.066512 0.090053
0.094935 0.044174 0.102161
0.173388 0.043975 0.128145
0.357428 0.057957 0.169035
0.632366 0.067444 0.201718
0.885812 0.015089 0.210856
1.000000 0.007411 0.236309
1.000000 0.005924 0.250642
0.036913 0.085830 0.060119
0.052246 0.085473 0.066421
0.054912 0.045192 0.030425
0.141038 0.064727 0.060596
0.288868 0.076669 0.099394
0.555712 0.068933 0.128365
0.832670 0.028601 0.136866
0.984418 0.022477 0.156762
1.000000 0.022392 0.166901
0.026952 0.120051 0.037252
0.044390 0.118158 0.041860
0.082908 0.112065 0.040684
0.127012 0.110096 0.045989
0.251365 0.119164 0.078754
0.469973 0.095247 0.090095
0.765839 0.069152 0.098602
0.956854 0.061069 0.109455
1.000000 0.059898 0.111000
0.008511 0.202207 0.018712
0.021817 0.195386 0.019230
0.055341 0.186140 0.021549
0.114836 0.187946 0.029725
0.224774 0.182639 0.051215
0.458977 0.164596 0.089108
0.740206 0.140505 0.100776
0.940413 0.134580 0.108674
1.000000 0.127145 0.095284
0.008242 0.356387 0.015474
0.012872 0.344244 0.014197
0.035275 0.323882 0.012084
0.089353 0.308923 0.015711
0.200682 0.302018 0.034369
0.427409 0.291506 0.066172
0.728410 0.255779 0.080303
0.933718 0.241628 0.090938
1.000000 0.230210 0.079069
0.000000 0.585125 0.000000
0.000000 0.568947 0.000000
0.000000 0.539097 0.000000
0.037102 0.509680 0.000000
0.158232 0.488495 0.001127
0.360630 0.475392 0.020684
0.661149 0.445542 0.034349
0.892338 0.417201 0.034294
0.978100 0.406706 0.028468
0.000000 0.817920 0.000000
0.000000 0.802172 0.000000
0.000000 0.771364 0.000000
0.000000 0.737099 0.000000
0.117948 0.705498 0.000000
0.314775 0.677124 0.000000
0.599452 0.642383 0.000000
0.843051 0.610575 0.000000
0.941704 0.597672 0.000000
0.000000 0.934172 0.000000
0.000000 0.921125 0.000000
0.000000 0.894029 0.000000
0.000000 0.861539 0.000000
0.110821 0.828090 0.000000
0.298901 0.794074 0.000000
0.584141 0.753455 0.000000
0.833552 0.718166 0.000000
0.939120 0.703396 0.000000
0.045586 0.048419 0.280508
0.068949 0.047743 0.302957
0.118241 0.047170 0.346415
0.219203 0.058821 0.399871
0.425137 0.072675 0.457341
0.700348 0.087096 0.504019
0.936679 0.011279 0.519586
1.000000 0.000000 0.554674
1.000000 0.000000 0.574377
0.038130 0.060639 0.219953
0.058229 0.059814 0.234133
0.103377 0.055855 0.268443
0.195950 0.062144 0.317111
0.388848 0.073562 0.372149
0.663747 0.082905 0.422303
0.910899 0.017743 0.444111
1.000000 0.005623 0.482232
1.000000 0.003447 0.502854
0.032137 0.090763 0.141931
0.051110 0.089016 0.140101
0.085709 0.086069 0.144045
0.162310 0.085331 0.182022
0.317705 0.082139 0.218036
0.589208 0.079648 0.273403
0.854927 0.035566 0.308970
0.994477 0.028265 0.353065
1.000000 0.027391 0.374353
0.029480 0.140003 0.085694
0.047198 0.133814 0.089029
0.081997 0.125023 0.102425
0.122884 0.102938 0.088110
0.264259 0.109201 0.105513
0.521842 0.100242 0.147259
0.785246 0.079797 0.191969
0.964029 0.076571 0.244056
1.000000 0.075476 0.262254
0.015504 0.241470 0.049507
0.028895 0.229977 0.051603
0.061307 0.209430 0.057802
0.124243 0.194443 0.061202
0.218350 0.187084 0.063933
0.465907 0.177775 0.111608
0.761938 0.157823 0.155091
0.950510 0.166115 0.202646
1.000000 0.157707 0.200839
0.020822 0.419024 0.023385
0.025686 0.403316 0.024755
0.048739 0.375025 0.029350
0.103158 0.351449 0.036581
0.208159 0.344193 0.054528
0.437267 0.344766 0.106119
0.768270 0.310043 0.146956
0.957287 0.310490 0.183672
1.000000 0.285105 0.155993
0.000000 0.659775 0.000000
0.000000 0.642670 0.000000
0.000000 0.610694 0.000000
0.055238 0.580045 0.000000
0.173586 0.564598 0.014068
0.386681 0.575345 0.064858
0.714596 0.551462 0.105203
0.929167 0.500553 0.092827
0.987850 0.477281 0.075924
0.000000 0.880754 0.000000
0.000000 0.867134 0.000000
0.000000 0.840295 0.000000
0.004149 0.811199 0.000000
0.138676 0.788096 0.000000
0.344588 0.773321 0.001584
0.643043 0.745008 0.014776
0.876952 0.703568 0.006608
0.963082 0.682850 0.000000
0.000000 0.980528 0.000000
0.000000 0.970975 0.000000
0.000000 0.950903 0.000000
0.022226 0.927076 0.000000
0.133766 0.904009 0.000000
0.327304 0.881640 0.000000
0.622017 0.848140 0.000000
0.864422 0.811040 0.000000
0.960203 0.792704 0.000000
0.091463 0.077119 0.587190
0.113285 0.077724 0.607985
0.156528 0.082801 0.648706
0.253752 0.096413 0.696461
0.462621 0.104841 0.742721
0.735221 0.114833 0.773393
0.969013 0.015598 0.762824
1.000000 0.000000 0.779655
1.000000 0.000000 0.790694
0.068833 0.080198 0.504452
0.090516 0.079615 0.521272
0.132705 0.082228 0.556444
0.226068 0.093224 0.603266
0.426111 0.101582 0.654092
0.700191 0.108549 0.695918
0.944762 0.022881 0.699085
1.000000 0.002582 0.725414
1.000000 0.000000 0.740414
0.037096 0.101680 0.365300
0.057670 0.097334 0.370388
0.094155 0.092203 0.380120
0.173731 0.093972 0.408703
0.349843 0.096890 0.458892
0.623839 0.098957 0.518926
0.889454 0.043329 0.552770
1.000000 0.030872 0.601790
1.000000 0.028195 0.626224
0.023552 0.161422 0.243311
0.039527 0.150118 0.242086
0.068699 0.129974 0.225181
0.122828 0.112336 0.203524
0.268880 0.120107 0.236030
0.534622 0.113325 0.297436
0.820195 0.084060 0.363907
0.985924 0.082446 0.444680
1.000000 0.082573 0.481604
0.026160 0.283848 0.151019
0.035316 0.264863 0.151964
0.060732 0.229063 0.153211
0.114611 0.211039 0.167676
0.243394 0.201070 0.164723
0.496759 0.182194 0.175624
0.776531 0.157948 0.206715
0.975516 0.169833 0.306194
1.000000 0.167600 0.346408
0.054779 0.484108 0.096346
0.052644 0.462229 0.097140
0.062921 0.420277 0.101895
0.116212 0.383154 0.112819
0.227014 0.361493 0.118529
0.450736 0.350835 0.139517
0.810342 0.327214 0.195546
0.995347 0.324621 0.228803
1.000000 0.311155 0.239282
0.003358 0.730786 0.028292
0.001661 0.711880 0.029948
0.015908 0.675359 0.035229
0.076721 0.640076 0.045345
0.198750 0.623272 0.064308
0.427700 0.631964 0.114902
0.794054 0.633987 0.196783
0.977756 0.570274 0.163660
0.995316 0.538976 0.143093
0.000000 0.930431 0.000674
0.000000 0.918837 0.000000
0.000000 0.895556 0.000000
0.029509 0.870881 0.000000
0.162597 0.854546 0.010595
0.382318 0.851017 0.043642
0.701169 0.839712 0.084194
0.918398 0.795515 0.068976
0.976890 0.766922 0.050266
0.001190 0.999948 0.009791
0.001242 0.999949 0.009566
0.007457 0.989857 0.007871
0.047400 0.973809 0.005435
0.156307 0.960889 0.002757
0.359585 0.952353 0.017532
0.665682 0.932970 0.026052
0.898269 0.899971 0.020222
0.980870 0.879624 0.013887
0.137972 0.099015 0.849345
0.153947 0.098391 0.859656
0.189024 0.100889 0.880155
0.282096 0.110238 0.904005
0.486601 0.123241 0.925804
0.754821 0.135523 0.931394
0.981753 0.035719 0.884151
1.000000 0.004291 0.872664
1.000000 0.002437 0.871790
0.119317 0.105416 0.790512
0.135403 0.104055 0.801165
0.169106 0.104767 0.821400
0.257301 0.112033 0.846249
0.454984 0.122992 0.873283
0.725699 0.132244 0.891221
0.965422 0.043698 0.866711
1.000000 0.015145 0.871614
1.000000 0.012688 0.871600
0.086207 0.126828 0.664398
0.101378 0.121388 0.672954
0.129305 0.113650 0.684567
0.203065 0.112960 0.701337
0.385422 0.118998 0.735589
0.659177 0.125724 0.773716
0.921471 0.062878 0.777309
1.000000 0.046297 0.804700
1.000000 0.042477 0.819789
0.059289 0.191843 0.513475
0.067725 0.175848 0.516295
0.083234 0.145995 0.506797
0.126592 0.131656 0.489062
0.287641 0.135412 0.523491
0.567407 0.135672 0.577699
0.858479 0.102363 0.620411
1.000000 0.096854 0.686076
1.000000 0.095991 0.719010
0.051908 0.332879 0.370511
0.047234 0.303175 0.370851
0.049600 0.235645 0.356588
0.087774 0.207240 0.351344
0.212080 0.211255 0.357499
0.489217 0.201918 0.367589
0.803928 0.178499 0.416814
0.990798 0.183147 0.522577
1.000000 0.183267 0.577807
0.089305 0.551665 0.256517
0.078160 0.520699 0.260235
0.068865 0.452901 0.266455
0.120601 0.400174 0.291821
0.219325 0.382304 0.293771
0.467666 0.371634 0.279578
0.814270 0.337497 0.283789
1.000000 0.345613 0.363086
1.000000 0.341480 0.426317
0.029085 0.795906 0.137934
0.023819 0.774713 0.143604
0.033128 0.731340 0.157859
0.089966 0.688365 0.182086
0.206186 0.668856 0.206084
0.438341 0.667613 0.207852
0.837142 0.640592 0.250896
1.000000 0.623942 0.275909
1.000000 0.599104 0.294058
0.000000 0.966624 0.069837
0.000000 0.956772 0.073155
0.000000 0.936324 0.082388
0.050178 0.914691 0.098168
0.175844 0.902724 0.119949
0.407071 0.905285 0.148907
0.751731 0.911008 0.186746
0.951214 0.877528 0.191158
0.986446 0.845875 0.186327
0.003104 0.999798 0.054581
0.003018 0.999803 0.058362
0.015761 0.999836 0.066540
0.063242 0.999945 0.077314
0.172207 0.998174 0.092332
0.385356 1.000000 0.115739
0.704890 0.999859 0.135060
0.926456 0.978059 0.140400
0.992812 0.956370 0.137621
0.094255 0.071076 0.978713
0.108020 0.069528 0.978665
0.152600 0.068084 0.979281
0.270425 0.073081 0.982521
0.488101 0.093986 0.989951
0.752719 0.122207 0.993848
0.966659 0.062358 0.953651
1.000000 0.029807 0.937261
1.000000 0.027826 0.936486
0.092210 0.090589 0.972363
0.105994 0.088109 0.975899
0.145798 0.084512 0.979198
0.253546 0.086021 0.981903
0.462160 0.100919 0.988508
0.728205 0.124844 0.992167
0.954239 0.070823 0.952739
1.000000 0.043515 0.937190
1.000000 0.040954 0.936404
0.079144 0.135383 0.914889
0.090222 0.128649 0.918545
0.121515 0.117194 0.922839
0.211416 0.111596 0.929064
0.404094 0.118232 0.945476
0.673979 0.134414 0.965042
0.924872 0.093303 0.944035
1.000000 0.074990 0.937531
1.000000 0.071637 0.936722
0.075042 0.224529 0.821970
0.076176 0.206924 0.824671
0.088496 0.172505 0.821388
0.146939 0.153281 0.819453
0.318733 0.155236 0.841117
0.596620 0.162198 0.874601
0.878595 0.136845 0.873385
1.000000 0.126589 0.896284
1.000000 0.123926 0.911845
0.099522 0.387446 0.699586
0.086739 0.354713 0.702237
0.060870 0.273527 0.690127
0.077996 0.227292 0.685814
0.218836 0.235097 0.716069
0.507147 0.238670 0.758523
0.827724 0.220944 0.765103
0.999672 0.217166 0.808747
1.000000 0.216536 0.838820
0.158445 0.619269 0.562648
0.142845 0.586238 0.571225
0.112746 0.508259 0.581978
0.108449 0.433324 0.604656
0.190743 0.403418 0.627816
0.434986 0.397586 0.664172
0.804072 0.376986 0.654420
1.000000 0.385482 0.699512
1.000000 0.386214 0.738005
0.097358 0.853562 0.383399
0.087571 0.833372 0.396114
0.077735 0.789991 0.422473
0.098872 0.742713 0.460720
0.188103 0.710106 0.510111
0.398266 0.710267 0.552339
0.810574 0.689507 0.546149
1.000000 0.668130 0.580469
1.000000 0.657827 0.608742
0.049473 0.991639 0.254200
0.042884 0.983958 0.265332
0.044583 0.967405 0.290041
0.077013 0.949164 0.325169
0.178464 0.939996 0.372517
0.398221 0.953992 0.428683
0.772213 0.979875 0.450727
0.971682 0.951760 0.470443
0.996259 0.913152 0.474283
0.059796 0.998262 0.211308
0.057387 0.998296 0.220549
0.064094 0.998388 0.241584
0.093097 0.998586 0.271499
0.186415 0.999263 0.311473
0.397030 1.000000 0.362058
0.724134 1.000000 0.404239
0.939291 0.999713 0.422626
0.991673 0.999600 0.417352
0.012614 0.054849 1.000000
0.040381 0.051633 1.000000
0.117664 0.046453 1.000000
0.263473 0.044399 1.000000
0.496220 0.052265 1.000000
0.761055 0.075283 1.000000
0.955279 0.056599 1.000000
1.000000 0.026106 0.994154
1.000000 0.023986 0.993410
0.012918 0.082798 1.000000
0.038074 0.078739 1.000000
0.108825 0.071732 1.000000
0.246261 0.066890 1.000000
0.471189 0.069565 1.000000
0.737988 0.084379 1.000000
0.944387 0.069091 1.000000
1.000000 0.043130 0.994206
1.000000 0.040181 0.993441
0.018978 0.147969 1.000000
0.038382 0.140782 1.000000
0.093179 0.127858 1.000000
0.211574 0.117298 1.000000
0.420199 0.113072 1.000000
0.689591 0.116080 1.000000
0.919779 0.103010 1.000000
1.000000 0.084310 0.994818
1.000000 0.080184 0.994009
0.047383 0.261135 1.000000
0.053732 0.246433 1.000000
0.082373 0.218662 1.000000
0.169704 0.196188 1.000000
0.355248 0.184884 1.000000
0.625706 0.179011 1.000000
0.884955 0.164204 1.000000
1.000000 0.149432 0.996421
1.000000 0.144200 0.995519
0.110779 0.445024 0.972213
0.100797 0.420590 0.974343
0.098299 0.371361 0.971337
0.139832 0.329066 0.971572
0.288457 0.306878 0.988370
0.553043 0.291035 1.000000
0.845035 0.271965 1.000000
1.000000 0.258462 0.999629
1.000000 0.253184 0.999291
0.200328 0.682248 0.883511
0.188821 0.657219 0.893366
0.170066 0.604520 0.909267
0.171476 0.550144 0.929814
0.259708 0.510097 0.963630
0.487286 0.478518 1.000000
0.816997 0.450070 1.000000
1.000000 0.439162 0.993468
1.000000 0.435967 0.992571
0.159044 0.897737 0.698357
0.149583 0.882555 0.716384
0.136238 0.850142 0.750289
0.141746 0.812468 0.793357
0.215838 0.778272 0.857718
0.407972 0.749960 0.961194
0.789341 0.719578 1.000000
1.000000 0.706063 0.966309
1.000000 0.703685 0.944862
0.108339 0.995171 0.506161
0.102286 0.995326 0.527895
0.096808 0.990731 0.571104
0.109813 0.977902 0.625276
0.195114 0.970897 0.697622
0.405930 0.984638 0.800110
0.766857 1.000000 0.900255
0.991839 0.980094 0.926873
1.000000 0.941146 0.860893
0.128473 0.994849 0.425569
0.122693 0.994972 0.446033
0.117890 0.995245 0.488656
0.129390 0.995689 0.543481
0.206817 0.996732 0.612229
0.411951 0.999613 0.700287
0.738773 1.000000 0.789511
0.951959 1.000000 0.834177
0.988820 0.999047 0.817420
0.013018 0.062411 1.000000
0.041652 0.058831 1.000000
0.121548 0.052856 1.000000
0.270681 0.049798 1.000000
0.506248 0.056404 1.000000
0.769510 0.077765 1.000000
0.957782 0.058611 1.000000
1.000000 0.026778 0.999812
1.000000 0.024265 0.999394
0.013568 0.091610 1.000000
0.039647 0.087400 1.000000
0.113057 0.080017 1.000000
0.254100 0.074447 1.000000
0.482073 0.075945 1.000000
0.747525 0.088965 1.000000
0.947693 0.072926 1.000000
1.000000 0.045936 1.000000
1.000000 0.042429 0.999565
0.021333 0.161608 1.000000
0.041950 0.154673 1.000000
0.099426 0.142105 1.000000
0.222559 0.130794 1.000000
0.434744 0.124691 1.000000
0.702563 0.125589 1.000000
0.925437 0.111441 1.000000
1.000000 0.091572 1.000000
1.000000 0.086912 1.000000
0.056455 0.284969 1.000000
0.064577 0.272084 1.000000
0.096086 0.248022 1.000000
0.190193 0.225400 1.000000
0.379456 0.209128 1.000000
0.645921 0.198410 1.000000
0.894801 0.180736 1.000000
1.000000 0.163208 1.000000
1.000000 0.156826 1.000000
0.135568 0.480870 1.000000
0.130146 0.461039 1.000000
0.129465 0.422621 1.000000
0.176561 0.384325 1.000000
0.328820 0.353865 1.000000
0.585321 0.329182 1.000000
0.860505 0.302593 1.000000
1.000000 0.283018 1.000000
1.000000 0.274902 1.000000
0.215360 0.719328 1.000000
0.208213 0.699136 1.000000
0.198523 0.658551 1.000000
0.211105 0.613894 1.000000
0.307255 0.572653 1.000000
0.533905 0.534659 1.000000
0.836701 0.495929 1.000000
1.000000 0.473506 1.000000
1.000000 0.465303 1.000000
0.146982 0.922026 0.854369
0.140889 0.910027 0.871206
0.134500 0.884616 0.902455
0.150332 0.853968 0.940479
0.242216 0.823422 0.995426
0.463303 0.796065 1.000000
0.806753 0.762482 1.000000
1.000000 0.735189 1.000000
1.000000 0.724550 1.000000
0.076395 0.995587 0.650624
0.069441 0.995818 0.676501
0.068558 0.996322 0.726209
0.097379 0.994309 0.785399
0.202343 0.988649 0.857906
0.427917 0.995225 0.951523
0.777051 0.997267 1.000000
0.989535 0.958219 1.000000
0.999811 0.933650 0.997938
0.105306 0.994939 0.551827
0.097183 0.995139 0.579553
0.090186 0.995594 0.634503
0.107346 0.996285 0.701201
0.202221 0.997621 0.779857
0.419703 1.000000 0.875610
0.748170 1.000000 0.968053
0.959073 1.000000 0.998158
0.990210 0.992276 0.986155
