src/silbersalz_look/luts/silbersalz-250d_v0-statistical_33.cube
TITLE "silbersalz-250d_v0-statistical_33"
# Generated by silbersalz-look on 2026-08-22
# Input:  Silbersalz flat-scan code values [0,1] (Display P3 tagged)
# Output: graded display code values (Display P3)
# track: v0-statistical
LUT_3D_SIZE 9
DOMAIN_MIN 0.0 0.0 0.0
DOMAIN_MAX 1.0 1.0 1.0
0.018749 0.033393 0.046282
0.044198 0.029920 0.044364
0.060949 0.027643 0.043106
0.067382 0.026791 0.042625
0.173380 0.016645 0.034692
0.376996 0.008127 0.021010
0.870460 0.003346 0.007582
0.997084 0.002610 0.005483
0.998149 0.002455 0.005102
0.015677 0.064114 0.043521
0.040268 0.060642 0.041603
0.056857 0.058365 0.040345
0.063290 0.057493 0.039863
0.169288 0.043140 0.031932
0.372904 0.017945 0.019221
0.866861 0.004464 0.007181
0.997001 0.003241 0.005279
0.998114 0.003006 0.004925
0.015417 0.067331 0.043231
0.039868 0.063859 0.041313
0.056429 0.061582 0.040055
0.062862 0.060710 0.039574
0.168860 0.046349 0.031643
0.372476 0.020390 0.019046
0.866488 0.004636 0.007139
0.996992 0.003327 0.005258
0.998110 0.003080 0.004907
0.015178 0.070549 0.042942
0.039477 0.067077 0.041024
0.056000 0.064800 0.039766
0.062433 0.063928 0.039285
0.168431 0.049566 0.031355
0.372047 0.023236 0.018870
0.866122 0.004953 0.007096
0.996981 0.003453 0.005237
0.998106 0.003183 0.004889
0.010360 0.164660 0.034483
0.028181 0.161188 0.032566
0.043468 0.158910 0.031308
0.049898 0.158039 0.030828
0.155895 0.143675 0.023303
0.359513 0.116143 0.014707
0.854892 0.050378 0.006112
0.996673 0.022167 0.004706
0.997984 0.015549 0.004424
0.006947 0.311802 0.022271
0.013987 0.308330 0.020901
0.024544 0.306052 0.020038
0.030610 0.305181 0.019726
0.136308 0.290818 0.015539
0.339915 0.263226 0.010157
0.836154 0.195760 0.005037
0.995987 0.164217 0.004066
0.997750 0.154551 0.003854
0.003430 0.758944 0.007532
0.004491 0.755565 0.007252
0.005493 0.753364 0.007063
0.006344 0.752525 0.006993
0.077329 0.738554 0.006075
0.280126 0.711574 0.004878
0.777783 0.644540 0.003319
0.990542 0.613090 0.002881
0.996454 0.603423 0.002774
0.002391 0.996763 0.004434
0.002841 0.996691 0.004341
0.003205 0.996638 0.004279
0.003444 0.996615 0.004256
0.030919 0.996266 0.003921
0.231093 0.995190 0.003409
0.728987 0.988947 0.002583
0.961658 0.979009 0.002315
0.993180 0.971105 0.002246
0.002252 0.998355 0.004108
0.002646 0.998331 0.004028
0.002960 0.998315 0.003976
0.003151 0.998308 0.003956
0.022003 0.998197 0.003666
0.220834 0.997927 0.003216
0.718727 0.996725 0.002471
0.951486 0.995527 0.002225
0.991274 0.994895 0.002161
0.017046 0.030845 0.072717
0.042176 0.027373 0.070799
0.058864 0.025102 0.069541
0.065297 0.024295 0.069059
0.171295 0.015464 0.061125
0.374911 0.007698 0.045897
0.868624 0.003275 0.013454
0.997043 0.002567 0.008206
0.998131 0.002418 0.007398
0.014482 0.061567 0.069955
0.038314 0.058095 0.068037
0.054772 0.055817 0.066779
0.061205 0.054946 0.066298
0.167203 0.040595 0.058363
0.370819 0.016292 0.043141
0.865013 0.004337 0.012315
0.996957 0.003175 0.007763
0.998095 0.002950 0.007036
0.014261 0.064784 0.069666
0.037920 0.061312 0.067748
0.054344 0.059035 0.066490
0.060777 0.058163 0.066008
0.166775 0.043802 0.058074
0.370391 0.018350 0.042853
0.864639 0.004500 0.012206
0.996947 0.003258 0.007720
0.998091 0.003021 0.007001
0.014055 0.068002 0.069377
0.037534 0.064530 0.067459
0.053916 0.062252 0.066201
0.060348 0.061381 0.065719
0.166346 0.047019 0.057785
0.369962 0.020951 0.042565
0.864271 0.004799 0.012099
0.996936 0.003378 0.007677
0.998087 0.003119 0.006966
0.009825 0.162113 0.060917
0.026323 0.158640 0.058999
0.041383 0.156363 0.057741
0.047813 0.155491 0.057260
0.153810 0.141128 0.049326
0.357428 0.113605 0.034155
0.852950 0.047983 0.009627
0.996617 0.019989 0.006612
0.997963 0.014286 0.006077
0.006700 0.309254 0.047702
0.012999 0.305782 0.045787
0.022619 0.303505 0.044532
0.028602 0.302633 0.044053
0.134224 0.288270 0.036152
0.337830 0.260679 0.021760
0.834120 0.193213 0.007297
0.995908 0.161670 0.005445
0.997723 0.152004 0.005076
0.003369 0.756458 0.013312
0.004384 0.753078 0.012527
0.005334 0.750877 0.012035
0.006143 0.750038 0.011860
0.075292 0.736064 0.009577
0.278041 0.709057 0.006992
0.775720 0.642001 0.004202
0.990117 0.610543 0.003527
0.996381 0.600876 0.003368
0.002362 0.996713 0.006099
0.002799 0.996640 0.005926
0.003153 0.996586 0.005816
0.003383 0.996562 0.005776
0.029074 0.996203 0.005184
0.229009 0.995077 0.004340
0.726902 0.988478 0.003092
0.959587 0.977344 0.002717
0.992882 0.968697 0.002622
0.002226 0.998338 0.005509
0.002610 0.998313 0.005368
0.002915 0.998297 0.005278
0.003099 0.998290 0.005245
0.020352 0.998176 0.004753
0.218749 0.997899 0.004034
0.716642 0.996652 0.002933
0.949404 0.995386 0.002595
0.990811 0.994701 0.002508
0.016971 0.030719 0.074031
0.042078 0.027246 0.072113
0.058761 0.024979 0.070855
0.065194 0.024179 0.070374
0.171192 0.015405 0.062440
0.374807 0.007677 0.047205
0.868535 0.003271 0.014062
0.997040 0.002565 0.008432
0.998131 0.002416 0.007581
0.014428 0.061440 0.071270
0.038219 0.057968 0.069352
0.054669 0.055691 0.068094
0.061102 0.054819 0.067612
0.167099 0.040468 0.059678
0.370716 0.016217 0.044446
0.864923 0.004331 0.012827
0.996954 0.003172 0.007965
0.998094 0.002947 0.007202
0.014208 0.064657 0.070980
0.037825 0.061185 0.069063
0.054240 0.058908 0.067805
0.060673 0.058036 0.067323
0.166671 0.043676 0.059389
0.370287 0.018260 0.044158
0.864549 0.004493 0.012710
0.996945 0.003255 0.007919
0.998090 0.003018 0.007165
0.014004 0.067875 0.070691
0.037440 0.064403 0.068773
0.053812 0.062126 0.067515
0.060244 0.061254 0.067034
0.166242 0.046892 0.059099
0.369859 0.020844 0.043870
0.864181 0.004791 0.012595
0.996934 0.003374 0.007875
0.998086 0.003116 0.007128
0.009799 0.161986 0.062231
0.026233 0.158514 0.060314
0.041279 0.156236 0.059056
0.047709 0.155365 0.058574
0.153707 0.141001 0.050640
0.357325 0.113479 0.035445
0.852854 0.047867 0.009950
0.996614 0.019890 0.006758
0.997962 0.014227 0.006201
0.006688 0.309128 0.049012
0.012954 0.305656 0.047095
0.022526 0.303378 0.045839
0.028504 0.302507 0.045359
0.134121 0.288144 0.037450
0.337726 0.260552 0.022906
0.834020 0.193086 0.007482
0.995903 0.161543 0.005544
0.997721 0.151878 0.005162
0.003366 0.756336 0.013905
0.004379 0.752956 0.013061
0.005326 0.750755 0.012530
0.006132 0.749916 0.012342
0.075192 0.735941 0.009902
0.277938 0.708933 0.007164
0.775618 0.641875 0.004262
0.990093 0.610417 0.003569
0.996377 0.600749 0.003406
0.002360 0.996710 0.006223
0.002797 0.996637 0.006044
0.003150 0.996582 0.005929
0.003380 0.996559 0.005887
0.028985 0.996199 0.005274
0.228905 0.995070 0.004403
0.726798 0.988451 0.003123
0.959484 0.977254 0.002741
0.992864 0.968576 0.002645
0.002225 0.998337 0.005610
0.002608 0.998312 0.005464
0.002913 0.998296 0.005371
0.003096 0.998289 0.005336
0.020277 0.998175 0.004828
0.218645 0.997897 0.004088
0.716538 0.996648 0.002962
0.949301 0.995377 0.002617
0.990785 0.994689 0.002529
0.016761 0.030337 0.077998
0.041788 0.026871 0.076080
0.058448 0.024626 0.074822
0.064881 0.023846 0.074340
0.170879 0.015219 0.066406
0.374494 0.007608 0.051169
0.868273 0.003260 0.016652
0.997033 0.002559 0.009767
0.998128 0.002410 0.008690
0.014273 0.061058 0.075236
0.037938 0.057586 0.073318
0.054356 0.055309 0.072060
0.060789 0.054437 0.071579
0.166787 0.040087 0.063645
0.370403 0.015999 0.048408
0.864659 0.004312 0.015169
0.996946 0.003163 0.009183
0.998091 0.002939 0.008209
0.014058 0.064275 0.074947
0.037546 0.060803 0.073029
0.053928 0.058526 0.071771
0.060360 0.057654 0.071290
0.166358 0.043294 0.063355
0.369974 0.018003 0.048120
0.864285 0.004472 0.015025
0.996937 0.003245 0.009124
0.998087 0.003009 0.008159
0.013858 0.067493 0.074658
0.037162 0.064021 0.072740
0.053499 0.061743 0.071482
0.059932 0.060872 0.071000
0.165929 0.046510 0.063066
0.369546 0.020542 0.047831
0.863916 0.004766 0.014883
0.996926 0.003362 0.009064
0.998083 0.003106 0.008109
0.009725 0.161604 0.066198
0.025969 0.158132 0.064280
0.040967 0.155854 0.063022
0.047397 0.154982 0.062541
0.153394 0.140619 0.054606
0.357012 0.113101 0.039392
0.852569 0.047525 0.011653
0.996604 0.019611 0.007627
0.997958 0.014052 0.006931
0.006653 0.308746 0.052976
0.012822 0.305274 0.051059
0.022254 0.302996 0.049802
0.028215 0.302125 0.049321
0.133809 0.287762 0.041403
0.337413 0.260170 0.026602
0.833722 0.192704 0.008551
0.995888 0.161162 0.006097
0.997717 0.151497 0.005635
0.003357 0.755971 0.016364
0.004363 0.752591 0.015386
0.005302 0.750390 0.014761
0.006099 0.749551 0.014533
0.074894 0.735575 0.011563
0.277625 0.708559 0.008150
0.775311 0.641495 0.004572
0.990014 0.610035 0.003751
0.996363 0.600367 0.003568
0.002356 0.996699 0.006952
0.002791 0.996626 0.006731
0.003142 0.996571 0.006585
0.003370 0.996548 0.006531
0.028723 0.996185 0.005780
0.228592 0.995044 0.004717
0.726485 0.988360 0.003251
0.959175 0.976969 0.002832
0.992799 0.968213 0.002729
0.002221 0.998334 0.006191
0.002603 0.998309 0.006013
0.002906 0.998293 0.005896
0.003088 0.998286 0.005852
0.020059 0.998172 0.005234
0.218333 0.997893 0.004342
0.716226 0.996634 0.003073
0.948989 0.995348 0.002698
0.990692 0.994648 0.002604
0.013431 0.023312 0.153310
0.036277 0.020760 0.151392
0.052508 0.019239 0.150134
0.058941 0.018717 0.149653
0.164938 0.012328 0.141719
0.368555 0.006601 0.126477
0.863057 0.003073 0.089226
0.996902 0.002445 0.071856
0.998073 0.002309 0.066537
0.011792 0.053801 0.150549
0.032551 0.050330 0.148631
0.048417 0.048054 0.147373
0.054848 0.047183 0.146891
0.160846 0.032844 0.138957
0.364463 0.012488 0.123715
0.859392 0.003991 0.086470
0.996807 0.002991 0.069104
0.998035 0.002790 0.063786
0.011645 0.057018 0.150260
0.032169 0.053546 0.148342
0.047988 0.051268 0.147084
0.054420 0.050397 0.146602
0.160418 0.036041 0.138668
0.364035 0.013881 0.123426
0.859010 0.004127 0.086181
0.996796 0.003065 0.068817
0.998030 0.002854 0.063499
0.011505 0.060236 0.149970
0.031796 0.056763 0.148052
0.047560 0.054486 0.146794
0.053991 0.053614 0.146313
0.159989 0.039257 0.138379
0.363607 0.015713 0.123137
0.858633 0.004373 0.085893
0.996783 0.003165 0.068530
0.998026 0.002938 0.063213
0.008496 0.154346 0.141511
0.020794 0.150874 0.139593
0.035029 0.148597 0.138335
0.041457 0.147725 0.137853
0.147454 0.133362 0.129919
0.351072 0.105891 0.114678
0.846897 0.040926 0.077461
0.996422 0.015137 0.060129
0.997893 0.011366 0.054859
0.006049 0.301489 0.128284
0.010678 0.298017 0.126366
0.017368 0.295739 0.125108
0.022720 0.294868 0.124626
0.127878 0.280504 0.116693
0.331473 0.252913 0.101460
0.827949 0.185448 0.064348
0.995635 0.153908 0.047193
0.997634 0.144251 0.041979
0.003195 0.748917 0.087962
0.004087 0.745535 0.086049
0.004899 0.743332 0.084796
0.005586 0.742492 0.084317
0.069127 0.728502 0.076416
0.271685 0.701375 0.061335
0.769424 0.634261 0.025951
0.988491 0.602779 0.013965
0.996119 0.593110 0.011948
0.002276 0.996539 0.055064
0.002679 0.996459 0.053179
0.003002 0.996400 0.051949
0.003204 0.996374 0.051480
0.023567 0.995973 0.043721
0.222653 0.994645 0.029166
0.720546 0.986649 0.009050
0.953269 0.970556 0.006386
0.991671 0.961117 0.005891
0.002150 0.998282 0.048270
0.002505 0.998255 0.046393
0.002786 0.998237 0.045168
0.002948 0.998230 0.044702
0.016379 0.998108 0.036964
0.212395 0.997807 0.022927
0.710285 0.996391 0.007817
0.943056 0.994834 0.005744
0.989174 0.993910 0.005336
0.010230 0.016129 0.275606
0.027752 0.014601 0.273688
0.042869 0.013618 0.272430
0.049296 0.013264 0.271948
0.155292 0.008965 0.264014
0.358910 0.005466 0.248773
0.854364 0.002814 0.211503
0.996645 0.002281 0.194077
0.997976 0.002162 0.188735
0.009245 0.042036 0.272844
0.024146 0.038575 0.270926
0.038780 0.036308 0.269668
0.045205 0.035446 0.269187
0.151200 0.021533 0.261253
0.354818 0.009115 0.246011
0.850522 0.003568 0.208742
0.996531 0.002751 0.191315
0.997933 0.002580 0.185974
0.009154 0.045240 0.272555
0.023778 0.041772 0.270637
0.038352 0.039501 0.269379
0.044776 0.038634 0.268898
0.150772 0.024511 0.260963
0.354390 0.009871 0.245722
0.850117 0.003675 0.208452
0.996517 0.002813 0.191026
0.997928 0.002635 0.185684
0.009066 0.048455 0.272266
0.023423 0.044986 0.270348
0.037926 0.042711 0.269090
0.044349 0.041843 0.268608
0.150343 0.027625 0.260674
0.353961 0.011018 0.245432
0.849715 0.003857 0.208163
0.996502 0.002894 0.190737
0.997923 0.002703 0.185395
0.007072 0.142562 0.263806
0.014357 0.139090 0.261888
0.025514 0.136813 0.260630
0.031851 0.135941 0.260149
0.137809 0.121585 0.252214
0.341426 0.094298 0.236973
0.837581 0.030810 0.199703
0.996074 0.010785 0.182277
0.997775 0.008624 0.176936
0.005284 0.289704 0.250579
0.008430 0.286232 0.248661
0.012419 0.283955 0.247403
0.015808 0.283083 0.246922
0.118274 0.268720 0.238987
0.321828 0.241129 0.223746
0.818597 0.173670 0.186477
0.995138 0.142159 0.169051
0.997481 0.132534 0.163710
0.002966 0.737482 0.210228
0.003713 0.734094 0.208310
0.004370 0.731886 0.207052
0.004909 0.731043 0.206571
0.059872 0.716991 0.198637
0.262040 0.689687 0.183395
0.759850 0.622506 0.146138
0.984874 0.590995 0.128744
0.995584 0.581326 0.123424
0.002159 0.996226 0.177136
0.002517 0.996131 0.175218
0.002801 0.996060 0.173960
0.002967 0.996029 0.173478
0.016839 0.995520 0.165544
0.213014 0.993843 0.150306
0.710900 0.982286 0.113157
0.943656 0.959017 0.096020
0.989177 0.949402 0.090796
0.002045 0.998187 0.170211
0.002363 0.998158 0.168293
0.002612 0.998138 0.167035
0.002749 0.998130 0.166554
0.012398 0.997992 0.158620
0.202767 0.997644 0.143383
0.700639 0.995840 0.106322
0.933420 0.993470 0.089259
0.986356 0.991940 0.084045
0.005880 0.006686 0.645608
0.010126 0.006301 0.643698
0.016051 0.006050 0.642447
0.020915 0.005961 0.641969
0.126114 0.004871 0.634066
0.329719 0.003639 0.618859
0.826244 0.002246 0.581617
0.995571 0.001896 0.564195
0.997612 0.001813 0.558853
0.005542 0.012660 0.642857
0.009117 0.011425 0.640947
0.013817 0.010683 0.639696
0.017771 0.010433 0.639217
0.122028 0.007556 0.631313
0.325627 0.004993 0.616100
0.822253 0.002703 0.578856
0.995382 0.002212 0.561433
0.997552 0.002100 0.556091
0.005509 0.014072 0.642569
0.009022 0.012582 0.640659
0.013614 0.011698 0.639408
0.017489 0.011404 0.638930
0.121601 0.008060 0.631024
0.325198 0.005208 0.615811
0.821838 0.002764 0.578567
0.995361 0.002252 0.561144
0.997545 0.002136 0.555802
0.005476 0.015963 0.642282
0.008932 0.014211 0.640372
0.013421 0.013166 0.639121
0.017219 0.012817 0.638642
0.121175 0.008907 0.630737
0.324770 0.005604 0.615523
0.821427 0.002850 0.578278
0.995337 0.002300 0.560854
0.997538 0.002178 0.555513
0.004675 0.106971 0.633856
0.006924 0.103529 0.631944
0.009451 0.101281 0.630692
0.011606 0.100426 0.630212
0.108712 0.086325 0.622294
0.312235 0.059718 0.607071
0.809229 0.010903 0.569820
0.994616 0.005549 0.552395
0.997324 0.004886 0.547053
0.003815 0.254040 0.620663
0.005164 0.250568 0.618747
0.006481 0.248290 0.617491
0.007593 0.247419 0.617011
0.089508 0.233056 0.609084
0.292636 0.205467 0.593855
0.790129 0.138134 0.556594
0.992742 0.107046 0.539168
0.996861 0.097648 0.533826
0.002437 0.702490 0.580342
0.002912 0.699044 0.578424
0.003302 0.696789 0.577167
0.003581 0.695927 0.576685
0.033240 0.681649 0.568753
0.232858 0.654209 0.553512
0.730731 0.586871 0.516243
0.962751 0.555331 0.498817
0.992641 0.545661 0.493476
0.001866 0.994756 0.547253
0.002127 0.994557 0.545335
0.002327 0.994408 0.544077
0.002432 0.994344 0.543596
0.008290 0.993342 0.535662
0.183921 0.990302 0.520420
0.681708 0.954420 0.483151
0.914502 0.923445 0.465725
0.979387 0.913784 0.460383
0.001780 0.997826 0.540328
0.002016 0.997783 0.538410
0.002195 0.997754 0.537152
0.002286 0.997742 0.536671
0.006885 0.997536 0.528737
0.173732 0.996952 0.513495
0.671446 0.992230 0.476226
0.904250 0.984829 0.458800
0.973716 0.981438 0.453458
0.004028 0.003998 0.990101
0.005546 0.003864 0.989899
0.007052 0.003776 0.989750
0.008329 0.003744 0.989689
0.095687 0.003298 0.988650
0.299033 0.002691 0.985378
0.796395 0.001849 0.969220
0.993651 0.001608 0.953127
0.997061 0.001548 0.947814
0.003868 0.005648 0.989816
0.005241 0.005386 0.989599
0.006574 0.005222 0.989440
0.007713 0.005163 0.989374
0.091671 0.004359 0.988241
0.294941 0.003369 0.984690
0.792389 0.002149 0.966802
0.993273 0.001830 0.950381
0.996968 0.001752 0.945061
0.003852 0.005917 0.989783
0.005211 0.005630 0.989564
0.006527 0.005450 0.989404
0.007653 0.005386 0.989337
0.091253 0.004517 0.988192
0.294512 0.003463 0.984611
0.791972 0.002187 0.966549
0.993230 0.001857 0.950094
0.996958 0.001777 0.944773
0.003836 0.006435 0.989745
0.005182 0.006106 0.989524
0.006482 0.005896 0.989363
0.007592 0.005819 0.989295
0.090839 0.004812 0.988137
0.294084 0.003612 0.984526
0.791558 0.002234 0.966297
0.993183 0.001888 0.949807
0.996947 0.001806 0.944486
0.003427 0.070201 0.988646
0.004453 0.066816 0.988355
0.005394 0.064612 0.988140
0.006209 0.063772 0.988050
0.078609 0.049881 0.986392
0.281549 0.025933 0.982067
0.779265 0.005296 0.958433
0.991564 0.003593 0.941376
0.996602 0.003304 0.936046
0.002941 0.216550 0.985864
0.003662 0.213078 0.985395
0.004285 0.210800 0.985059
0.004793 0.209929 0.984923
0.059664 0.195566 0.982688
0.261951 0.167991 0.976771
0.759811 0.101331 0.945500
0.985983 0.072006 0.928173
0.995744 0.063559 0.922837
0.002048 0.665232 0.967832
0.002370 0.661776 0.966157
0.002623 0.659514 0.965068
0.002772 0.658649 0.964647
0.013414 0.644354 0.957306
0.202219 0.616838 0.942416
0.700056 0.549387 0.905269
0.932800 0.517842 0.887862
0.985672 0.508174 0.882524
0.001631 0.991978 0.936242
0.001826 0.991632 0.934327
0.001973 0.991381 0.933071
0.002044 0.991275 0.932591
0.005121 0.989340 0.924667
0.153644 0.980047 0.909444
0.651021 0.917483 0.872207
0.883828 0.885978 0.854789
0.955127 0.876309 0.849447
0.001565 0.997259 0.929331
0.001744 0.997190 0.927414
0.001877 0.997141 0.926158
0.001941 0.997122 0.925677
0.004535 0.996770 0.917751
0.143629 0.995552 0.902527
0.640759 0.982540 0.865286
0.873568 0.962905 0.847864
0.944924 0.953316 0.842523
0.003719 0.003625 0.997649
0.004966 0.003514 0.997621
0.006148 0.003443 0.997602
0.007157 0.003416 0.997594
0.087675 0.003042 0.997465
0.290838 0.002519 0.997153
0.788397 0.001767 0.995855
0.992831 0.001545 0.994611
0.996865 0.001490 0.994012
0.003582 0.004938 0.997610
0.004721 0.004737 0.997581
0.005782 0.004610 0.997560
0.006697 0.004565 0.997552
0.083671 0.003925 0.997418
0.286746 0.003103 0.997093
0.784381 0.002038 0.995706
0.992344 0.001749 0.994329
0.996758 0.001678 0.993666
0.003569 0.005141 0.997605
0.004697 0.004924 0.997576
0.005747 0.004787 0.997556
0.006651 0.004738 0.997548
0.083254 0.004053 0.997413
0.286318 0.003183 0.997086
0.783962 0.002072 0.995687
0.992287 0.001774 0.994293
0.996746 0.001701 0.993622
0.003555 0.005538 0.997600
0.004673 0.005287 0.997571
0.005712 0.005125 0.997551
0.006605 0.005065 0.997542
0.082842 0.004276 0.997407
0.285889 0.003301 0.997078
0.783545 0.002113 0.995665
0.992226 0.001802 0.994250
0.996733 0.001727 0.993571
0.003201 0.060464 0.997464
0.004074 0.057083 0.997431
0.004851 0.054881 0.997407
0.005521 0.054046 0.997398
0.070634 0.040656 0.997244
0.273354 0.018422 0.996859
0.771167 0.004633 0.995046
0.990011 0.003288 0.993045
0.996330 0.003045 0.992033
0.002772 0.206539 0.997196
0.003402 0.203067 0.997154
0.003935 0.200789 0.997125
0.004351 0.199918 0.997113
0.051783 0.185555 0.996914
0.253757 0.157992 0.996377
0.751640 0.091741 0.993364
0.981776 0.063311 0.990043
0.995265 0.054951 0.988832
0.001965 0.655274 0.995713
0.002259 0.651818 0.995595
0.002487 0.649554 0.995505
0.002617 0.648689 0.995466
0.010934 0.634386 0.994818
0.194056 0.606838 0.992735
0.691862 0.539376 0.984234
0.924636 0.507832 0.978871
0.982910 0.498164 0.976893
0.001578 0.990899 0.992020
0.001760 0.990468 0.991607
0.001896 0.990156 0.991301
0.001961 0.990024 0.991178
0.004646 0.987399 0.989350
0.145649 0.973355 0.985436
0.642826 0.907494 0.972290
0.875634 0.875968 0.958643
0.946970 0.866298 0.953322
0.001517 0.997050 0.990483
0.001683 0.996969 0.990050
0.001808 0.996912 0.989731
0.001866 0.996889 0.989602
0.004154 0.996468 0.987700
0.135653 0.994878 0.983586
0.632565 0.978120 0.967838
0.865373 0.952997 0.951758
0.936733 0.943336 0.946418
